; G-Code generated by Simplify3D(R) Version 4.1.2
; Jan 4, 2020 at 3:01:32 AM
; Settings Summary
;   processName,With Support
;   applyToModels,100mm Ringing Test Cube
;   profileName,ShadowHawk ProMega Hemera Inland PETG (modified)
;   profileVersion,2018-12-30 22:09:45
;   baseProfile,Default
;   printMaterial,MG PETG
;   printQuality,Medium
;   printExtruders,All Extruders
;   extruderName,Main Extruder
;   extruderToolheadNumber,0
;   extruderDiameter,0.4
;   extruderAutoWidth,0
;   extruderWidth,0.4
;   extrusionMultiplier,1
;   extruderUseRetract,1
;   extruderRetractionDistance,1
;   extruderExtraRestartDistance,0
;   extruderRetractionZLift,0.5
;   extruderRetractionSpeed,600
;   extruderUseCoasting,0
;   extruderCoastingDistance,0.1
;   extruderUseWipe,1
;   extruderWipeDistance,2
;   primaryExtruder,0
;   layerHeight,0.3
;   topSolidLayers,0
;   bottomSolidLayers,0
;   perimeterOutlines,1
;   printPerimetersInsideOut,1
;   startPointOption,3
;   startPointOriginX,5000
;   startPointOriginY,5000
;   sequentialIslands,0
;   spiralVaseMode,1
;   firstLayerHeightPercentage,80
;   firstLayerWidthPercentage,105
;   firstLayerUnderspeed,0.12
;   useRaft,0
;   raftExtruder,0
;   raftTopLayers,3
;   raftBaseLayers,2
;   raftOffset,3
;   raftSeparationDistance,0.14
;   raftTopInfill,100
;   aboveRaftSpeedMultiplier,0.3
;   useSkirt,0
;   skirtExtruder,0
;   skirtLayers,1
;   skirtOutlines,2
;   skirtOffset,4
;   usePrimePillar,0
;   primePillarExtruder,0
;   primePillarWidth,12
;   primePillarLocation,7
;   primePillarSpeedMultiplier,1
;   useOozeShield,0
;   oozeShieldExtruder,999
;   oozeShieldOffset,2
;   oozeShieldOutlines,1
;   oozeShieldSidewallShape,1
;   oozeShieldSidewallAngle,30
;   oozeShieldSpeedMultiplier,1
;   infillExtruder,0
;   internalInfillPattern,Rectilinear
;   externalInfillPattern,Rectilinear
;   infillPercentage,0
;   outlineOverlapPercentage,30
;   infillExtrusionWidthPercentage,100
;   minInfillLength,3
;   infillLayerInterval,1
;   internalInfillAngles,45,-45
;   overlapInternalInfillAngles,0
;   externalInfillAngles,45,-45,0,90
;   generateSupport,0
;   supportExtruder,0
;   supportInfillPercentage,40
;   supportExtraInflation,0
;   supportBaseLayers,1
;   denseSupportExtruder,0
;   denseSupportLayers,4
;   denseSupportInfillPercentage,70
;   supportLayerInterval,1
;   supportHorizontalPartOffset,0.5
;   supportUpperSeparationLayers,1
;   supportLowerSeparationLayers,1
;   supportType,0
;   supportGridSpacing,4
;   maxOverhangAngle,60
;   supportAngles,35
;   temperatureName,Extruder 1,Heated Bed
;   temperatureNumber,0,0
;   temperatureSetpointCount,1,1
;   temperatureSetpointLayers,1,1
;   temperatureSetpointTemperatures,240,70
;   temperatureStabilizeAtStartup,1,1
;   temperatureHeatedBed,0,1
;   fanLayers,1
;   fanSpeeds,0
;   blipFanToFullPower,0
;   adjustSpeedForCooling,0
;   minSpeedLayerTime,20
;   minCoolingSpeedSlowdown,20
;   increaseFanForCooling,0
;   minFanLayerTime,45
;   maxCoolingFanSpeed,100
;   increaseFanForBridging,1
;   bridgingFanSpeed,100
;   use5D,1
;   relativeEdistances,0
;   allowEaxisZeroing,1
;   independentExtruderAxes,0
;   includeM10123,0
;   stickySupport,1
;   applyToolheadOffsets,0
;   gcodeXoffset,0
;   gcodeYoffset,0
;   gcodeZoffset,0
;   overrideMachineDefinition,1
;   machineTypeOverride,0
;   strokeXoverride,353
;   strokeYoverride,341
;   strokeZoverride,374.4
;   originOffsetXoverride,0
;   originOffsetYoverride,0
;   originOffsetZoverride,0
;   homeXdirOverride,1
;   homeYdirOverride,1
;   homeZdirOverride,1
;   flipXoverride,1
;   flipYoverride,-1
;   flipZoverride,1
;   toolheadOffsets,0,0|0,0|0,0|0,0|0,0|0,0
;   overrideFirmwareConfiguration,1
;   firmwareTypeOverride,RepRap (Marlin/Repetier/Sprinter)
;   GPXconfigOverride,r2
;   baudRateOverride,115200
;   overridePrinterModels,0
;   printerModelsOverride
;   startingGcode,M98 Pprint_startgcode.g
;   layerChangeGcode,,
;   retractionGcode,
;   toolChangeGcode,G91 ; use relative positions,G1 Z0.5 ; move the bed down by 0.5,T[new_tool],G1 Z-0.5 ; move the bed up by 0.5,G90 ; back to absolute positions
;   endingGcode,M98 Pprint_stopgcode.g
;   exportFileFormat,gcode
;   celebration,0
;   celebrationSong,Star Wars
;   postProcessing,
;   defaultSpeed,6000
;   outlineUnderspeed,1
;   solidInfillUnderspeed,0.8
;   supportUnderspeed,0.5
;   rapidXYspeed,7200
;   rapidZspeed,450
;   minBridgingArea,50
;   bridgingExtraInflation,0
;   bridgingExtrusionMultiplier,1.2
;   bridgingSpeedMultiplier,0.3
;   useFixedBridgingAngle,0
;   fixedBridgingAngle,135
;   applyBridgingToPerimeters,1
;   filamentDiameters,1.75|1.75|1.75|1.75|1.75|1.75
;   filamentPricesPerKg,19|46|46|46|46|46
;   filamentDensities,1.25|1.25|1.25|1.25|1.25|1.25
;   useMinPrintHeight,0
;   minPrintHeight,21.4
;   useMaxPrintHeight,0
;   maxPrintHeight,10
;   useDiaphragm,0
;   diaphragmLayerInterval,20
;   robustSlicing,1
;   mergeAllIntoSolid,0
;   onlyRetractWhenCrossingOutline,0
;   retractBetweenLayers,1
;   useRetractionMinTravel,1
;   retractionMinTravel,3
;   retractWhileWiping,0
;   onlyWipeOutlines,1
;   avoidCrossingOutline,0
;   maxMovementDetourFactor,400
;   toolChangeRetractionDistance,2
;   toolChangeExtraRestartDistance,0.75
;   toolChangeRetractionSpeed,600
;   externalThinWallType,1
;   internalThinWallType,2
;   thinWallAllowedOverlapPercentage,80
;   singleExtrusionMinLength,0.4
;   singleExtrusionMinPrintingWidthPercentage,20
;   singleExtrusionMaxPrintingWidthPercentage,200
;   singleExtrusionEndpointExtension,0.2
;   horizontalSizeCompensation,0
G90
M82
M106 S0
M140 S70
M190 S70
M104 S240 T0
M109 S240 T0
M98 Pprint_startgcode.g
; process With Support
; layer 1, Z = 0.240
G91 ; use relative positions
G1 Z0.5 ; move the bed down by 0.5
T0
G1 Z-0.5 ; move the bed up by 0.5
G90 ; back to absolute positions
G92 E0.0000
G1 E-1.0000 F600
; feature outer perimeter
; tool H0.240 W0.420
G1 Z0.500 F450
G1 X226.290 Y220.290 F7200
G1 Z0.240 F450
G1 E0.0000 F600
G92 E0.0000
G1 X126.710 Y220.290 E4.1732 F720
G1 X126.710 Y120.710 E8.3464
G1 X226.290 Y120.710 E12.5195
G1 X226.290 Y220.290 E16.6927
G1 X224.290 Y220.290 F720
; layer 2, Z = 0.540
; tool H0.300 W0.400
G1 X226.300 Y220.300 F7200
G92 E0.0000
G1 X126.700 Y220.300 Z0.315 E3.1057 F6000
G1 X126.700 Y120.700 Z0.390 E6.8325
G1 X226.300 Y120.700 Z0.465 E11.1804
G1 X226.300 Y220.300 Z0.540 E16.1495
; layer 3, Z = 0.840
G92 E0.0000
G1 X126.700 Y220.300 Z0.615 E4.9691 F6000
G1 X126.700 Y120.700 Z0.690 E9.9381
G1 X226.300 Y120.700 Z0.765 E14.9072
G1 X226.300 Y220.300 Z0.840 E19.8763
; layer 4, Z = 1.140
G92 E0.0000
G1 X126.700 Y220.300 Z0.915 E4.9691 F6000
G1 X126.700 Y120.700 Z0.990 E9.9381
G1 X226.300 Y120.700 Z1.065 E14.9072
G1 X226.300 Y220.300 Z1.140 E19.8763
; layer 5, Z = 1.440
G92 E0.0000
G1 X126.700 Y220.300 Z1.215 E4.9691 F6000
G1 X126.700 Y120.700 Z1.290 E9.9381
G1 X226.300 Y120.700 Z1.365 E14.9072
G1 X226.300 Y220.300 Z1.440 E19.8763
; layer 6, Z = 1.740
G92 E0.0000
G1 X126.700 Y220.300 Z1.515 E4.9691 F6000
G1 X126.700 Y120.700 Z1.590 E9.9381
G1 X226.300 Y120.700 Z1.665 E14.9072
G1 X226.300 Y220.300 Z1.740 E19.8763
; layer 7, Z = 2.040
G92 E0.0000
G1 X126.700 Y220.300 Z1.815 E4.9691 F6000
G1 X126.700 Y120.700 Z1.890 E9.9381
G1 X226.300 Y120.700 Z1.965 E14.9072
G1 X226.300 Y220.300 Z2.040 E19.8763
; layer 8, Z = 2.340
G92 E0.0000
G1 X126.700 Y220.300 Z2.115 E4.9691 F6000
G1 X126.700 Y120.700 Z2.190 E9.9381
G1 X226.300 Y120.700 Z2.265 E14.9072
G1 X226.300 Y220.300 Z2.340 E19.8763
; layer 9, Z = 2.640
G92 E0.0000
G1 X126.700 Y220.300 Z2.415 E4.9691 F6000
G1 X126.700 Y120.700 Z2.490 E9.9381
G1 X226.300 Y120.700 Z2.565 E14.9072
G1 X226.300 Y220.300 Z2.640 E19.8763
; layer 10, Z = 2.940
G92 E0.0000
G1 X126.700 Y220.300 Z2.715 E4.9691 F6000
G1 X126.700 Y120.700 Z2.790 E9.9381
G1 X226.300 Y120.700 Z2.865 E14.9072
G1 X226.300 Y220.300 Z2.940 E19.8763
; layer 11, Z = 3.240
G92 E0.0000
G1 X126.700 Y220.300 Z3.015 E4.9691 F6000
G1 X126.700 Y120.700 Z3.090 E9.9381
G1 X226.300 Y120.700 Z3.165 E14.9072
G1 X226.300 Y220.300 Z3.240 E19.8763
; layer 12, Z = 3.540
G92 E0.0000
G1 X126.700 Y220.300 Z3.315 E4.9691 F6000
G1 X126.700 Y120.700 Z3.390 E9.9381
G1 X226.300 Y120.700 Z3.465 E14.9072
G1 X226.300 Y220.300 Z3.540 E19.8763
; layer 13, Z = 3.840
G92 E0.0000
G1 X126.700 Y220.300 Z3.615 E4.9691 F6000
G1 X126.700 Y120.700 Z3.690 E9.9381
G1 X226.300 Y120.700 Z3.765 E14.9072
G1 X226.300 Y220.300 Z3.840 E19.8763
; layer 14, Z = 4.140
G92 E0.0000
G1 X126.700 Y220.300 Z3.915 E4.9691 F6000
G1 X126.700 Y120.700 Z3.990 E9.9381
G1 X226.300 Y120.700 Z4.065 E14.9072
G1 X226.300 Y220.300 Z4.140 E19.8763
; layer 15, Z = 4.440
G92 E0.0000
G1 X126.700 Y220.300 Z4.215 E4.9691 F6000
G1 X126.700 Y120.700 Z4.290 E9.9381
G1 X226.300 Y120.700 Z4.365 E14.9072
G1 X226.300 Y220.300 Z4.440 E19.8763
; layer 16, Z = 4.740
G92 E0.0000
G1 X126.700 Y220.300 Z4.515 E4.9691 F6000
G1 X126.700 Y120.700 Z4.590 E9.9381
G1 X226.300 Y120.700 Z4.665 E14.9072
G1 X226.300 Y220.300 Z4.740 E19.8763
; layer 17, Z = 5.040
G92 E0.0000
G1 X126.700 Y220.300 Z4.815 E4.9691 F6000
G1 X126.700 Y120.700 Z4.890 E9.9381
G1 X226.300 Y120.700 Z4.965 E14.9072
G1 X226.300 Y220.300 Z5.040 E19.8763
; layer 18, Z = 5.340
G92 E0.0000
G1 X126.700 Y220.300 Z5.115 E4.9691 F6000
G1 X126.700 Y120.700 Z5.190 E9.9381
G1 X226.300 Y120.700 Z5.265 E14.9072
G1 X226.300 Y220.300 Z5.340 E19.8763
; layer 19, Z = 5.640
G92 E0.0000
G1 X126.700 Y220.300 Z5.415 E4.9691 F6000
G1 X126.700 Y120.700 Z5.490 E9.9381
G1 X226.300 Y120.700 Z5.565 E14.9072
G1 X226.300 Y220.300 Z5.640 E19.8763
; layer 20, Z = 5.940
G92 E0.0000
G1 X126.700 Y220.300 Z5.715 E4.9691 F6000
G1 X126.700 Y120.700 Z5.790 E9.9381
G1 X226.300 Y120.700 Z5.865 E14.9072
G1 X226.300 Y220.300 Z5.940 E19.8763
; layer 21, Z = 6.240
G92 E0.0000
G1 X126.700 Y220.300 Z6.015 E4.9691 F6000
G1 X126.700 Y120.700 Z6.090 E9.9381
G1 X226.300 Y120.700 Z6.165 E14.9072
G1 X226.300 Y220.300 Z6.240 E19.8763
; layer 22, Z = 6.540
G92 E0.0000
G1 X126.700 Y220.300 Z6.315 E4.9691 F6000
G1 X126.700 Y120.700 Z6.390 E9.9381
G1 X226.300 Y120.700 Z6.465 E14.9072
G1 X226.300 Y220.300 Z6.540 E19.8763
; layer 23, Z = 6.840
G92 E0.0000
G1 X126.700 Y220.300 Z6.615 E4.9691 F6000
G1 X126.700 Y120.700 Z6.690 E9.9381
G1 X226.300 Y120.700 Z6.765 E14.9072
G1 X226.300 Y220.300 Z6.840 E19.8763
; layer 24, Z = 7.140
G92 E0.0000
G1 X126.700 Y220.300 Z6.915 E4.9691 F6000
G1 X126.700 Y120.700 Z6.990 E9.9381
G1 X226.300 Y120.700 Z7.065 E14.9072
G1 X226.300 Y220.300 Z7.140 E19.8763
; layer 25, Z = 7.440
G92 E0.0000
G1 X126.700 Y220.300 Z7.215 E4.9691 F6000
G1 X126.700 Y120.700 Z7.290 E9.9381
G1 X226.300 Y120.700 Z7.365 E14.9072
G1 X226.300 Y220.300 Z7.440 E19.8763
; layer 26, Z = 7.740
G92 E0.0000
G1 X126.700 Y220.300 Z7.515 E4.9691 F6000
G1 X126.700 Y120.700 Z7.590 E9.9381
G1 X226.300 Y120.700 Z7.665 E14.9072
G1 X226.300 Y220.300 Z7.740 E19.8763
; layer 27, Z = 8.040
G92 E0.0000
G1 X126.700 Y220.300 Z7.815 E4.9691 F6000
G1 X126.700 Y120.700 Z7.890 E9.9381
G1 X226.300 Y120.700 Z7.965 E14.9072
G1 X226.300 Y220.300 Z8.040 E19.8763
; layer 28, Z = 8.340
G92 E0.0000
G1 X126.700 Y220.300 Z8.115 E4.9691 F6000
G1 X126.700 Y120.700 Z8.190 E9.9381
G1 X226.300 Y120.700 Z8.265 E14.9072
G1 X226.300 Y220.300 Z8.340 E19.8763
; layer 29, Z = 8.640
G92 E0.0000
G1 X126.700 Y220.300 Z8.415 E4.9691 F6000
G1 X126.700 Y120.700 Z8.490 E9.9381
G1 X226.300 Y120.700 Z8.565 E14.9072
G1 X226.300 Y220.300 Z8.640 E19.8763
; layer 30, Z = 8.940
G92 E0.0000
G1 X126.700 Y220.300 Z8.715 E4.9691 F6000
G1 X126.700 Y120.700 Z8.790 E9.9381
G1 X226.300 Y120.700 Z8.865 E14.9072
G1 X226.300 Y220.300 Z8.940 E19.8763
; layer 31, Z = 9.240
G92 E0.0000
G1 X126.700 Y220.300 Z9.015 E4.9691 F6000
G1 X126.700 Y120.700 Z9.090 E9.9381
G1 X226.300 Y120.700 Z9.165 E14.9072
G1 X226.300 Y220.300 Z9.240 E19.8763
; layer 32, Z = 9.540
G92 E0.0000
G1 X126.700 Y220.300 Z9.315 E4.9691 F6000
G1 X126.700 Y120.700 Z9.390 E9.9381
G1 X226.300 Y120.700 Z9.465 E14.9072
G1 X226.300 Y220.300 Z9.540 E19.8763
; layer 33, Z = 9.840
G92 E0.0000
G1 X126.700 Y220.300 Z9.615 E4.9691 F6000
G1 X126.700 Y120.700 Z9.690 E9.9381
G1 X226.300 Y120.700 Z9.765 E14.9072
G1 X226.300 Y220.300 Z9.840 E19.8763
; layer 34, Z = 10.140
G92 E0.0000
G1 X126.700 Y220.300 Z9.915 E4.9691 F6000
G1 X126.700 Y120.700 Z9.990 E9.9381
G1 X226.300 Y120.700 Z10.065 E14.9072
G1 X226.300 Y220.300 Z10.140 E19.8763
; layer 35, Z = 10.440
G92 E0.0000
G1 X126.700 Y220.300 Z10.215 E4.9691 F6000
G1 X126.700 Y120.700 Z10.290 E9.9381
G1 X226.300 Y120.700 Z10.365 E14.9072
G1 X226.300 Y220.300 Z10.440 E19.8763
; layer 36, Z = 10.740
G92 E0.0000
G1 X126.700 Y220.300 Z10.515 E4.9691 F6000
G1 X126.700 Y120.700 Z10.590 E9.9381
G1 X226.300 Y120.700 Z10.665 E14.9072
G1 X226.300 Y220.300 Z10.740 E19.8763
; layer 37, Z = 11.040
G92 E0.0000
G1 X126.700 Y220.300 Z10.815 E4.9691 F6000
G1 X126.700 Y120.700 Z10.890 E9.9381
G1 X226.300 Y120.700 Z10.965 E14.9072
G1 X226.300 Y220.300 Z11.040 E19.8763
; layer 38, Z = 11.340
G92 E0.0000
G1 X126.700 Y220.300 Z11.115 E4.9691 F6000
G1 X126.700 Y120.700 Z11.190 E9.9381
G1 X226.300 Y120.700 Z11.265 E14.9072
G1 X226.300 Y220.300 Z11.340 E19.8763
; layer 39, Z = 11.640
G92 E0.0000
G1 X126.700 Y220.300 Z11.415 E4.9691 F6000
G1 X126.700 Y120.700 Z11.490 E9.9381
G1 X226.300 Y120.700 Z11.565 E14.9072
G1 X226.300 Y220.300 Z11.640 E19.8763
; layer 40, Z = 11.940
G92 E0.0000
G1 X126.700 Y220.300 Z11.715 E4.9691 F6000
G1 X126.700 Y120.700 Z11.790 E9.9381
G1 X226.300 Y120.700 Z11.865 E14.9072
G1 X226.300 Y220.300 Z11.940 E19.8763
; layer 41, Z = 12.240
G92 E0.0000
G1 X126.700 Y220.300 Z12.015 E4.9691 F6000
G1 X126.700 Y120.700 Z12.090 E9.9381
G1 X226.300 Y120.700 Z12.165 E14.9072
G1 X226.300 Y220.300 Z12.240 E19.8763
; layer 42, Z = 12.540
G92 E0.0000
G1 X126.700 Y220.300 Z12.315 E4.9691 F6000
G1 X126.700 Y120.700 Z12.390 E9.9381
G1 X226.300 Y120.700 Z12.465 E14.9072
G1 X226.300 Y220.300 Z12.540 E19.8763
; layer 43, Z = 12.840
G92 E0.0000
G1 X126.700 Y220.300 Z12.615 E4.9691 F6000
G1 X126.700 Y120.700 Z12.690 E9.9381
G1 X226.300 Y120.700 Z12.765 E14.9072
G1 X226.300 Y220.300 Z12.840 E19.8763
; layer 44, Z = 13.140
G92 E0.0000
G1 X126.700 Y220.300 Z12.915 E4.9691 F6000
G1 X126.700 Y120.700 Z12.990 E9.9381
G1 X226.300 Y120.700 Z13.065 E14.9072
G1 X226.300 Y220.300 Z13.140 E19.8763
; layer 45, Z = 13.440
G92 E0.0000
G1 X126.700 Y220.300 Z13.215 E4.9691 F6000
G1 X126.700 Y120.700 Z13.290 E9.9381
G1 X226.300 Y120.700 Z13.365 E14.9072
G1 X226.300 Y220.300 Z13.440 E19.8763
; layer 46, Z = 13.740
G92 E0.0000
G1 X126.700 Y220.300 Z13.515 E4.9691 F6000
G1 X126.700 Y120.700 Z13.590 E9.9381
G1 X226.300 Y120.700 Z13.665 E14.9072
G1 X226.300 Y220.300 Z13.740 E19.8763
; layer 47, Z = 14.040
G92 E0.0000
G1 X126.700 Y220.300 Z13.815 E4.9691 F6000
G1 X126.700 Y120.700 Z13.890 E9.9381
G1 X226.300 Y120.700 Z13.965 E14.9072
G1 X226.300 Y220.300 Z14.040 E19.8763
; layer 48, Z = 14.340
G92 E0.0000
G1 X126.700 Y220.300 Z14.115 E4.9691 F6000
G1 X126.700 Y120.700 Z14.190 E9.9381
G1 X226.300 Y120.700 Z14.265 E14.9072
G1 X226.300 Y220.300 Z14.340 E19.8763
; layer 49, Z = 14.640
G92 E0.0000
G1 X126.700 Y220.300 Z14.415 E4.9691 F6000
G1 X126.700 Y120.700 Z14.490 E9.9381
G1 X226.300 Y120.700 Z14.565 E14.9072
G1 X226.300 Y220.300 Z14.640 E19.8763
; layer 50, Z = 14.940
G92 E0.0000
G1 X126.700 Y220.300 Z14.715 E4.9691 F6000
G1 X126.700 Y120.700 Z14.790 E9.9381
G1 X226.300 Y120.700 Z14.865 E14.9072
G1 X226.300 Y220.300 Z14.940 E19.8763
; layer 51, Z = 15.240
G92 E0.0000
G1 X126.700 Y220.300 Z15.015 E4.9691 F6000
G1 X126.700 Y120.700 Z15.090 E9.9381
G1 X226.300 Y120.700 Z15.165 E14.9072
G1 X226.300 Y220.300 Z15.240 E19.8763
; layer 52, Z = 15.540
G92 E0.0000
G1 X126.700 Y220.300 Z15.315 E4.9691 F6000
G1 X126.700 Y120.700 Z15.390 E9.9381
G1 X226.300 Y120.700 Z15.465 E14.9072
G1 X226.300 Y220.300 Z15.540 E19.8763
; layer 53, Z = 15.840
G92 E0.0000
G1 X126.700 Y220.300 Z15.615 E4.9691 F6000
G1 X126.700 Y120.700 Z15.690 E9.9381
G1 X226.300 Y120.700 Z15.765 E14.9072
G1 X226.300 Y220.300 Z15.840 E19.8763
; layer 54, Z = 16.140
G92 E0.0000
