; G-Code generated by Simplify3D(R) Version 4.1.2
; Jan 5, 2020 at 2:39:19 PM
; Settings Summary
;   processName,Process1
;   applyToModels,CalibrationCube_v2
;   profileName,ShadowHawk ProMega Hemera Inland PETG
;   profileVersion,2020-01-05 14:36:06
;   baseProfile,Default
;   printMaterial,MG PETG
;   printQuality,Medium
;   printExtruders,All Extruders
;   extruderName,Main Extruder
;   extruderToolheadNumber,0
;   extruderDiameter,0.4
;   extruderAutoWidth,0
;   extruderWidth,0.4
;   extrusionMultiplier,1
;   extruderUseRetract,1
;   extruderRetractionDistance,1
;   extruderExtraRestartDistance,0
;   extruderRetractionZLift,0.5
;   extruderRetractionSpeed,600
;   extruderUseCoasting,0
;   extruderCoastingDistance,0.1
;   extruderUseWipe,1
;   extruderWipeDistance,2
;   primaryExtruder,0
;   layerHeight,0.2
;   topSolidLayers,4
;   bottomSolidLayers,4
;   perimeterOutlines,3
;   printPerimetersInsideOut,1
;   startPointOption,3
;   startPointOriginX,5000
;   startPointOriginY,5000
;   sequentialIslands,0
;   spiralVaseMode,0
;   firstLayerHeightPercentage,80
;   firstLayerWidthPercentage,100
;   firstLayerUnderspeed,0.2
;   useRaft,0
;   raftExtruder,0
;   raftTopLayers,3
;   raftBaseLayers,2
;   raftOffset,3
;   raftSeparationDistance,0.14
;   raftTopInfill,100
;   aboveRaftSpeedMultiplier,0.3
;   useSkirt,0
;   skirtExtruder,0
;   skirtLayers,1
;   skirtOutlines,2
;   skirtOffset,4
;   usePrimePillar,0
;   primePillarExtruder,0
;   primePillarWidth,12
;   primePillarLocation,7
;   primePillarSpeedMultiplier,1
;   useOozeShield,0
;   oozeShieldExtruder,999
;   oozeShieldOffset,2
;   oozeShieldOutlines,1
;   oozeShieldSidewallShape,1
;   oozeShieldSidewallAngle,30
;   oozeShieldSpeedMultiplier,1
;   infillExtruder,0
;   internalInfillPattern,Rectilinear
;   externalInfillPattern,Rectilinear
;   infillPercentage,20
;   outlineOverlapPercentage,30
;   infillExtrusionWidthPercentage,100
;   minInfillLength,3
;   infillLayerInterval,1
;   internalInfillAngles,45,-45
;   overlapInternalInfillAngles,0
;   externalInfillAngles,45,-45,0,90
;   generateSupport,0
;   supportExtruder,0
;   supportInfillPercentage,40
;   supportExtraInflation,0
;   supportBaseLayers,1
;   denseSupportExtruder,0
;   denseSupportLayers,4
;   denseSupportInfillPercentage,70
;   supportLayerInterval,1
;   supportHorizontalPartOffset,0.5
;   supportUpperSeparationLayers,1
;   supportLowerSeparationLayers,1
;   supportType,0
;   supportGridSpacing,4
;   maxOverhangAngle,60
;   supportAngles,35
;   temperatureName,Extruder 1,Heated Bed
;   temperatureNumber,0,0
;   temperatureSetpointCount,1,1
;   temperatureSetpointLayers,1,1
;   temperatureSetpointTemperatures,230,70
;   temperatureStabilizeAtStartup,1,1
;   temperatureHeatedBed,0,1
;   fanLayers,1,2
;   fanSpeeds,0,60
;   blipFanToFullPower,0
;   adjustSpeedForCooling,1
;   minSpeedLayerTime,20
;   minCoolingSpeedSlowdown,20
;   increaseFanForCooling,1
;   minFanLayerTime,25
;   maxCoolingFanSpeed,100
;   increaseFanForBridging,1
;   bridgingFanSpeed,100
;   use5D,1
;   relativeEdistances,0
;   allowEaxisZeroing,1
;   independentExtruderAxes,0
;   includeM10123,0
;   stickySupport,1
;   applyToolheadOffsets,0
;   gcodeXoffset,0
;   gcodeYoffset,0
;   gcodeZoffset,0
;   overrideMachineDefinition,1
;   machineTypeOverride,0
;   strokeXoverride,353
;   strokeYoverride,341
;   strokeZoverride,374.4
;   originOffsetXoverride,0
;   originOffsetYoverride,0
;   originOffsetZoverride,0
;   homeXdirOverride,1
;   homeYdirOverride,1
;   homeZdirOverride,1
;   flipXoverride,1
;   flipYoverride,-1
;   flipZoverride,1
;   toolheadOffsets,0,0|0,0|0,0|0,0|0,0|0,0
;   overrideFirmwareConfiguration,1
;   firmwareTypeOverride,RepRap (Marlin/Repetier/Sprinter)
;   GPXconfigOverride,r2
;   baudRateOverride,115200
;   overridePrinterModels,0
;   printerModelsOverride
;   startingGcode,M98 Pprint_startgcode.g
;   layerChangeGcode,,
;   retractionGcode,
;   toolChangeGcode,G91 ; use relative positions,G1 Z0.5 ; move the bed down by 0.5,T[new_tool],G1 Z-0.5 ; move the bed up by 0.5,G90 ; back to absolute positions
;   endingGcode,M98 Pprint_stopgcode.g
;   exportFileFormat,gcode
;   celebration,0
;   celebrationSong,Star Wars
;   postProcessing,
;   defaultSpeed,3600
;   outlineUnderspeed,0.5
;   solidInfillUnderspeed,0.8
;   supportUnderspeed,0.5
;   rapidXYspeed,7200
;   rapidZspeed,450
;   minBridgingArea,50
;   bridgingExtraInflation,0
;   bridgingExtrusionMultiplier,1.2
;   bridgingSpeedMultiplier,0.3
;   useFixedBridgingAngle,0
;   fixedBridgingAngle,135
;   applyBridgingToPerimeters,1
;   filamentDiameters,1.75|1.75|1.75|1.75|1.75|1.75
;   filamentPricesPerKg,19|46|46|46|46|46
;   filamentDensities,1.25|1.25|1.25|1.25|1.25|1.25
;   useMinPrintHeight,0
;   minPrintHeight,21.4
;   useMaxPrintHeight,0
;   maxPrintHeight,10
;   useDiaphragm,0
;   diaphragmLayerInterval,20
;   robustSlicing,1
;   mergeAllIntoSolid,0
;   onlyRetractWhenCrossingOutline,0
;   retractBetweenLayers,1
;   useRetractionMinTravel,1
;   retractionMinTravel,3
;   retractWhileWiping,0
;   onlyWipeOutlines,1
;   avoidCrossingOutline,0
;   maxMovementDetourFactor,400
;   toolChangeRetractionDistance,2
;   toolChangeExtraRestartDistance,0.75
;   toolChangeRetractionSpeed,600
;   externalThinWallType,1
;   internalThinWallType,2
;   thinWallAllowedOverlapPercentage,80
;   singleExtrusionMinLength,0.4
;   singleExtrusionMinPrintingWidthPercentage,20
;   singleExtrusionMaxPrintingWidthPercentage,200
;   singleExtrusionEndpointExtension,0.2
;   horizontalSizeCompensation,0
G90
M82
M106 S0
M140 S70
M190 S70
M104 S230 T0
M109 S230 T0
M98 Pprint_startgcode.g
; process Process1
; layer 1, Z = 0.160
G91 ; use relative positions
G1 Z0.5 ; move the bed down by 0.5
T0
G1 Z-0.5 ; move the bed up by 0.5
G90 ; back to absolute positions
G92 E0.0000
G1 E-1.0000 F600
; feature inner perimeter
; tool H0.160 W0.400
G1 Z0.500 F450
G1 X188.580 Y182.580 F7200
G1 Z0.160 F450
G1 E0.0000 F600
G92 E0.0000
G1 X164.420 Y182.580 E0.6429 F540
G1 X164.420 Y158.420 E1.2857
G1 X188.580 Y158.420 E1.9286
G1 X188.580 Y182.580 E2.5714
G1 X188.980 Y182.980 F7200
G92 E0.0000
G1 X164.020 Y182.980 E0.6641 F540
G1 X164.020 Y158.020 E1.3283
G1 X188.980 Y158.020 E1.9924
G1 X188.980 Y182.980 E2.6566
; feature outer perimeter
G1 X189.380 Y183.380 F7200
G92 E0.0000
G1 X163.620 Y183.380 E0.6854 F360
G1 X163.620 Y157.620 E1.3708
G1 X189.380 Y157.620 E2.0563
G1 X189.380 Y183.380 E2.7417
G92 E0.0000
G1 E-1.0000 F600
G1 X187.380 Y183.380 F360
; feature solid layer
G1 Z0.660 F450
G1 X165.107 Y182.300 F7200
G1 Z0.160 F450
G1 E0.0000 F600
G92 E0.0000
G1 X164.700 Y181.893 E0.0153 F576
G1 X164.700 Y181.327 E0.0304
G1 X165.673 Y182.300 E0.0670
G1 X166.238 Y182.300 E0.0820
G1 X164.700 Y180.762 E0.1399
G1 X164.700 Y180.196 E0.1550
G1 X166.804 Y182.300 E0.2341
G1 X167.370 Y182.300 E0.2492
G1 X164.700 Y179.630 E0.3496
G1 X164.700 Y179.065 E0.3647
G1 X167.935 Y182.300 E0.4864
G1 X168.501 Y182.300 E0.5015
G1 X164.700 Y178.499 E0.6445
G1 X164.700 Y177.933 E0.6596
G1 X169.067 Y182.300 E0.8239
G1 X169.632 Y182.300 E0.8389
G1 X164.700 Y177.368 E1.0245
G1 X164.700 Y176.802 E1.0396
G1 X170.198 Y182.300 E1.2465
G1 X170.764 Y182.300 E1.2615
G1 X164.700 Y176.236 E1.4897
G1 X164.700 Y175.671 E1.5048
G1 X171.329 Y182.300 E1.7542
G1 X171.895 Y182.300 E1.7693
G1 X164.700 Y175.105 E2.0400
G1 X164.700 Y174.539 E2.0551
G1 X172.461 Y182.300 E2.3471
G1 X173.026 Y182.300 E2.3622
G1 X164.700 Y173.973 E2.6755
G1 X164.700 Y173.408 E2.6905
G1 X173.592 Y182.300 E3.0251
G1 X174.158 Y182.300 E3.0402
G1 X164.700 Y172.842 E3.3961
G1 X164.700 Y172.276 E3.4111
G1 X174.724 Y182.300 E3.7883
G1 X175.289 Y182.300 E3.8034
G1 X164.700 Y171.711 E4.2018
G1 X164.700 Y171.145 E4.2169
G1 X175.855 Y182.300 E4.6367
G1 X176.421 Y182.300 E4.6517
G1 X164.700 Y170.579 E5.0927
G1 X164.700 Y170.014 E5.1078
G1 X176.986 Y182.300 E5.5701
G1 X177.552 Y182.300 E5.5852
G1 X164.700 Y169.448 E6.0688
G1 X164.700 Y168.882 E6.0838
G1 X178.118 Y182.300 E6.5887
G1 X178.683 Y182.300 E6.6038
G1 X164.700 Y168.317 E7.1300
G1 X164.700 Y167.751 E7.1450
G1 X179.249 Y182.300 E7.6925
G1 X179.815 Y182.300 E7.7076
G1 X164.700 Y167.185 E8.2763
G1 X164.700 Y166.620 E8.2914
G1 X180.380 Y182.300 E8.8814
G1 X180.946 Y182.300 E8.8965
G1 X164.700 Y166.054 E9.5078
G1 X164.700 Y165.488 E9.5229
G1 X181.512 Y182.300 E10.1555
G1 X182.077 Y182.300 E10.1705
G1 X164.700 Y164.923 E10.8244
G1 X164.700 Y164.357 E10.8395
G1 X182.643 Y182.300 E11.5147
G1 X183.209 Y182.300 E11.5297
G1 X164.700 Y163.791 E12.2262
G1 X164.700 Y163.225 E12.2413
G1 X183.775 Y182.300 E12.9590
G1 X184.340 Y182.300 E12.9741
G1 X164.700 Y162.660 E13.7131
G1 X164.700 Y162.094 E13.7282
G1 X184.906 Y182.300 E14.4885
G1 X185.472 Y182.300 E14.5036
G1 X164.700 Y161.528 E15.2852
G1 X164.700 Y160.963 E15.3003
G1 X186.037 Y182.300 E16.1032
G1 X186.603 Y182.300 E16.1182
G1 X164.700 Y160.397 E16.9424
G1 X164.700 Y159.831 E16.9575
G1 X187.169 Y182.300 E17.8030
G1 X187.734 Y182.300 E17.8180
G1 X164.700 Y159.266 E18.6848
G1 X164.700 Y158.700 E18.6998
G1 X188.300 Y182.300 E19.5879
G1 X188.300 Y181.734 E19.6029
G1 X165.266 Y158.700 E20.4697
G1 X165.831 Y158.700 E20.4848
G1 X188.300 Y181.169 E21.3302
G1 X188.300 Y180.603 E21.3453
G1 X166.397 Y158.700 E22.1695
G1 X166.963 Y158.700 E22.1845
G1 X188.300 Y180.037 E22.9875
G1 X188.300 Y179.472 E23.0025
G1 X167.528 Y158.700 E23.7841
G1 X168.094 Y158.700 E23.7992
G1 X188.300 Y178.906 E24.5595
G1 X188.300 Y178.340 E24.5746
G1 X168.660 Y158.700 E25.3136
G1 X169.225 Y158.700 E25.3287
G1 X188.300 Y177.774 E26.0464
G1 X188.300 Y177.209 E26.0615
G1 X169.791 Y158.700 E26.7580
G1 X170.357 Y158.700 E26.7730
G1 X188.300 Y176.643 E27.4482
G1 X188.300 Y176.077 E27.4633
G1 X170.923 Y158.700 E28.1172
G1 X171.488 Y158.700 E28.1322
G1 X188.300 Y175.512 E28.7648
G1 X188.300 Y174.946 E28.7799
G1 X172.054 Y158.700 E29.3912
G1 X172.620 Y158.700 E29.4063
G1 X188.300 Y174.380 E29.9963
G1 X188.300 Y173.815 E30.0114
G1 X173.185 Y158.700 E30.5801
G1 X173.751 Y158.700 E30.5952
G1 X188.300 Y173.249 E31.1427
G1 X188.300 Y172.683 E31.1577
G1 X174.317 Y158.700 E31.6839
G1 X174.882 Y158.700 E31.6990
G1 X188.300 Y172.118 E32.2039
G1 X188.300 Y171.552 E32.2189
G1 X175.448 Y158.700 E32.7025
G1 X176.014 Y158.700 E32.7176
G1 X188.300 Y170.986 E33.1799
G1 X188.300 Y170.421 E33.1949
G1 X176.579 Y158.700 E33.6360
G1 X177.145 Y158.700 E33.6510
G1 X188.300 Y169.855 E34.0708
G1 X188.300 Y169.289 E34.0858
G1 X177.711 Y158.700 E34.4843
G1 X178.276 Y158.700 E34.4994
G1 X188.300 Y168.724 E34.8765
G1 X188.300 Y168.158 E34.8916
G1 X178.842 Y158.700 E35.2475
G1 X179.408 Y158.700 E35.2625
G1 X188.300 Y167.592 E35.5972
G1 X188.300 Y167.026 E35.6122
G1 X179.974 Y158.700 E35.9255
G1 X180.539 Y158.700 E35.9406
G1 X188.300 Y166.461 E36.2326
G1 X188.300 Y165.895 E36.2477
G1 X181.105 Y158.700 E36.5184
G1 X181.671 Y158.700 E36.5335
G1 X188.300 Y165.329 E36.7829
G1 X188.300 Y164.764 E36.7980
G1 X182.236 Y158.700 E37.0262
G1 X182.802 Y158.700 E37.0412
G1 X188.300 Y164.198 E37.2481
G1 X188.300 Y163.632 E37.2631
G1 X183.368 Y158.700 E37.4488
G1 X183.933 Y158.700 E37.4638
G1 X188.300 Y163.067 E37.6281
G1 X188.300 Y162.501 E37.6432
G1 X184.499 Y158.700 E37.7862
G1 X185.065 Y158.700 E37.8013
G1 X188.300 Y161.935 E37.9230
G1 X188.300 Y161.370 E37.9380
G1 X185.630 Y158.700 E38.0385
G1 X186.196 Y158.700 E38.0536
G1 X188.300 Y160.804 E38.1327
G1 X188.300 Y160.238 E38.1478
G1 X186.762 Y158.700 E38.2057
G1 X187.327 Y158.700 E38.2207
G1 X188.300 Y159.673 E38.2573
G1 X188.300 Y159.107 E38.2724
G1 X187.893 Y158.700 E38.2877
G92 E0.0000
G1 E-1.0000 F600
; layer 2, Z = 0.360
M106 S153
; feature inner perimeter
; tool H0.200 W0.400
G1 Z0.660 F450
G1 X188.760 Y182.760 F7200
G1 Z0.360 F450
G1 E0.0000 F600
G92 E0.0000
G1 X164.240 Y182.760 E0.8155 F2700
G1 X164.240 Y158.240 E1.6311
G1 X188.760 Y158.240 E2.4466
G1 X188.760 Y182.760 E3.2622
G1 X189.160 Y183.160 F7200
G92 E0.0000
G1 X163.840 Y183.160 E0.8421 F2700
G1 X163.840 Y157.840 E1.6843
G1 X189.160 Y157.840 E2.5264
G1 X189.160 Y183.160 E3.3686
; feature outer perimeter
G1 X189.560 Y183.560 F7200
G92 E0.0000
G1 X163.440 Y183.560 E0.8688 F1800
G1 X163.440 Y157.440 E1.7375
G1 X189.560 Y157.440 E2.6063
G1 X189.560 Y183.560 E3.4750
G1 X187.560 Y183.560 F1800
; feature solid layer
G1 X188.480 Y182.279 F7200
G92 E0.0000
G1 X188.279 Y182.480 E0.0095 F2880
G1 X187.713 Y182.480 E0.0283
G1 X188.480 Y181.713 E0.0643
G1 X188.480 Y181.147 E0.0832
G1 X187.147 Y182.480 E0.1458
G1 X186.582 Y182.480 E0.1647
G1 X188.480 Y180.582 E0.2539
G1 X188.480 Y180.016 E0.2728
G1 X186.016 Y182.480 E0.3886
G1 X185.450 Y182.480 E0.4075
G1 X188.480 Y179.450 E0.5500
G1 X188.480 Y178.885 E0.5688
G1 X184.885 Y182.480 E0.7379
G1 X184.319 Y182.480 E0.7567
G1 X188.480 Y178.319 E0.9524
G1 X188.480 Y177.753 E0.9712
G1 X183.753 Y182.480 E1.1936
G1 X183.188 Y182.480 E1.2124
G1 X188.480 Y177.188 E1.4613
G1 X188.480 Y176.622 E1.4801
G1 X182.622 Y182.480 E1.7557
G1 X182.056 Y182.480 E1.7745
G1 X188.480 Y176.056 E2.0766
G1 X188.480 Y175.491 E2.0955
G1 X181.491 Y182.480 E2.4242
G1 X180.925 Y182.480 E2.4430
G1 X188.480 Y174.925 E2.7984
G1 X188.480 Y174.359 E2.8172
G1 X180.359 Y182.480 E3.1992
G1 X179.794 Y182.480 E3.2180
G1 X188.480 Y173.794 E3.6266
G1 X188.480 Y173.228 E3.6454
G1 X179.228 Y182.480 E4.0806
G1 X178.662 Y182.480 E4.0994
G1 X188.480 Y172.662 E4.5612
G1 X188.480 Y172.096 E4.5800
G1 X178.096 Y182.480 E5.0684
G1 X177.531 Y182.480 E5.0872
G1 X188.480 Y171.531 E5.6023
G1 X188.480 Y170.965 E5.6211
G1 X176.965 Y182.480 E6.1627
G1 X176.399 Y182.480 E6.1815
G1 X188.480 Y170.399 E6.7497
G1 X188.480 Y169.834 E6.7686
G1 X175.834 Y182.480 E7.3634
G1 X175.268 Y182.480 E7.3822
G1 X188.480 Y169.268 E8.0037
G1 X188.480 Y168.702 E8.0225
G1 X174.702 Y182.480 E8.6705
G1 X174.137 Y182.480 E8.6893
G1 X188.480 Y168.137 E9.3640
G1 X188.480 Y167.571 E9.3828
G1 X173.571 Y182.480 E10.0841
G1 X173.005 Y182.480 E10.1029
G1 X188.480 Y167.005 E10.8308
G1 X188.480 Y166.440 E10.8496
G1 X172.440 Y182.480 E11.6041
G1 X171.874 Y182.480 E11.6229
G1 X188.480 Y165.874 E12.4040
G1 X188.480 Y165.308 E12.4228
G1 X171.308 Y182.480 E13.2305
G1 X170.743 Y182.480 E13.2493
G1 X188.480 Y164.743 E14.0837
G1 X188.480 Y164.177 E14.1025
G1 X170.177 Y182.480 E14.9634
G1 X169.611 Y182.480 E14.9822
G1 X188.480 Y163.611 E15.8697
G1 X188.480 Y163.046 E15.8886
G1 X169.046 Y182.480 E16.8027
G1 X168.480 Y182.480 E16.8215
G1 X188.480 Y162.480 E17.7623
G1 X188.480 Y161.914 E17.7811
G1 X167.914 Y182.480 E18.7484
G1 X167.348 Y182.480 E18.7672
G1 X188.480 Y161.348 E19.7612
G1 X188.480 Y160.783 E19.7800
G1 X166.783 Y182.480 E20.8006
G1 X166.217 Y182.480 E20.8194
G1 X188.480 Y160.217 E21.8666
G1 X188.480 Y159.651 E21.8854
G1 X165.651 Y182.480 E22.9592
G1 X165.086 Y182.480 E22.9780
G1 X188.480 Y159.086 E24.0784
G1 X188.480 Y158.520 E24.0972
G1 X164.520 Y182.480 E25.2242
G1 X164.520 Y181.914 E25.2430
G1 X187.914 Y158.520 E26.3434
G1 X187.349 Y158.520 E26.3622
G1 X164.520 Y181.349 E27.4360
G1 X164.520 Y180.783 E27.4548
G1 X186.783 Y158.520 E28.5020
G1 X186.217 Y158.520 E28.5208
G1 X164.520 Y180.217 E29.5414
G1 X164.520 Y179.652 E29.5602
G1 X185.652 Y158.520 E30.5542
G1 X185.086 Y158.520 E30.5730
G1 X164.520 Y179.086 E31.5404
G1 X164.520 Y178.520 E31.5592
G1 X184.520 Y158.520 E32.4999
G1 X183.955 Y158.520 E32.5187
G1 X164.520 Y177.955 E33.4329
G1 X164.520 Y177.389 E33.4517
G1 X183.389 Y158.520 E34.3392
G1 X182.823 Y158.520 E34.3580
G1 X164.520 Y176.823 E35.2190
G1 X164.520 Y176.257 E35.2378
G1 X182.257 Y158.520 E36.0721
G1 X181.692 Y158.520 E36.0909
G1 X164.520 Y175.692 E36.8986
G1 X164.520 Y175.126 E36.9174
G1 X181.126 Y158.520 E37.6985
G1 X180.560 Y158.520 E37.7174
G1 X164.520 Y174.560 E38.4719
G1 X164.520 Y173.995 E38.4907
G1 X179.995 Y158.520 E39.2186
G1 X179.429 Y158.520 E39.2374
G1 X164.520 Y173.429 E39.9386
G1 X164.520 Y172.863 E39.9575
G1 X178.863 Y158.520 E40.6321
G1 X178.298 Y158.520 E40.6509
G1 X164.520 Y172.298 E41.2990
G1 X164.520 Y171.732 E41.3178
G1 X177.732 Y158.520 E41.9393
G1 X177.166 Y158.520 E41.9581
G1 X164.520 Y171.166 E42.5529
G1 X164.520 Y170.601 E42.5717
