; G-Code generated by Simplify3D(R) Version 4.1.2
; Dec 30, 2019 at 11:54:55 AM
; Settings Summary
;   processName,Process1
;   applyToModels,CalibrationZ
;   profileName,ShadowHawk ProMega Hemera Inland PETG
;   profileVersion,2018-12-30 22:09:45
;   baseProfile,Default
;   printMaterial,MG PETG
;   printQuality,Medium
;   printExtruders,All Extruders
;   extruderName,Main Extruder
;   extruderToolheadNumber,0
;   extruderDiameter,0.4
;   extruderAutoWidth,0
;   extruderWidth,0.4
;   extrusionMultiplier,1
;   extruderUseRetract,1
;   extruderRetractionDistance,1
;   extruderExtraRestartDistance,0
;   extruderRetractionZLift,0.5
;   extruderRetractionSpeed,600
;   extruderUseCoasting,0
;   extruderCoastingDistance,0.1
;   extruderUseWipe,1
;   extruderWipeDistance,2
;   primaryExtruder,0
;   layerHeight,0.3
;   topSolidLayers,4
;   bottomSolidLayers,4
;   perimeterOutlines,3
;   printPerimetersInsideOut,1
;   startPointOption,3
;   startPointOriginX,5000
;   startPointOriginY,5000
;   sequentialIslands,0
;   spiralVaseMode,0
;   firstLayerHeightPercentage,80
;   firstLayerWidthPercentage,105
;   firstLayerUnderspeed,0.2
;   useRaft,0
;   raftExtruder,0
;   raftTopLayers,3
;   raftBaseLayers,2
;   raftOffset,3
;   raftSeparationDistance,0.14
;   raftTopInfill,100
;   aboveRaftSpeedMultiplier,0.3
;   useSkirt,1
;   skirtExtruder,0
;   skirtLayers,1
;   skirtOutlines,2
;   skirtOffset,4
;   usePrimePillar,0
;   primePillarExtruder,0
;   primePillarWidth,12
;   primePillarLocation,7
;   primePillarSpeedMultiplier,1
;   useOozeShield,0
;   oozeShieldExtruder,999
;   oozeShieldOffset,2
;   oozeShieldOutlines,1
;   oozeShieldSidewallShape,1
;   oozeShieldSidewallAngle,30
;   oozeShieldSpeedMultiplier,1
;   infillExtruder,0
;   internalInfillPattern,Rectilinear
;   externalInfillPattern,Rectilinear
;   infillPercentage,10
;   outlineOverlapPercentage,30
;   infillExtrusionWidthPercentage,100
;   minInfillLength,3
;   infillLayerInterval,1
;   internalInfillAngles,45,-45
;   overlapInternalInfillAngles,0
;   externalInfillAngles,45,-45,0,90
;   generateSupport,0
;   supportExtruder,0
;   supportInfillPercentage,40
;   supportExtraInflation,0
;   supportBaseLayers,1
;   denseSupportExtruder,0
;   denseSupportLayers,4
;   denseSupportInfillPercentage,70
;   supportLayerInterval,1
;   supportHorizontalPartOffset,0.5
;   supportUpperSeparationLayers,1
;   supportLowerSeparationLayers,1
;   supportType,0
;   supportGridSpacing,4
;   maxOverhangAngle,60
;   supportAngles,35
;   temperatureName,Extruder 1,Heated Bed
;   temperatureNumber,0,0
;   temperatureSetpointCount,2,1
;   temperatureSetpointLayers,1,2,1
;   temperatureSetpointTemperatures,250,275,70
;   temperatureStabilizeAtStartup,1,1
;   temperatureHeatedBed,0,1
;   fanLayers,1
;   fanSpeeds,0
;   blipFanToFullPower,0
;   adjustSpeedForCooling,1
;   minSpeedLayerTime,20
;   minCoolingSpeedSlowdown,20
;   increaseFanForCooling,0
;   minFanLayerTime,45
;   maxCoolingFanSpeed,100
;   increaseFanForBridging,1
;   bridgingFanSpeed,100
;   use5D,1
;   relativeEdistances,0
;   allowEaxisZeroing,1
;   independentExtruderAxes,0
;   includeM10123,0
;   stickySupport,1
;   applyToolheadOffsets,0
;   gcodeXoffset,0
;   gcodeYoffset,0
;   gcodeZoffset,0
;   overrideMachineDefinition,1
;   machineTypeOverride,0
;   strokeXoverride,353
;   strokeYoverride,341
;   strokeZoverride,374.4
;   originOffsetXoverride,0
;   originOffsetYoverride,0
;   originOffsetZoverride,0
;   homeXdirOverride,1
;   homeYdirOverride,1
;   homeZdirOverride,1
;   flipXoverride,1
;   flipYoverride,-1
;   flipZoverride,1
;   toolheadOffsets,0,0|0,0|0,0|0,0|0,0|0,0
;   overrideFirmwareConfiguration,1
;   firmwareTypeOverride,RepRap (Marlin/Repetier/Sprinter)
;   GPXconfigOverride,r2
;   baudRateOverride,115200
;   overridePrinterModels,0
;   printerModelsOverride
;   startingGcode,M98 Pprint_startgcode.g
;   layerChangeGcode,,
;   retractionGcode,
;   toolChangeGcode,G91 ; use relative positions,G1 Z0.5 ; move the bed down by 0.5,T[new_tool],G1 Z-0.5 ; move the bed up by 0.5,G90 ; back to absolute positions
;   endingGcode,M98 Pprint_stopgcode.g
;   exportFileFormat,gcode
;   celebration,0
;   celebrationSong,Star Wars
;   postProcessing,
;   defaultSpeed,3600
;   outlineUnderspeed,0.5
;   solidInfillUnderspeed,0.8
;   supportUnderspeed,0.5
;   rapidXYspeed,7200
;   rapidZspeed,450
;   minBridgingArea,50
;   bridgingExtraInflation,0
;   bridgingExtrusionMultiplier,1.2
;   bridgingSpeedMultiplier,0.3
;   useFixedBridgingAngle,0
;   fixedBridgingAngle,135
;   applyBridgingToPerimeters,1
;   filamentDiameters,1.75|1.75|1.75|1.75|1.75|1.75
;   filamentPricesPerKg,19|46|46|46|46|46
;   filamentDensities,1.25|1.25|1.25|1.25|1.25|1.25
;   useMinPrintHeight,0
;   minPrintHeight,21.4
;   useMaxPrintHeight,0
;   maxPrintHeight,10
;   useDiaphragm,0
;   diaphragmLayerInterval,20
;   robustSlicing,1
;   mergeAllIntoSolid,0
;   onlyRetractWhenCrossingOutline,0
;   retractBetweenLayers,1
;   useRetractionMinTravel,1
;   retractionMinTravel,3
;   retractWhileWiping,0
;   onlyWipeOutlines,1
;   avoidCrossingOutline,0
;   maxMovementDetourFactor,400
;   toolChangeRetractionDistance,2
;   toolChangeExtraRestartDistance,0.75
;   toolChangeRetractionSpeed,600
;   externalThinWallType,1
;   internalThinWallType,2
;   thinWallAllowedOverlapPercentage,80
;   singleExtrusionMinLength,0.4
;   singleExtrusionMinPrintingWidthPercentage,20
;   singleExtrusionMaxPrintingWidthPercentage,200
;   singleExtrusionEndpointExtension,0.2
;   horizontalSizeCompensation,0
G90
M82
M106 S0
M140 S70
M190 S70
M104 S250 T0
M109 S250 T0
M98 Pprint_startgcode.g
; process Process1
; layer 1, Z = 0.240
G91 ; use relative positions
G1 Z0.5 ; move the bed down by 0.5
T0
G1 Z-0.5 ; move the bed up by 0.5
G90 ; back to absolute positions
G92 E0.0000
G1 E-1.0000 F600
; feature skirt
; tool H0.240 W0.420
G1 Z0.500 F450
G1 X193.418 Y190.130 F7200
G1 Z0.240 F450
G1 E0.0000 F600
G92 E0.0000
G1 X159.582 Y190.130 E1.4180 F720
G1 X156.870 Y187.418 E1.5787
G1 X156.870 Y153.582 E2.9967
G1 X159.582 Y150.870 E3.1574
G1 X193.418 Y150.870 E4.5754
G1 X196.130 Y153.582 E4.7362
G1 X196.130 Y187.418 E6.1541
G1 X193.418 Y190.130 E6.3149
G1 X193.244 Y189.710 F7200
G92 E0.0000
G1 X159.756 Y189.710 E1.4034 F720
G1 X157.290 Y187.244 E1.5496
G1 X157.290 Y153.756 E2.9529
G1 X159.756 Y151.290 E3.0991
G1 X193.244 Y151.290 E4.5025
G1 X195.710 Y153.756 E4.6487
G1 X195.710 Y187.244 E6.0521
G1 X193.244 Y189.710 E6.1982
G92 E0.0000
G1 E-1.0000 F600
; feature inner perimeter
G1 Z0.740 F450
G1 X190.450 Y184.450 F7200
G1 Z0.240 F450
G1 E0.0000 F600
G92 E0.0000
G1 X162.550 Y184.450 E1.1692 F540
G1 X162.550 Y156.550 E2.3385
G1 X190.450 Y156.550 E3.5077
G1 X190.450 Y184.450 E4.6769
G1 X190.870 Y184.870 F7200
G92 E0.0000
G1 X162.130 Y184.870 E1.2044 F540
G1 X162.130 Y156.130 E2.4089
G1 X190.870 Y156.130 E3.6133
G1 X190.870 Y184.870 E4.8177
; feature outer perimeter
G1 X191.290 Y185.290 F7200
G92 E0.0000
G1 X161.710 Y185.290 E1.2396 F360
G1 X161.710 Y155.710 E2.4793
G1 X191.290 Y155.710 E3.7189
G1 X191.290 Y185.290 E4.9585
G92 E0.0000
G1 E-1.0000 F600
G1 X189.290 Y185.290 F360
; feature solid layer
G1 Z0.740 F450
G1 X163.427 Y184.156 F7200
G1 Z0.240 F450
G1 E0.0000 F600
G92 E0.0000
G1 X162.844 Y183.573 E0.0346 F576
G1 X162.844 Y182.979 E0.0595
G1 X164.021 Y184.156 E0.1292
G1 X164.615 Y184.156 E0.1541
G1 X162.844 Y182.385 E0.2591
G1 X162.844 Y181.791 E0.2840
G1 X165.209 Y184.156 E0.4242
G1 X165.803 Y184.156 E0.4491
G1 X162.844 Y181.197 E0.6245
G1 X162.844 Y180.603 E0.6494
G1 X166.397 Y184.156 E0.8599
G1 X166.991 Y184.156 E0.8848
G1 X162.844 Y180.009 E1.1306
G1 X162.844 Y179.415 E1.1555
G1 X167.585 Y184.156 E1.4365
G1 X168.179 Y184.156 E1.4614
G1 X162.844 Y178.821 E1.7776
G1 X162.844 Y178.227 E1.8025
G1 X168.773 Y184.156 E2.1539
G1 X169.367 Y184.156 E2.1788
G1 X162.844 Y177.633 E2.5654
G1 X162.844 Y177.039 E2.5903
G1 X169.961 Y184.156 E3.0121
G1 X170.555 Y184.156 E3.0370
G1 X162.844 Y176.445 E3.4940
G1 X162.844 Y175.851 E3.5189
G1 X171.149 Y184.156 E4.0111
G1 X171.743 Y184.156 E4.0360
G1 X162.844 Y175.257 E4.5634
G1 X162.844 Y174.663 E4.5883
G1 X172.337 Y184.156 E5.1509
G1 X172.931 Y184.156 E5.1758
G1 X162.844 Y174.069 E5.7736
G1 X162.844 Y173.475 E5.7985
G1 X173.525 Y184.156 E6.4315
G1 X174.119 Y184.156 E6.4564
G1 X162.844 Y172.881 E7.1246
G1 X162.844 Y172.287 E7.1495
G1 X174.713 Y184.156 E7.8529
G1 X175.307 Y184.156 E7.8778
G1 X162.844 Y171.693 E8.6164
G1 X162.844 Y171.099 E8.6413
G1 X175.901 Y184.156 E9.4152
G1 X176.495 Y184.156 E9.4400
G1 X162.844 Y170.505 E10.2491
G1 X162.844 Y169.911 E10.2740
G1 X177.089 Y184.156 E11.1182
G1 X177.683 Y184.156 E11.1431
G1 X162.844 Y169.317 E12.0225
G1 X162.844 Y168.723 E12.0474
G1 X178.277 Y184.156 E12.9621
G1 X178.871 Y184.156 E12.9870
G1 X162.844 Y168.129 E13.9368
G1 X162.844 Y167.535 E13.9617
G1 X179.465 Y184.156 E14.9467
G1 X180.059 Y184.156 E14.9716
G1 X162.844 Y166.941 E15.9919
G1 X162.844 Y166.348 E16.0168
G1 X180.652 Y184.156 E17.0722
G1 X181.246 Y184.156 E17.0971
G1 X162.844 Y165.754 E18.1877
G1 X162.844 Y165.160 E18.2126
G1 X181.840 Y184.156 E19.3385
G1 X182.434 Y184.156 E19.3634
G1 X162.844 Y164.566 E20.5244
G1 X162.844 Y163.972 E20.5493
G1 X183.028 Y184.156 E21.7456
G1 X183.622 Y184.156 E21.7705
G1 X162.844 Y163.378 E23.0019
G1 X162.844 Y162.784 E23.0268
G1 X184.216 Y184.156 E24.2935
G1 X184.810 Y184.156 E24.3184
G1 X162.844 Y162.190 E25.6203
G1 X162.844 Y161.596 E25.6451
G1 X185.404 Y184.156 E26.9822
G1 X185.998 Y184.156 E27.0071
G1 X162.844 Y161.002 E28.3794
G1 X162.844 Y160.408 E28.4043
G1 X186.592 Y184.156 E29.8117
G1 X187.186 Y184.156 E29.8366
G1 X162.844 Y159.814 E31.2793
G1 X162.844 Y159.220 E31.3042
G1 X187.780 Y184.156 E32.7821
G1 X188.374 Y184.156 E32.8070
G1 X162.844 Y158.626 E34.3201
G1 X162.844 Y158.032 E34.3449
G1 X188.968 Y184.156 E35.8932
G1 X189.562 Y184.156 E35.9181
G1 X162.844 Y157.438 E37.5016
G1 X162.844 Y156.844 E37.5265
G1 X190.156 Y184.156 E39.1452
G1 X190.156 Y183.562 E39.1701
G1 X163.438 Y156.844 E40.7536
G1 X164.032 Y156.844 E40.7785
G1 X190.156 Y182.968 E42.3267
G1 X190.156 Y182.374 E42.3516
G1 X164.626 Y156.844 E43.8647
G1 X165.220 Y156.844 E43.8896
G1 X190.156 Y181.780 E45.3675
G1 X190.156 Y181.186 E45.3924
G1 X165.814 Y156.844 E46.8350
G1 X166.408 Y156.844 E46.8599
G1 X190.156 Y180.592 E48.2674
G1 X190.156 Y179.998 E48.2923
G1 X167.002 Y156.844 E49.6646
G1 X167.596 Y156.844 E49.6895
G1 X190.156 Y179.404 E51.0265
G1 X190.156 Y178.810 E51.0514
G1 X168.190 Y156.844 E52.3533
G1 X168.784 Y156.844 E52.3782
G1 X190.156 Y178.216 E53.6448
G1 X190.156 Y177.622 E53.6697
G1 X169.378 Y156.844 E54.9012
G1 X169.972 Y156.844 E54.9261
G1 X190.156 Y177.028 E56.1223
G1 X190.156 Y176.434 E56.1472
G1 X170.566 Y156.844 E57.3083
G1 X171.160 Y156.844 E57.3332
G1 X190.156 Y175.840 E58.4590
G1 X190.156 Y175.246 E58.4839
G1 X171.754 Y156.844 E59.5746
G1 X172.348 Y156.844 E59.5995
G1 X190.156 Y174.652 E60.6549
G1 X190.156 Y174.059 E60.6798
G1 X172.941 Y156.844 E61.7000
G1 X173.535 Y156.844 E61.7249
G1 X190.156 Y173.465 E62.7100
G1 X190.156 Y172.871 E62.7349
G1 X174.129 Y156.844 E63.6847
G1 X174.723 Y156.844 E63.7096
G1 X190.156 Y172.277 E64.6242
G1 X190.156 Y171.683 E64.6491
G1 X175.317 Y156.844 E65.5286
G1 X175.911 Y156.844 E65.5534
G1 X190.156 Y171.089 E66.3977
G1 X190.156 Y170.495 E66.4226
G1 X176.505 Y156.844 E67.2316
G1 X177.099 Y156.844 E67.2565
G1 X190.156 Y169.901 E68.0303
G1 X190.156 Y169.307 E68.0552
G1 X177.693 Y156.844 E68.7938
G1 X178.287 Y156.844 E68.8187
G1 X190.156 Y168.713 E69.5221
G1 X190.156 Y168.119 E69.5470
G1 X178.881 Y156.844 E70.2153
G1 X179.475 Y156.844 E70.2402
G1 X190.156 Y167.525 E70.8732
G1 X190.156 Y166.931 E70.8981
G1 X180.069 Y156.844 E71.4959
G1 X180.663 Y156.844 E71.5208
G1 X190.156 Y166.337 E72.0834
G1 X190.156 Y165.743 E72.1083
G1 X181.257 Y156.844 E72.6357
G1 X181.851 Y156.844 E72.6606
G1 X190.156 Y165.149 E73.1528
G1 X190.156 Y164.555 E73.1777
G1 X182.445 Y156.844 E73.6347
G1 X183.039 Y156.844 E73.6596
G1 X190.156 Y163.961 E74.0814
G1 X190.156 Y163.367 E74.1063
G1 X183.633 Y156.844 E74.4929
G1 X184.227 Y156.844 E74.5177
G1 X190.156 Y162.773 E74.8691
G1 X190.156 Y162.179 E74.8940
G1 X184.821 Y156.844 E75.2102
G1 X185.415 Y156.844 E75.2351
G1 X190.156 Y161.585 E75.5161
G1 X190.156 Y160.991 E75.5410
G1 X186.009 Y156.844 E75.7868
G1 X186.603 Y156.844 E75.8117
G1 X190.156 Y160.397 E76.0223
G1 X190.156 Y159.803 E76.0472
G1 X187.197 Y156.844 E76.2225
G1 X187.791 Y156.844 E76.2474
G1 X190.156 Y159.209 E76.3876
G1 X190.156 Y158.615 E76.4125
G1 X188.385 Y156.844 E76.5175
G1 X188.979 Y156.844 E76.5424
G1 X190.156 Y158.021 E76.6122
G1 X190.156 Y157.427 E76.6370
G1 X189.573 Y156.844 E76.6716
G92 E0.0000
G1 E-1.0000 F600
; layer 2, Z = 0.540
M104 S275 T0
; feature inner perimeter
; tool H0.300 W0.400
G1 Z0.740 F450
G1 X190.500 Y184.500 F7200
G1 Z0.540 F450
G1 E0.0000 F600
G92 E0.0000
G1 X162.500 Y184.500 E1.3969 F2700
G1 X162.500 Y156.500 E2.7939
G1 X190.500 Y156.500 E4.1908
G1 X190.500 Y184.500 E5.5877
G1 X190.900 Y184.900 F7200
G92 E0.0000
G1 X162.100 Y184.900 E1.4368 F2700
G1 X162.100 Y156.100 E2.8737
G1 X190.900 Y156.100 E4.3105
G1 X190.900 Y184.900 E5.7474
; feature outer perimeter
G1 X191.300 Y185.300 F7200
G92 E0.0000
G1 X161.700 Y185.300 E1.4768 F1800
G1 X161.700 Y155.700 E2.9535
G1 X191.300 Y155.700 E4.4303
G1 X191.300 Y185.300 E5.9070
G1 X189.300 Y185.300 F1800
; feature solid layer
G1 X190.220 Y183.933 F7200
G92 E0.0000
G1 X189.933 Y184.220 E0.0203 F2880
G1 X189.367 Y184.220 E0.0485
G1 X190.220 Y183.367 E0.1086
G1 X190.220 Y182.802 E0.1369
G1 X188.802 Y184.220 E0.2369
G1 X188.236 Y184.220 E0.2652
G1 X190.220 Y182.236 E0.4052
G1 X190.220 Y181.670 E0.4334
G1 X187.670 Y184.220 E0.6133
G1 X187.105 Y184.220 E0.6415
G1 X190.220 Y181.105 E0.8613
G1 X190.220 Y180.539 E0.8895
G1 X186.539 Y184.220 E1.1493
G1 X185.973 Y184.220 E1.1775
G1 X190.220 Y179.973 E1.4771
G1 X190.220 Y179.407 E1.5054
G1 X185.407 Y184.220 E1.8449
G1 X184.842 Y184.220 E1.8731
G1 X190.220 Y178.842 E2.2526
G1 X190.220 Y178.276 E2.2808
G1 X184.276 Y184.220 E2.7002
G1 X183.710 Y184.220 E2.7284
G1 X190.220 Y177.710 E3.1877
G1 X190.220 Y177.145 E3.2159
G1 X183.145 Y184.220 E3.7151
G1 X182.579 Y184.220 E3.7433
G1 X190.220 Y176.579 E4.2825
G1 X190.220 Y176.013 E4.3107
G1 X182.013 Y184.220 E4.8897
G1 X181.448 Y184.220 E4.9179
G1 X190.220 Y175.448 E5.5369
G1 X190.220 Y174.882 E5.5651
G1 X180.882 Y184.220 E6.2239
G1 X180.316 Y184.220 E6.2522
G1 X190.220 Y174.316 E6.9509
G1 X190.220 Y173.751 E6.9791
G1 X179.751 Y184.220 E7.7178
G1 X179.185 Y184.220 E7.7460
G1 X190.220 Y173.185 E8.5246
G1 X190.220 Y172.619 E8.5528
G1 X178.619 Y184.220 E9.3713
G1 X178.054 Y184.220 E9.3996
G1 X190.220 Y172.054 E10.2580
G1 X190.220 Y171.488 E10.2862
G1 X177.488 Y184.220 E11.1845
G1 X176.922 Y184.220 E11.2127
G1 X190.220 Y170.922 E12.1510
G1 X190.220 Y170.356 E12.1792
G1 X176.356 Y184.220 E13.1573
G1 X175.791 Y184.220 E13.1856
G1 X190.220 Y169.791 E14.2036
G1 X190.220 Y169.225 E14.2318
G1 X175.225 Y184.220 E15.2898
G1 X174.659 Y184.220 E15.3180
G1 X190.220 Y168.659 E16.4159
G1 X190.220 Y168.094 E16.4441
G1 X174.094 Y184.220 E17.5819
G1 X173.528 Y184.220 E17.6101
G1 X190.220 Y167.528 E18.7879
G1 X190.220 Y166.962 E18.8161
G1 X172.962 Y184.220 E20.0337
G1 X172.397 Y184.220 E20.0619
G1 X190.220 Y166.397 E21.3195
G1 X190.220 Y165.831 E21.3477
G1 X171.831 Y184.220 E22.6451
G1 X171.265 Y184.220 E22.6733
G1 X190.220 Y165.265 E24.0107
G1 X190.220 Y164.700 E24.0389
G1 X170.700 Y184.220 E25.4162
G1 X170.134 Y184.220 E25.4444
G1 X190.220 Y164.134 E26.8616
G1 X190.220 Y163.568 E26.8898
G1 X169.568 Y184.220 E28.3469
G1 X169.003 Y184.220 E28.3751
G1 X190.220 Y163.003 E29.8721
G1 X190.220 Y162.437 E29.9003
G1 X168.437 Y184.220 E31.4373
G1 X167.871 Y184.220 E31.4655
G1 X190.220 Y161.871 E33.0423
G1 X190.220 Y161.306 E33.0705
G1 X167.306 Y184.220 E34.6873
G1 X166.740 Y184.220 E34.7155
G1 X190.220 Y160.740 E36.3722
G1 X190.220 Y160.174 E36.4004
G1 X166.174 Y184.220 E38.0969
G1 X165.608 Y184.220 E38.1252
G1 X190.220 Y159.608 E39.8616
G1 X190.220 Y159.043 E39.8899
