; G-Code generated by Simplify3D(R) Version 4.1.2
; Dec 20, 2019 at 11:59:39 AM
; Settings Summary
;   processName,Process1
;   applyToModels,Calibration Cube
;   profileName,ShadowHawk ProMega Hemera Inland PETG (modified)
;   profileVersion,2018-12-30 22:09:45
;   baseProfile,Default
;   printMaterial,MG PETG
;   printQuality,Medium
;   printExtruders,All Extruders
;   extruderName,Main Extruder
;   extruderToolheadNumber,0
;   extruderDiameter,0.4
;   extruderAutoWidth,0
;   extruderWidth,0.4
;   extrusionMultiplier,1
;   extruderUseRetract,1
;   extruderRetractionDistance,0.5
;   extruderExtraRestartDistance,0
;   extruderRetractionZLift,0.5
;   extruderRetractionSpeed,1800
;   extruderUseCoasting,0
;   extruderCoastingDistance,0.2
;   extruderUseWipe,1
;   extruderWipeDistance,2
;   primaryExtruder,0
;   layerHeight,0.3
;   topSolidLayers,0
;   bottomSolidLayers,4
;   perimeterOutlines,1
;   printPerimetersInsideOut,1
;   startPointOption,3
;   startPointOriginX,5000
;   startPointOriginY,5000
;   sequentialIslands,0
;   spiralVaseMode,0
;   firstLayerHeightPercentage,90
;   firstLayerWidthPercentage,105
;   firstLayerUnderspeed,0.6
;   useRaft,0
;   raftExtruder,0
;   raftTopLayers,3
;   raftBaseLayers,2
;   raftOffset,3
;   raftSeparationDistance,0.14
;   raftTopInfill,100
;   aboveRaftSpeedMultiplier,0.3
;   useSkirt,1
;   skirtExtruder,0
;   skirtLayers,1
;   skirtOutlines,2
;   skirtOffset,4
;   usePrimePillar,0
;   primePillarExtruder,0
;   primePillarWidth,12
;   primePillarLocation,7
;   primePillarSpeedMultiplier,1
;   useOozeShield,0
;   oozeShieldExtruder,999
;   oozeShieldOffset,2
;   oozeShieldOutlines,1
;   oozeShieldSidewallShape,1
;   oozeShieldSidewallAngle,30
;   oozeShieldSpeedMultiplier,1
;   infillExtruder,0
;   internalInfillPattern,Rectilinear
;   externalInfillPattern,Rectilinear
;   infillPercentage,0
;   outlineOverlapPercentage,40
;   infillExtrusionWidthPercentage,150
;   minInfillLength,3
;   infillLayerInterval,1
;   internalInfillAngles,45,-45
;   overlapInternalInfillAngles,0
;   externalInfillAngles,45,-45,0,90
;   generateSupport,0
;   supportExtruder,0
;   supportInfillPercentage,40
;   supportExtraInflation,0
;   supportBaseLayers,1
;   denseSupportExtruder,0
;   denseSupportLayers,4
;   denseSupportInfillPercentage,70
;   supportLayerInterval,1
;   supportHorizontalPartOffset,0.5
;   supportUpperSeparationLayers,1
;   supportLowerSeparationLayers,1
;   supportType,0
;   supportGridSpacing,4
;   maxOverhangAngle,60
;   supportAngles,35
;   temperatureName,Extruder 1,Heated Bed
;   temperatureNumber,0,0
;   temperatureSetpointCount,2,1
;   temperatureSetpointLayers,1,3,1
;   temperatureSetpointTemperatures,245,235,70
;   temperatureStabilizeAtStartup,1,1
;   temperatureHeatedBed,0,1
;   fanLayers,1,3
;   fanSpeeds,0,50
;   blipFanToFullPower,0
;   adjustSpeedForCooling,1
;   minSpeedLayerTime,20
;   minCoolingSpeedSlowdown,20
;   increaseFanForCooling,1
;   minFanLayerTime,45
;   maxCoolingFanSpeed,100
;   increaseFanForBridging,1
;   bridgingFanSpeed,100
;   use5D,1
;   relativeEdistances,0
;   allowEaxisZeroing,1
;   independentExtruderAxes,0
;   includeM10123,0
;   stickySupport,1
;   applyToolheadOffsets,0
;   gcodeXoffset,0
;   gcodeYoffset,0
;   gcodeZoffset,0
;   overrideMachineDefinition,1
;   machineTypeOverride,0
;   strokeXoverride,353
;   strokeYoverride,341
;   strokeZoverride,374.4
;   originOffsetXoverride,0
;   originOffsetYoverride,0
;   originOffsetZoverride,0
;   homeXdirOverride,1
;   homeYdirOverride,1
;   homeZdirOverride,1
;   flipXoverride,1
;   flipYoverride,-1
;   flipZoverride,1
;   toolheadOffsets,0,0|0,0|0,0|0,0|0,0|0,0
;   overrideFirmwareConfiguration,1
;   firmwareTypeOverride,RepRap (Marlin/Repetier/Sprinter)
;   GPXconfigOverride,r2
;   baudRateOverride,115200
;   overridePrinterModels,0
;   printerModelsOverride
;   startingGcode,M98 Pprint_startgcode.g
;   layerChangeGcode,,
;   retractionGcode,
;   toolChangeGcode,G91 ; use relative positions,G1 Z0.5 ; move the bed down by 0.5,T[new_tool],G1 Z-0.5 ; move the bed up by 0.5,G90 ; back to absolute positions
;   endingGcode,M98 Pprint_stopgcode.g
;   exportFileFormat,gcode
;   celebration,0
;   celebrationSong,Star Wars
;   postProcessing,
;   defaultSpeed,3600
;   outlineUnderspeed,0.5
;   solidInfillUnderspeed,1
;   supportUnderspeed,0.5
;   rapidXYspeed,7200
;   rapidZspeed,450
;   minBridgingArea,50
;   bridgingExtraInflation,0
;   bridgingExtrusionMultiplier,1.2
;   bridgingSpeedMultiplier,0.3
;   useFixedBridgingAngle,0
;   fixedBridgingAngle,135
;   applyBridgingToPerimeters,1
;   filamentDiameters,1.75|1.75|1.75|1.75|1.75|1.75
;   filamentPricesPerKg,19|46|46|46|46|46
;   filamentDensities,1.25|1.25|1.25|1.25|1.25|1.25
;   useMinPrintHeight,0
;   minPrintHeight,21.4
;   useMaxPrintHeight,0
;   maxPrintHeight,10
;   useDiaphragm,0
;   diaphragmLayerInterval,20
;   robustSlicing,1
;   mergeAllIntoSolid,0
;   onlyRetractWhenCrossingOutline,0
;   retractBetweenLayers,1
;   useRetractionMinTravel,1
;   retractionMinTravel,3
;   retractWhileWiping,0
;   onlyWipeOutlines,1
;   avoidCrossingOutline,0
;   maxMovementDetourFactor,400
;   toolChangeRetractionDistance,2
;   toolChangeExtraRestartDistance,0.75
;   toolChangeRetractionSpeed,600
;   externalThinWallType,1
;   internalThinWallType,2
;   thinWallAllowedOverlapPercentage,80
;   singleExtrusionMinLength,0.4
;   singleExtrusionMinPrintingWidthPercentage,20
;   singleExtrusionMaxPrintingWidthPercentage,200
;   singleExtrusionEndpointExtension,0.2
;   horizontalSizeCompensation,0
G90
M82
M106 S88
M140 S70
M190 S70
M104 S245 T0
M109 S245 T0
M98 Pprint_startgcode.g
; process Process1
; layer 1, Z = 0.270
G91 ; use relative positions
G1 Z0.5 ; move the bed down by 0.5
T0
G1 Z-0.5 ; move the bed up by 0.5
G90 ; back to absolute positions
G92 E0.0000
G1 E-0.5000 F1800
; feature skirt
; tool H0.270 W0.420
G1 Z0.500 F450
G1 X188.418 Y185.130 F7200
G1 Z0.270 F450
G1 E0.0000 F1800
G92 E0.0000
G1 X164.582 Y185.130 E1.1238 F2160
G1 X161.870 Y182.418 E1.3046
G1 X161.870 Y158.582 E2.4284
G1 X164.582 Y155.870 E2.6092
G1 X188.418 Y155.870 E3.7329
G1 X191.130 Y158.582 E3.9138
G1 X191.130 Y182.418 E5.0375
G1 X188.418 Y185.130 E5.2184
G1 X188.244 Y184.710 F7200
G92 E0.0000
G1 X164.756 Y184.710 E1.1074 F2160
G1 X162.290 Y182.244 E1.2718
G1 X162.290 Y158.756 E2.3791
G1 X164.756 Y156.290 E2.5436
G1 X188.244 Y156.290 E3.6509
G1 X190.710 Y158.756 E3.8154
G1 X190.710 Y182.244 E4.9227
G1 X188.244 Y184.710 E5.0871
G92 E0.0000
G1 E-0.5000 F1800
; feature outer perimeter
G1 Z0.770 F450
G1 X186.290 Y180.290 F7200
G1 Z0.270 F450
G1 E0.0000 F1800
G92 E0.0000
G1 X166.710 Y180.290 E0.9231 F1080
G1 X166.710 Y160.710 E1.8462
G1 X186.290 Y160.710 E2.7694
G1 X186.290 Y180.290 E3.6925
G92 E0.0000
G1 E-0.5000 F1800
G1 X184.290 Y180.290 F1080
; feature solid layer
G1 Z0.770 F450
G1 X167.031 Y180.038 F7200
G1 Z0.270 F450
G1 E0.0000 F1800
G92 E0.0000
G1 X166.962 Y179.969 E0.0046 F2160
G1 X166.962 Y179.375 E0.0326
G1 X167.625 Y180.038 E0.0768
G1 X168.219 Y180.038 E0.1048
G1 X166.962 Y178.781 E0.1886
G1 X166.962 Y178.187 E0.2166
G1 X168.813 Y180.038 E0.3400
G1 X169.407 Y180.038 E0.3680
G1 X166.962 Y177.593 E0.5310
G1 X166.962 Y176.999 E0.5590
G1 X170.001 Y180.038 E0.7617
G1 X170.595 Y180.038 E0.7897
G1 X166.962 Y176.405 E1.0319
G1 X166.962 Y175.811 E1.0599
G1 X171.189 Y180.038 E1.3417
G1 X171.783 Y180.038 E1.3697
G1 X166.962 Y175.217 E1.6911
G1 X166.962 Y174.623 E1.7191
G1 X172.377 Y180.038 E2.0802
G1 X172.971 Y180.038 E2.1082
G1 X166.962 Y174.029 E2.5088
G1 X166.962 Y173.435 E2.5368
G1 X173.565 Y180.038 E2.9770
G1 X174.159 Y180.038 E3.0050
G1 X166.962 Y172.841 E3.4849
G1 X166.962 Y172.247 E3.5129
G1 X174.753 Y180.038 E4.0323
G1 X175.347 Y180.038 E4.0603
G1 X166.962 Y171.653 E4.6193
G1 X166.962 Y171.059 E4.6473
G1 X175.941 Y180.038 E5.2460
G1 X176.534 Y180.038 E5.2740
G1 X166.962 Y170.466 E5.9122
G1 X166.962 Y169.872 E5.9402
G1 X177.128 Y180.038 E6.6181
G1 X177.722 Y180.038 E6.6461
G1 X166.962 Y169.278 E7.3635
G1 X166.962 Y168.684 E7.3915
G1 X178.316 Y180.038 E8.1486
G1 X178.910 Y180.038 E8.1766
G1 X166.962 Y168.090 E8.9733
G1 X166.962 Y167.496 E9.0013
G1 X179.504 Y180.038 E9.8375
G1 X180.098 Y180.038 E9.8655
G1 X166.962 Y166.902 E10.7414
G1 X166.962 Y166.308 E10.7694
G1 X180.692 Y180.038 E11.6848
G1 X181.286 Y180.038 E11.7129
G1 X166.962 Y165.714 E12.6679
G1 X166.962 Y165.120 E12.6959
G1 X181.880 Y180.038 E13.6906
G1 X182.474 Y180.038 E13.7186
G1 X166.962 Y164.526 E14.7529
G1 X166.962 Y163.932 E14.7809
G1 X183.068 Y180.038 E15.8548
G1 X183.662 Y180.038 E15.8828
G1 X166.962 Y163.338 E16.9962
G1 X166.962 Y162.744 E17.0242
G1 X184.256 Y180.038 E18.1773
G1 X184.850 Y180.038 E18.2053
G1 X166.962 Y162.150 E19.3980
G1 X166.962 Y161.556 E19.4260
G1 X185.444 Y180.038 E20.6583
G1 X186.038 Y180.038 E20.6863
G1 X166.962 Y160.962 E21.9582
G1 X167.556 Y160.962 E21.9862
G1 X186.038 Y179.444 E23.2185
G1 X186.038 Y178.850 E23.2465
G1 X168.150 Y160.962 E24.4392
G1 X168.744 Y160.962 E24.4672
G1 X186.038 Y178.256 E25.6202
G1 X186.038 Y177.662 E25.6483
G1 X169.338 Y160.962 E26.7617
G1 X169.932 Y160.962 E26.7897
G1 X186.038 Y177.068 E27.8636
G1 X186.038 Y176.474 E27.8916
G1 X170.526 Y160.962 E28.9259
G1 X171.120 Y160.962 E28.9539
G1 X186.038 Y175.880 E29.9486
G1 X186.038 Y175.286 E29.9766
G1 X171.714 Y160.962 E30.9316
G1 X172.308 Y160.962 E30.9596
G1 X186.038 Y174.692 E31.8751
G1 X186.038 Y174.098 E31.9031
G1 X172.902 Y160.962 E32.7790
G1 X173.496 Y160.962 E32.8070
G1 X186.038 Y173.504 E33.6432
G1 X186.038 Y172.910 E33.6712
G1 X174.090 Y160.962 E34.4679
G1 X174.684 Y160.962 E34.4959
G1 X186.038 Y172.316 E35.2529
G1 X186.038 Y171.722 E35.2809
G1 X175.278 Y160.962 E35.9984
G1 X175.872 Y160.962 E36.0264
G1 X186.038 Y171.128 E36.7042
G1 X186.038 Y170.534 E36.7322
G1 X176.466 Y160.962 E37.3705
G1 X177.059 Y160.962 E37.3985
G1 X186.038 Y169.941 E37.9971
G1 X186.038 Y169.347 E38.0251
G1 X177.653 Y160.962 E38.5842
G1 X178.247 Y160.962 E38.6122
G1 X186.038 Y168.753 E39.1316
G1 X186.038 Y168.159 E39.1596
G1 X178.841 Y160.962 E39.6394
G1 X179.435 Y160.962 E39.6674
G1 X186.038 Y167.565 E40.1077
G1 X186.038 Y166.971 E40.1357
G1 X180.029 Y160.962 E40.5363
G1 X180.623 Y160.962 E40.5643
G1 X186.038 Y166.377 E40.9253
G1 X186.038 Y165.783 E40.9533
G1 X181.217 Y160.962 E41.2747
G1 X181.811 Y160.962 E41.3028
G1 X186.038 Y165.189 E41.5846
G1 X186.038 Y164.595 E41.6126
G1 X182.405 Y160.962 E41.8548
G1 X182.999 Y160.962 E41.8828
G1 X186.038 Y164.001 E42.0854
G1 X186.038 Y163.407 E42.1134
G1 X183.593 Y160.962 E42.2764
G1 X184.187 Y160.962 E42.3044
G1 X186.038 Y162.813 E42.4278
G1 X186.038 Y162.219 E42.4558
G1 X184.781 Y160.962 E42.5396
G1 X185.375 Y160.962 E42.5676
G1 X186.038 Y161.625 E42.6118
G1 X186.038 Y161.031 E42.6398
G1 X185.969 Y160.962 E42.6444
G92 E0.0000
G1 E-0.5000 F1800
; layer 2, Z = 0.570
M106 S142
; feature outer perimeter
; tool H0.300 W0.400
G1 Z0.770 F450
G1 X186.300 Y180.300 F7200
G1 Z0.570 F450
G1 E0.0000 F1800
G92 E0.0000
G1 X166.700 Y180.300 E0.9778 F1662
G1 X166.700 Y160.700 E1.9557
G1 X186.300 Y160.700 E2.9335
G1 X186.300 Y180.300 E3.9114
G1 X184.300 Y180.300 F1662
; feature solid layer
G1 X186.060 Y179.608 F7200
G92 E0.0000
G1 X185.608 Y180.060 E0.0319 F3325
G1 X185.042 Y180.060 E0.0601
G1 X186.060 Y179.042 E0.1320
G1 X186.060 Y178.476 E0.1602
G1 X184.476 Y180.060 E0.2719
G1 X183.911 Y180.060 E0.3001
G1 X186.060 Y177.911 E0.4518
G1 X186.060 Y177.345 E0.4800
G1 X183.345 Y180.060 E0.6716
G1 X182.779 Y180.060 E0.6998
G1 X186.060 Y176.779 E0.9313
G1 X186.060 Y176.214 E0.9595
G1 X182.214 Y180.060 E1.2309
G1 X181.648 Y180.060 E1.2591
G1 X186.060 Y175.648 E1.5704
G1 X186.060 Y175.082 E1.5986
G1 X181.082 Y180.060 E1.9499
G1 X180.516 Y180.060 E1.9781
G1 X186.060 Y174.516 E2.3692
G1 X186.060 Y173.951 E2.3974
G1 X179.951 Y180.060 E2.8285
G1 X179.385 Y180.060 E2.8567
G1 X186.060 Y173.385 E3.3276
G1 X186.060 Y172.819 E3.3559
G1 X178.819 Y180.060 E3.8667
G1 X178.254 Y180.060 E3.8949
G1 X186.060 Y172.254 E4.4457
G1 X186.060 Y171.688 E4.4739
G1 X177.688 Y180.060 E5.0646
G1 X177.122 Y180.060 E5.0928
G1 X186.060 Y171.122 E5.7234
G1 X186.060 Y170.557 E5.7517
G1 X176.557 Y180.060 E6.4222
G1 X175.991 Y180.060 E6.4504
G1 X186.060 Y169.991 E7.1608
G1 X186.060 Y169.425 E7.1890
G1 X175.425 Y180.060 E7.9394
G1 X174.860 Y180.060 E7.9676
G1 X186.060 Y168.860 E8.7578
G1 X186.060 Y168.294 E8.7861
G1 X174.294 Y180.060 E9.6162
G1 X173.728 Y180.060 E9.6444
G1 X186.060 Y167.728 E10.5145
G1 X186.060 Y167.163 E10.5427
G1 X173.163 Y180.060 E11.4527
G1 X172.597 Y180.060 E11.4809
G1 X186.060 Y166.597 E12.4308
G1 X186.060 Y166.031 E12.4591
G1 X172.031 Y180.060 E13.4489
G1 X171.466 Y180.060 E13.4771
G1 X186.060 Y165.466 E14.5068
G1 X186.060 Y164.900 E14.5350
G1 X170.900 Y180.060 E15.6047
G1 X170.334 Y180.060 E15.6329
G1 X186.060 Y164.334 E16.7424
G1 X186.060 Y163.768 E16.7707
G1 X169.768 Y180.060 E17.9201
G1 X169.203 Y180.060 E17.9483
G1 X186.060 Y163.203 E19.1377
G1 X186.060 Y162.637 E19.1659
G1 X168.637 Y180.060 E20.3952
G1 X168.071 Y180.060 E20.4234
G1 X186.060 Y162.071 E21.6926
G1 X186.060 Y161.506 E21.7208
G1 X167.506 Y180.060 E23.0299
G1 X166.940 Y180.060 E23.0582
G1 X186.060 Y160.940 E24.4072
G1 X185.494 Y160.940 E24.4354
G1 X166.940 Y179.494 E25.7445
G1 X166.940 Y178.929 E25.7727
G1 X184.929 Y160.940 E27.0419
G1 X184.363 Y160.940 E27.0702
G1 X166.940 Y178.363 E28.2994
G1 X166.940 Y177.797 E28.3277
G1 X183.797 Y160.940 E29.5170
G1 X183.232 Y160.940 E29.5453
G1 X166.940 Y177.232 E30.6947
G1 X166.940 Y176.666 E30.7229
G1 X182.666 Y160.940 E31.8325
G1 X182.100 Y160.940 E31.8607
G1 X166.940 Y176.100 E32.9304
G1 X166.940 Y175.535 E32.9586
G1 X181.535 Y160.940 E33.9883
G1 X180.969 Y160.940 E34.0165
G1 X166.940 Y174.969 E35.0063
G1 X166.940 Y174.403 E35.0346
G1 X180.403 Y160.940 E35.9845
G1 X179.837 Y160.940 E36.0127
G1 X166.940 Y173.837 E36.9227
G1 X166.940 Y173.272 E36.9509
G1 X179.272 Y160.940 E37.8210
G1 X178.706 Y160.940 E37.8492
G1 X166.940 Y172.706 E38.6793
G1 X166.940 Y172.140 E38.7076
G1 X178.140 Y160.940 E39.4978
G1 X177.575 Y160.940 E39.5260
G1 X166.940 Y171.575 E40.2764
G1 X166.940 Y171.009 E40.3046
G1 X177.009 Y160.940 E41.0150
G1 X176.443 Y160.940 E41.0433
G1 X166.940 Y170.443 E41.7138
G1 X166.940 Y169.878 E41.7420
G1 X175.878 Y160.940 E42.3726
G1 X175.312 Y160.940 E42.4008
G1 X166.940 Y169.312 E42.9915
G1 X166.940 Y168.746 E43.0197
G1 X174.746 Y160.940 E43.5705
G1 X174.181 Y160.940 E43.5987
G1 X166.940 Y168.181 E44.1096
G1 X166.940 Y167.615 E44.1378
G1 X173.615 Y160.940 E44.6088
G1 X173.049 Y160.940 E44.6370
G1 X166.940 Y167.049 E45.0680
G1 X166.940 Y166.484 E45.0963
G1 X172.484 Y160.940 E45.4874
G1 X171.918 Y160.940 E45.5156
G1 X166.940 Y165.918 E45.8668
G1 X166.940 Y165.352 E45.8950
G1 X171.352 Y160.940 E46.2064
G1 X170.787 Y160.940 E46.2346
G1 X166.940 Y164.787 E46.5060
G1 X166.940 Y164.221 E46.5342
G1 X170.221 Y160.940 E46.7657
G1 X169.655 Y160.940 E46.7939
G1 X166.940 Y163.655 E46.9855
G1 X166.940 Y163.089 E47.0137
G1 X169.089 Y160.940 E47.1653
G1 X168.524 Y160.940 E47.1936
G1 X166.940 Y162.524 E47.3053
G1 X166.940 Y161.958 E47.3335
G1 X167.958 Y160.940 E47.4054
G1 X167.392 Y160.940 E47.4336
G1 X166.940 Y161.392 E47.4655
G92 E0.0000
G1 E-0.5000 F1800
; layer 3, Z = 0.870
M106 S198
M104 S235 T0
; feature outer perimeter
G1 Z1.070 F450
G1 X186.300 Y180.300 F7200
G1 Z0.870 F450
G1 E0.0000 F1800
G92 E0.0000
G1 X166.700 Y180.300 E0.9778 F1611
G1 X166.700 Y160.700 E1.9557
G1 X186.300 Y160.700 E2.9335
G1 X186.300 Y180.300 E3.9114
G1 X184.300 Y180.300 F1611
; feature solid layer
G1 X186.060 Y179.700 F7200
G92 E0.0000
G1 X166.940 Y179.700 E0.9539 F3222
G1 X166.940 Y179.300 E0.9739
G1 X186.060 Y179.300 E1.9278
G1 X186.060 Y178.900 E1.9477
G1 X166.940 Y178.900 E2.9016
G1 X166.940 Y178.500 E2.9216
G1 X186.060 Y178.500 E3.8755
G1 X186.060 Y178.100 E3.8954
G1 X166.940 Y178.100 E4.8493
G1 X166.940 Y177.700 E4.8693
G1 X186.060 Y177.700 E5.8232
G1 X186.060 Y177.300 E5.8431
G1 X166.940 Y177.300 E6.7970
G1 X166.940 Y176.900 E6.8170
G1 X186.060 Y176.900 E7.7709
G1 X186.060 Y176.500 E7.7909
G1 X166.940 Y176.500 E8.7448
