; G-Code generated by Simplify3D(R) Version 4.1.2
; May 17, 2020 at 11:59:34 AM
; Settings Summary
;   processName,Bottom Part
;   applyToModels,CalibrationCombined
;   profileName,ShadowMega Hemera Inland PETG (modified)
;   profileVersion,2020-05-17 11:56:58
;   baseProfile,Default
;   printMaterial,MG PETG
;   printQuality,Medium
;   printExtruders,All Extruders
;   extruderName,Main Extruder
;   extruderToolheadNumber,0
;   extruderDiameter,0.4
;   extruderAutoWidth,0
;   extruderWidth,0.4
;   extrusionMultiplier,0.95
;   extruderUseRetract,1
;   extruderRetractionDistance,1
;   extruderExtraRestartDistance,0
;   extruderRetractionZLift,0.5
;   extruderRetractionSpeed,600
;   extruderUseCoasting,0
;   extruderCoastingDistance,0.1
;   extruderUseWipe,1
;   extruderWipeDistance,2
;   primaryExtruder,0
;   layerHeight,0.3
;   topSolidLayers,4
;   bottomSolidLayers,4
;   perimeterOutlines,3
;   printPerimetersInsideOut,1
;   startPointOption,3
;   startPointOriginX,5000
;   startPointOriginY,5000
;   sequentialIslands,0
;   spiralVaseMode,0
;   firstLayerHeightPercentage,80
;   firstLayerWidthPercentage,107
;   firstLayerUnderspeed,0.2
;   useRaft,0
;   raftExtruder,0
;   raftTopLayers,3
;   raftBaseLayers,2
;   raftOffset,3
;   raftSeparationDistance,0.14
;   raftTopInfill,100
;   aboveRaftSpeedMultiplier,0.3
;   useSkirt,1
;   skirtExtruder,0
;   skirtLayers,1
;   skirtOutlines,1
;   skirtOffset,4
;   usePrimePillar,0
;   primePillarExtruder,0
;   primePillarWidth,12
;   primePillarLocation,7
;   primePillarSpeedMultiplier,1
;   useOozeShield,0
;   oozeShieldExtruder,999
;   oozeShieldOffset,2
;   oozeShieldOutlines,1
;   oozeShieldSidewallShape,1
;   oozeShieldSidewallAngle,30
;   oozeShieldSpeedMultiplier,1
;   infillExtruder,0
;   internalInfillPattern,Rectilinear
;   externalInfillPattern,Rectilinear
;   infillPercentage,15
;   outlineOverlapPercentage,30
;   infillExtrusionWidthPercentage,100
;   minInfillLength,3
;   infillLayerInterval,1
;   internalInfillAngles,45,-45
;   overlapInternalInfillAngles,0
;   externalInfillAngles,45,-45,0,90
;   generateSupport,0
;   supportExtruder,0
;   supportInfillPercentage,20
;   supportExtraInflation,0.6
;   supportBaseLayers,1
;   denseSupportExtruder,0
;   denseSupportLayers,4
;   denseSupportInfillPercentage,70
;   supportLayerInterval,1
;   supportHorizontalPartOffset,0.5
;   supportUpperSeparationLayers,1
;   supportLowerSeparationLayers,1
;   supportType,0
;   supportGridSpacing,4
;   maxOverhangAngle,60
;   supportAngles,35
;   temperatureName,Extruder 1,Heated Bed
;   temperatureNumber,0,0
;   temperatureSetpointCount,1,1
;   temperatureSetpointLayers,1,1
;   temperatureSetpointTemperatures,240,70
;   temperatureStabilizeAtStartup,1,1
;   temperatureHeatedBed,0,1
;   fanLayers,1,3
;   fanSpeeds,0,40
;   blipFanToFullPower,1
;   adjustSpeedForCooling,1
;   minSpeedLayerTime,20
;   minCoolingSpeedSlowdown,20
;   increaseFanForCooling,1
;   minFanLayerTime,45
;   maxCoolingFanSpeed,100
;   increaseFanForBridging,1
;   bridgingFanSpeed,100
;   use5D,1
;   relativeEdistances,0
;   allowEaxisZeroing,1
;   independentExtruderAxes,0
;   includeM10123,0
;   stickySupport,1
;   applyToolheadOffsets,0
;   gcodeXoffset,0
;   gcodeYoffset,0
;   gcodeZoffset,0
;   overrideMachineDefinition,1
;   machineTypeOverride,0
;   strokeXoverride,353
;   strokeYoverride,341
;   strokeZoverride,374.4
;   originOffsetXoverride,0
;   originOffsetYoverride,0
;   originOffsetZoverride,0
;   homeXdirOverride,1
;   homeYdirOverride,1
;   homeZdirOverride,1
;   flipXoverride,1
;   flipYoverride,-1
;   flipZoverride,1
;   toolheadOffsets,0,0|0,0|0,0|0,0|0,0|0,0
;   overrideFirmwareConfiguration,1
;   firmwareTypeOverride,RepRap (Marlin/Repetier/Sprinter)
;   GPXconfigOverride,r2
;   baudRateOverride,115200
;   overridePrinterModels,0
;   printerModelsOverride
;   startingGcode,M98 Pprint_startgcode.g
;   layerChangeGcode,,
;   retractionGcode,
;   toolChangeGcode,G91 ; use relative positions,G1 Z0.5 ; move the bed down by 0.5,T[new_tool],G1 Z-0.5 ; move the bed up by 0.5,G90 ; back to absolute positions
;   endingGcode,M98 Pprint_stopgcode.g
;   exportFileFormat,gcode
;   celebration,0
;   celebrationSong,Star Wars
;   postProcessing,
;   defaultSpeed,3600
;   outlineUnderspeed,0.5
;   solidInfillUnderspeed,0.8
;   supportUnderspeed,0.5
;   rapidXYspeed,7200
;   rapidZspeed,450
;   minBridgingArea,20
;   bridgingExtraInflation,0
;   bridgingExtrusionMultiplier,1.2
;   bridgingSpeedMultiplier,0.8
;   useFixedBridgingAngle,0
;   fixedBridgingAngle,135
;   applyBridgingToPerimeters,1
;   filamentDiameters,1.75|1.75|1.75|1.75|1.75|1.75
;   filamentPricesPerKg,19|46|46|46|46|46
;   filamentDensities,1.25|1.25|1.25|1.25|1.25|1.25
;   useMinPrintHeight,0
;   minPrintHeight,21.4
;   useMaxPrintHeight,0
;   maxPrintHeight,10
;   useDiaphragm,0
;   diaphragmLayerInterval,20
;   robustSlicing,1
;   mergeAllIntoSolid,0
;   onlyRetractWhenCrossingOutline,0
;   retractBetweenLayers,1
;   useRetractionMinTravel,1
;   retractionMinTravel,3
;   retractWhileWiping,0
;   onlyWipeOutlines,1
;   avoidCrossingOutline,0
;   maxMovementDetourFactor,400
;   toolChangeRetractionDistance,2
;   toolChangeExtraRestartDistance,0.75
;   toolChangeRetractionSpeed,600
;   externalThinWallType,1
;   internalThinWallType,2
;   thinWallAllowedOverlapPercentage,80
;   singleExtrusionMinLength,0.4
;   singleExtrusionMinPrintingWidthPercentage,20
;   singleExtrusionMaxPrintingWidthPercentage,200
;   singleExtrusionEndpointExtension,0.2
;   horizontalSizeCompensation,0
G90
M82
M106 S0
M140 S70
M190 S70
M104 S240 T0
M109 S240 T0
M98 Pprint_startgcode.g
; process Bottom Part
; layer 1, Z = 0.240
G91 ; use relative positions
G1 Z0.5 ; move the bed down by 0.5
T0
G1 Z-0.5 ; move the bed up by 0.5
G90 ; back to absolute positions
G92 E0.0000
G1 E-1.0000 F600
; feature skirt
; tool H0.240 W0.428
G1 Z0.500 F450
G1 X307.077 Y107.379 F7200
G1 Z0.240 F450
G1 E0.0000 F600
G92 E0.0000
G1 X306.168 Y108.015 E0.0450 F720
G1 X305.095 Y108.406 E0.0913
G1 X304.369 Y108.534 E0.1213
G1 X283.530 Y108.534 E0.9667
G1 X283.528 Y109.522 E1.0068
G1 X283.329 Y110.419 E1.0441
G1 X282.790 Y111.574 E1.0958
G1 X281.914 Y112.531 E1.1484
G1 X280.682 Y113.242 E1.2061
G1 X279.611 Y113.529 E1.2511
G1 X258.534 Y113.533 E2.1062
G1 X258.534 Y114.369 E2.1401
G1 X258.406 Y115.095 E2.1700
G1 X257.983 Y116.256 E2.2202
G1 X257.193 Y117.286 E2.2728
G1 X255.996 Y118.124 E2.3321
G1 X254.763 Y118.514 E2.3846
G1 X243.533 Y118.530 E2.8402
G1 X243.529 Y137.111 E3.5940
G1 X243.242 Y138.182 E3.6390
G1 X242.531 Y139.414 E3.6967
G1 X241.575 Y140.290 E3.7493
G1 X240.420 Y140.829 E3.8010
G1 X239.522 Y141.028 E3.8383
G1 X238.533 Y141.030 E3.8784
G1 X238.529 Y162.111 E4.7337
G1 X238.242 Y163.182 E4.7787
G1 X237.484 Y164.496 E4.8402
G1 X236.345 Y165.451 E4.9005
G1 X235.095 Y165.906 E4.9545
G1 X234.369 Y166.034 E4.9844
G1 X233.529 Y166.034 E5.0184
G1 X233.513 Y174.820 E5.3749
G1 X233.054 Y176.150 E5.4320
G1 X232.111 Y177.357 E5.4941
G1 X231.068 Y178.084 E5.5457
G1 X229.970 Y178.434 E5.5925
G1 X229.326 Y178.534 E5.6189
G1 X225.724 Y178.534 E5.7651
G1 X225.176 Y178.462 E5.7875
G1 X224.303 Y178.228 E5.8241
G1 X223.484 Y177.802 E5.8616
G1 X222.621 Y177.077 E5.9073
G1 X221.985 Y176.168 E5.9523
G1 X221.594 Y175.095 E5.9987
G1 X221.466 Y174.369 E6.0286
G1 X221.466 Y153.534 E6.8739
G1 X220.631 Y153.534 E6.9077
G1 X219.905 Y153.406 E6.9376
G1 X218.744 Y152.983 E6.9878
G1 X217.715 Y152.194 E7.0404
G1 X216.876 Y150.996 E7.0997
G1 X216.486 Y149.761 E7.1523
G1 X216.468 Y128.534 E8.0135
G1 X215.724 Y128.534 E8.0437
G1 X215.176 Y128.462 E8.0661
G1 X214.214 Y128.204 E8.1065
G1 X213.253 Y127.649 E8.1515
G1 X212.351 Y126.747 E8.2033
G1 X211.796 Y125.787 E8.2483
G1 X211.538 Y124.824 E8.2887
G1 X211.466 Y124.276 E8.3111
G1 X211.466 Y118.534 E8.5441
G1 X205.724 Y118.534 E8.7770
G1 X205.176 Y118.462 E8.7995
G1 X204.214 Y118.204 E8.8399
G1 X203.253 Y117.649 E8.8849
G1 X202.351 Y116.747 E8.9366
G1 X201.796 Y115.787 E8.9817
G1 X201.538 Y114.824 E9.0221
G1 X201.466 Y114.276 E9.0445
G1 X201.466 Y113.532 E9.0747
G1 X180.239 Y113.514 E9.9359
G1 X179.004 Y113.124 E9.9884
G1 X177.806 Y112.286 E10.0478
G1 X177.017 Y111.256 E10.1004
G1 X176.594 Y110.095 E10.1505
G1 X176.466 Y109.369 E10.1804
G1 X176.466 Y108.532 E10.2144
G1 X155.333 Y108.514 E11.0718
G1 X154.263 Y108.227 E11.1167
G1 X153.287 Y107.664 E11.1624
G1 X152.607 Y107.040 E11.1999
G1 X151.983 Y106.148 E11.2440
G1 X151.629 Y105.296 E11.2815
G1 X151.498 Y104.551 E11.3122
G1 X151.466 Y104.184 E11.3271
G1 X151.466 Y100.724 E11.4675
G1 X151.538 Y100.176 E11.4899
G1 X151.772 Y99.304 E11.5265
G1 X152.198 Y98.485 E11.5640
G1 X152.923 Y97.621 E11.6097
G1 X153.832 Y96.985 E11.6548
G1 X154.905 Y96.594 E11.7011
G1 X155.631 Y96.466 E11.7310
G1 X163.970 Y96.466 E12.0693
G1 X163.972 Y95.385 E12.1132
G1 X164.259 Y94.317 E12.1581
G1 X164.969 Y93.086 E12.2157
G1 X165.926 Y92.210 E12.2683
G1 X167.082 Y91.671 E12.3201
G1 X167.982 Y91.471 E12.3575
G1 X188.970 Y91.467 E13.2090
G1 X188.972 Y90.385 E13.2529
G1 X189.259 Y89.317 E13.2978
G1 X189.969 Y88.086 E13.3554
G1 X190.926 Y87.210 E13.4080
G1 X192.082 Y86.671 E13.4598
G1 X192.982 Y86.471 E13.4972
G1 X211.470 Y86.467 E14.2473
G1 X211.486 Y75.237 E14.7028
G1 X211.876 Y74.004 E14.7553
G1 X212.714 Y72.807 E14.8146
G1 X213.744 Y72.017 E14.8673
G1 X214.905 Y71.594 E14.9174
G1 X215.631 Y71.466 E14.9473
G1 X216.467 Y71.466 E14.9812
G1 X216.471 Y50.389 E15.8363
G1 X216.758 Y49.318 E15.8813
G1 X217.469 Y48.086 E15.9390
G1 X218.426 Y47.210 E15.9916
G1 X219.580 Y46.671 E16.0433
G1 X220.478 Y46.472 E16.0806
G1 X221.467 Y46.470 E16.1207
G1 X221.471 Y25.389 E16.9760
G1 X221.758 Y24.318 E17.0210
G1 X222.516 Y23.004 E17.0825
G1 X223.655 Y22.049 E17.1428
G1 X224.911 Y21.592 E17.1971
G1 X225.651 Y21.464 E17.2275
G1 X229.743 Y21.489 E17.3935
G1 X230.905 Y21.839 E17.4428
G1 X231.901 Y22.490 E17.4911
G1 X232.527 Y23.118 E17.5270
G1 X233.070 Y23.959 E17.5677
G1 X233.378 Y24.744 E17.6019
G1 X233.502 Y25.450 E17.6309
G1 X233.534 Y25.816 E17.6458
G1 X233.534 Y33.970 E17.9767
G1 X234.522 Y33.972 E18.0167
G1 X235.420 Y34.171 E18.0541
G1 X236.574 Y34.710 E18.1057
G1 X237.531 Y35.586 E18.1584
G1 X238.242 Y36.818 E18.2161
G1 X238.529 Y37.889 E18.2611
G1 X238.533 Y58.970 E19.1163
G1 X239.522 Y58.972 E19.1564
G1 X240.420 Y59.171 E19.1938
G1 X241.574 Y59.710 E19.2454
G1 X242.531 Y60.586 E19.2981
G1 X243.242 Y61.818 E19.3558
G1 X243.529 Y62.889 E19.4008
G1 X243.534 Y86.466 E20.3573
G1 X267.111 Y86.471 E21.3139
G1 X268.182 Y86.758 E21.3589
G1 X269.414 Y87.469 E21.4166
G1 X270.290 Y88.426 E21.4692
G1 X270.829 Y89.581 E21.5209
G1 X271.028 Y90.478 E21.5582
G1 X271.030 Y91.467 E21.5983
G1 X292.111 Y91.471 E22.4536
G1 X293.182 Y91.758 E22.4986
G1 X294.496 Y92.516 E22.5601
G1 X295.451 Y93.655 E22.6204
G1 X295.906 Y94.906 E22.6744
G1 X296.034 Y95.632 E22.7043
G1 X296.034 Y96.471 E22.7383
G1 X304.820 Y96.487 E23.0948
G1 X306.149 Y96.946 E23.1519
G1 X307.357 Y97.889 E23.2140
G1 X308.084 Y98.932 E23.2656
G1 X308.434 Y100.030 E23.3124
G1 X308.534 Y100.674 E23.3388
G1 X308.534 Y104.276 E23.4849
G1 X308.462 Y104.824 E23.5074
G1 X308.228 Y105.697 E23.5440
G1 X307.802 Y106.516 E23.5815
G1 X307.077 Y107.379 E23.6272
G92 E0.0000
G1 E-1.0000 F600
; feature inner perimeter
G1 Z0.740 F450
G1 X303.250 Y101.750 F7200
G1 Z0.240 F450
G1 E0.0000 F600
G92 E0.0000
G1 X303.250 Y103.250 E0.0609 F540
G1 X280.953 Y103.250 E0.9654
G1 X280.522 Y103.288 E0.9830
G1 X280.058 Y103.412 E1.0025
G1 X279.623 Y103.615 E1.0220
G1 X279.230 Y103.890 E1.0415
G1 X278.890 Y104.230 E1.0609
G1 X278.615 Y104.623 E1.0804
G1 X278.412 Y105.058 E1.0999
G1 X278.288 Y105.522 E1.1194
G1 X278.250 Y105.952 E1.1369
G1 X278.246 Y108.245 E1.2299
G1 X255.953 Y108.250 E2.1344
G1 X255.522 Y108.288 E2.1519
G1 X255.058 Y108.412 E2.1714
G1 X254.623 Y108.615 E2.1909
G1 X254.230 Y108.890 E2.2104
G1 X253.890 Y109.230 E2.2299
G1 X253.615 Y109.623 E2.2493
G1 X253.412 Y110.058 E2.2688
G1 X253.288 Y110.522 E2.2883
G1 X253.250 Y110.953 E2.3059
G1 X253.250 Y113.250 E2.3990
G1 X240.953 Y113.250 E2.8979
G1 X240.522 Y113.288 E2.9155
G1 X240.058 Y113.412 E2.9350
G1 X239.623 Y113.615 E2.9545
G1 X239.230 Y113.890 E2.9739
G1 X238.890 Y114.230 E2.9934
G1 X238.615 Y114.623 E3.0129
G1 X238.412 Y115.058 E3.0324
G1 X238.288 Y115.522 E3.0518
G1 X238.250 Y115.953 E3.0694
G1 X238.245 Y135.746 E3.8724
G1 X235.952 Y135.750 E3.9655
G1 X235.522 Y135.788 E3.9830
G1 X235.058 Y135.912 E4.0025
G1 X234.623 Y136.115 E4.0219
G1 X234.230 Y136.390 E4.0414
G1 X233.890 Y136.730 E4.0609
G1 X233.615 Y137.123 E4.0804
G1 X233.412 Y137.558 E4.0999
G1 X233.288 Y138.022 E4.1193
G1 X233.250 Y138.453 E4.1369
G1 X233.245 Y160.750 E5.0415
G1 X230.953 Y160.750 E5.1345
G1 X230.522 Y160.788 E5.1521
G1 X230.058 Y160.912 E5.1715
G1 X229.623 Y161.115 E5.1910
G1 X229.230 Y161.390 E5.2105
G1 X228.890 Y161.730 E5.2300
G1 X228.615 Y162.123 E5.2494
G1 X228.412 Y162.558 E5.2689
G1 X228.297 Y162.989 E5.2870
G1 X228.250 Y163.446 E5.3056
G1 X228.250 Y173.250 E5.7034
G1 X226.750 Y173.250 E5.7643
G1 X226.750 Y150.953 E6.6689
G1 X226.712 Y150.522 E6.6864
G1 X226.588 Y150.058 E6.7059
G1 X226.385 Y149.623 E6.7254
G1 X226.110 Y149.230 E6.7449
G1 X225.770 Y148.890 E6.7643
G1 X225.377 Y148.615 E6.7838
G1 X224.942 Y148.412 E6.8033
G1 X224.478 Y148.288 E6.8228
G1 X224.047 Y148.250 E6.8404
G1 X221.750 Y148.250 E6.9335
G1 X221.750 Y125.953 E7.8381
G1 X221.712 Y125.522 E7.8557
G1 X221.588 Y125.058 E7.8752
G1 X221.385 Y124.623 E7.8947
G1 X221.110 Y124.230 E7.9141
G1 X220.770 Y123.890 E7.9336
G1 X220.377 Y123.615 E7.9531
G1 X219.942 Y123.412 E7.9726
G1 X219.478 Y123.288 E7.9920
G1 X219.047 Y123.250 E8.0096
G1 X216.750 Y123.250 E8.1028
G1 X216.750 Y115.953 E8.3988
G1 X216.712 Y115.522 E8.4164
G1 X216.588 Y115.058 E8.4359
G1 X216.385 Y114.623 E8.4553
G1 X216.110 Y114.230 E8.4748
G1 X215.770 Y113.890 E8.4943
G1 X215.377 Y113.615 E8.5138
G1 X214.942 Y113.412 E8.5333
G1 X214.478 Y113.288 E8.5527
G1 X214.047 Y113.250 E8.5703
G1 X206.750 Y113.250 E8.8663
G1 X206.750 Y110.953 E8.9595
G1 X206.712 Y110.522 E8.9771
G1 X206.588 Y110.058 E8.9966
G1 X206.385 Y109.623 E9.0160
G1 X206.110 Y109.230 E9.0355
G1 X205.770 Y108.890 E9.0550
G1 X205.377 Y108.615 E9.0745
G1 X204.942 Y108.412 E9.0940
G1 X204.478 Y108.288 E9.1134
G1 X204.047 Y108.250 E9.1310
G1 X181.750 Y108.250 E10.0356
G1 X181.750 Y105.953 E10.1288
G1 X181.712 Y105.522 E10.1463
G1 X181.588 Y105.058 E10.1658
G1 X181.385 Y104.623 E10.1853
G1 X181.110 Y104.230 E10.2048
G1 X180.770 Y103.890 E10.2243
G1 X180.377 Y103.615 E10.2437
G1 X179.942 Y103.412 E10.2632
G1 X179.478 Y103.288 E10.2827
G1 X179.047 Y103.250 E10.3003
G1 X156.750 Y103.250 E11.2049
G1 X156.750 Y101.750 E11.2657
G1 X166.547 Y101.750 E11.6632
G1 X166.945 Y101.715 E11.6794
G1 X167.435 Y101.591 E11.6999
G1 X167.877 Y101.385 E11.7197
G1 X168.270 Y101.110 E11.7392
G1 X168.610 Y100.770 E11.7586
G1 X168.885 Y100.377 E11.7781
G1 X169.088 Y99.942 E11.7976
G1 X169.212 Y99.478 E11.8171
G1 X169.250 Y99.048 E11.8346
G1 X169.254 Y96.755 E11.9276
G1 X191.547 Y96.750 E12.8321
G1 X191.978 Y96.712 E12.8497
G1 X192.442 Y96.588 E12.8691
G1 X192.877 Y96.385 E12.8886
G1 X193.270 Y96.110 E12.9081
G1 X193.610 Y95.770 E12.9276
G1 X193.885 Y95.377 E12.9470
G1 X194.088 Y94.942 E12.9665
G1 X194.212 Y94.478 E12.9860
G1 X194.250 Y94.048 E13.0035
G1 X194.254 Y91.755 E13.0966
G1 X214.047 Y91.750 E13.8996
G1 X214.478 Y91.712 E13.9171
G1 X214.942 Y91.588 E13.9366
G1 X215.377 Y91.385 E13.9561
G1 X215.770 Y91.110 E13.9756
G1 X216.110 Y90.770 E13.9951
G1 X216.385 Y90.377 E14.0145
G1 X216.588 Y89.942 E14.0340
G1 X216.712 Y89.478 E14.0535
G1 X216.750 Y89.047 E14.0711
G1 X216.750 Y76.750 E14.5699
G1 X219.047 Y76.750 E14.6631
G1 X219.478 Y76.712 E14.6807
G1 X219.942 Y76.588 E14.7002
G1 X220.377 Y76.385 E14.7197
G1 X220.770 Y76.110 E14.7391
G1 X221.110 Y75.770 E14.7586
G1 X221.385 Y75.377 E14.7781
G1 X221.588 Y74.942 E14.7976
G1 X221.712 Y74.478 E14.8170
G1 X221.750 Y74.047 E14.8346
G1 X221.755 Y51.754 E15.7391
G1 X224.048 Y51.750 E15.8321
G1 X224.478 Y51.712 E15.8496
G1 X224.942 Y51.588 E15.8691
G1 X225.377 Y51.385 E15.8886
