; G-Code generated by Simplify3D(R) Version 4.1.2
; May 17, 2020 at 12:04:12 PM
; Settings Summary
;   processName,Bottom Part
;   applyToModels,CalibrationZ
;   profileName,ShadowMega Hemera Inland PETG (modified)
;   profileVersion,2020-05-17 11:56:58
;   baseProfile,Default
;   printMaterial,MG PETG
;   printQuality,Medium
;   printExtruders,All Extruders
;   extruderName,Main Extruder
;   extruderToolheadNumber,0
;   extruderDiameter,0.4
;   extruderAutoWidth,0
;   extruderWidth,0.4
;   extrusionMultiplier,0.95
;   extruderUseRetract,1
;   extruderRetractionDistance,1
;   extruderExtraRestartDistance,0
;   extruderRetractionZLift,0.5
;   extruderRetractionSpeed,600
;   extruderUseCoasting,0
;   extruderCoastingDistance,0.1
;   extruderUseWipe,1
;   extruderWipeDistance,2
;   primaryExtruder,0
;   layerHeight,0.3
;   topSolidLayers,4
;   bottomSolidLayers,4
;   perimeterOutlines,3
;   printPerimetersInsideOut,1
;   startPointOption,3
;   startPointOriginX,5000
;   startPointOriginY,5000
;   sequentialIslands,0
;   spiralVaseMode,0
;   firstLayerHeightPercentage,80
;   firstLayerWidthPercentage,107
;   firstLayerUnderspeed,0.2
;   useRaft,0
;   raftExtruder,0
;   raftTopLayers,3
;   raftBaseLayers,2
;   raftOffset,3
;   raftSeparationDistance,0.14
;   raftTopInfill,100
;   aboveRaftSpeedMultiplier,0.3
;   useSkirt,1
;   skirtExtruder,0
;   skirtLayers,1
;   skirtOutlines,1
;   skirtOffset,4
;   usePrimePillar,0
;   primePillarExtruder,0
;   primePillarWidth,12
;   primePillarLocation,7
;   primePillarSpeedMultiplier,1
;   useOozeShield,0
;   oozeShieldExtruder,999
;   oozeShieldOffset,2
;   oozeShieldOutlines,1
;   oozeShieldSidewallShape,1
;   oozeShieldSidewallAngle,30
;   oozeShieldSpeedMultiplier,1
;   infillExtruder,0
;   internalInfillPattern,Rectilinear
;   externalInfillPattern,Rectilinear
;   infillPercentage,15
;   outlineOverlapPercentage,30
;   infillExtrusionWidthPercentage,100
;   minInfillLength,3
;   infillLayerInterval,1
;   internalInfillAngles,45,-45
;   overlapInternalInfillAngles,0
;   externalInfillAngles,45,-45,0,90
;   generateSupport,0
;   supportExtruder,0
;   supportInfillPercentage,20
;   supportExtraInflation,0.6
;   supportBaseLayers,1
;   denseSupportExtruder,0
;   denseSupportLayers,4
;   denseSupportInfillPercentage,70
;   supportLayerInterval,1
;   supportHorizontalPartOffset,0.5
;   supportUpperSeparationLayers,1
;   supportLowerSeparationLayers,1
;   supportType,0
;   supportGridSpacing,4
;   maxOverhangAngle,60
;   supportAngles,35
;   temperatureName,Extruder 1,Heated Bed
;   temperatureNumber,0,0
;   temperatureSetpointCount,1,1
;   temperatureSetpointLayers,1,1
;   temperatureSetpointTemperatures,240,70
;   temperatureStabilizeAtStartup,1,1
;   temperatureHeatedBed,0,1
;   fanLayers,1,3
;   fanSpeeds,0,40
;   blipFanToFullPower,1
;   adjustSpeedForCooling,1
;   minSpeedLayerTime,20
;   minCoolingSpeedSlowdown,20
;   increaseFanForCooling,1
;   minFanLayerTime,45
;   maxCoolingFanSpeed,100
;   increaseFanForBridging,1
;   bridgingFanSpeed,100
;   use5D,1
;   relativeEdistances,0
;   allowEaxisZeroing,1
;   independentExtruderAxes,0
;   includeM10123,0
;   stickySupport,1
;   applyToolheadOffsets,0
;   gcodeXoffset,0
;   gcodeYoffset,0
;   gcodeZoffset,0
;   overrideMachineDefinition,1
;   machineTypeOverride,0
;   strokeXoverride,353
;   strokeYoverride,341
;   strokeZoverride,374.4
;   originOffsetXoverride,0
;   originOffsetYoverride,0
;   originOffsetZoverride,0
;   homeXdirOverride,1
;   homeYdirOverride,1
;   homeZdirOverride,1
;   flipXoverride,1
;   flipYoverride,-1
;   flipZoverride,1
;   toolheadOffsets,0,0|0,0|0,0|0,0|0,0|0,0
;   overrideFirmwareConfiguration,1
;   firmwareTypeOverride,RepRap (Marlin/Repetier/Sprinter)
;   GPXconfigOverride,r2
;   baudRateOverride,115200
;   overridePrinterModels,0
;   printerModelsOverride
;   startingGcode,M98 Pprint_startgcode.g
;   layerChangeGcode,,
;   retractionGcode,
;   toolChangeGcode,G91 ; use relative positions,G1 Z0.5 ; move the bed down by 0.5,T[new_tool],G1 Z-0.5 ; move the bed up by 0.5,G90 ; back to absolute positions
;   endingGcode,M98 Pprint_stopgcode.g
;   exportFileFormat,gcode
;   celebration,0
;   celebrationSong,Star Wars
;   postProcessing,
;   defaultSpeed,3600
;   outlineUnderspeed,0.5
;   solidInfillUnderspeed,0.8
;   supportUnderspeed,0.5
;   rapidXYspeed,7200
;   rapidZspeed,450
;   minBridgingArea,20
;   bridgingExtraInflation,0
;   bridgingExtrusionMultiplier,1.2
;   bridgingSpeedMultiplier,0.8
;   useFixedBridgingAngle,0
;   fixedBridgingAngle,135
;   applyBridgingToPerimeters,1
;   filamentDiameters,1.75|1.75|1.75|1.75|1.75|1.75
;   filamentPricesPerKg,19|46|46|46|46|46
;   filamentDensities,1.25|1.25|1.25|1.25|1.25|1.25
;   useMinPrintHeight,0
;   minPrintHeight,21.4
;   useMaxPrintHeight,0
;   maxPrintHeight,10
;   useDiaphragm,0
;   diaphragmLayerInterval,20
;   robustSlicing,1
;   mergeAllIntoSolid,0
;   onlyRetractWhenCrossingOutline,0
;   retractBetweenLayers,1
;   useRetractionMinTravel,1
;   retractionMinTravel,3
;   retractWhileWiping,0
;   onlyWipeOutlines,1
;   avoidCrossingOutline,0
;   maxMovementDetourFactor,400
;   toolChangeRetractionDistance,2
;   toolChangeExtraRestartDistance,0.75
;   toolChangeRetractionSpeed,600
;   externalThinWallType,1
;   internalThinWallType,2
;   thinWallAllowedOverlapPercentage,80
;   singleExtrusionMinLength,0.4
;   singleExtrusionMinPrintingWidthPercentage,20
;   singleExtrusionMaxPrintingWidthPercentage,200
;   singleExtrusionEndpointExtension,0.2
;   horizontalSizeCompensation,0
G90
M82
M106 S0
M140 S70
M190 S70
M104 S240 T0
M109 S240 T0
M98 Pprint_startgcode.g
; process Bottom Part
; layer 1, Z = 0.240
G91 ; use relative positions
G1 Z0.5 ; move the bed down by 0.5
T0
G1 Z-0.5 ; move the bed up by 0.5
G90 ; back to absolute positions
G92 E0.0000
G1 E-1.0000 F600
; feature skirt
; tool H0.240 W0.428
G1 Z0.500 F450
G1 X274.245 Y101.714 F7200
G1 Z0.240 F450
G1 E0.0000 F600
G92 E0.0000
G1 X240.755 Y101.714 E1.3588 F720
G1 X238.286 Y99.246 E1.5004
G1 X238.286 Y65.754 E2.8591
G1 X240.755 Y63.286 E3.0008
G1 X274.245 Y63.286 E4.3595
G1 X276.714 Y65.754 E4.5012
G1 X276.714 Y99.246 E5.8599
G1 X274.245 Y101.714 E6.0015
G92 E0.0000
G1 E-1.0000 F600
; feature inner perimeter
G1 Z0.740 F450
G1 X271.430 Y96.430 F7200
G1 Z0.240 F450
G1 E0.0000 F600
G92 E0.0000
G1 X243.570 Y96.430 E1.1303 F540
G1 X243.570 Y68.570 E2.2606
G1 X271.430 Y68.570 E3.3909
G1 X271.430 Y96.430 E4.5212
G1 X271.858 Y96.858 F7200
G92 E0.0000
G1 X243.142 Y96.858 E1.1650 F540
G1 X243.142 Y68.142 E2.3301
G1 X271.858 Y68.142 E3.4951
G1 X271.858 Y96.858 E4.6601
; feature outer perimeter
G1 X272.286 Y97.286 F7200
G92 E0.0000
G1 X242.714 Y97.286 E1.1998 F360
G1 X242.714 Y67.714 E2.3995
G1 X272.286 Y67.714 E3.5993
G1 X272.286 Y97.286 E4.7990
G92 E0.0000
G1 E-1.0000 F600
G1 X270.286 Y97.286 F360
; feature solid layer
G1 Z0.740 F450
G1 X243.893 Y96.130 F7200
G1 Z0.240 F450
G1 E0.0000 F600
G92 E0.0000
G1 X243.870 Y96.107 E0.0013 F576
G1 X243.870 Y95.502 E0.0259
G1 X244.498 Y96.130 E0.0619
G1 X245.103 Y96.130 E0.0865
G1 X243.870 Y94.897 E0.1573
G1 X243.870 Y94.291 E0.1818
G1 X245.709 Y96.130 E0.2873
G1 X246.314 Y96.130 E0.3119
G1 X243.870 Y93.686 E0.4521
G1 X243.870 Y93.081 E0.4767
G1 X246.919 Y96.130 E0.6517
G1 X247.524 Y96.130 E0.6762
G1 X243.870 Y92.476 E0.8859
G1 X243.870 Y91.870 E0.9105
G1 X248.130 Y96.130 E1.1549
G1 X248.735 Y96.130 E1.1794
G1 X243.870 Y91.265 E1.4586
G1 X243.870 Y90.660 E1.4831
G1 X249.340 Y96.130 E1.7970
G1 X249.945 Y96.130 E1.8216
G1 X243.870 Y90.055 E2.1702
G1 X243.870 Y89.449 E2.1947
G1 X250.551 Y96.130 E2.5781
G1 X251.156 Y96.130 E2.6026
G1 X243.870 Y88.844 E3.0207
G1 X243.870 Y88.239 E3.0453
G1 X251.761 Y96.130 E3.4981
G1 X252.367 Y96.130 E3.5226
G1 X243.870 Y87.633 E4.0101
G1 X243.870 Y87.028 E4.0347
G1 X252.972 Y96.130 E4.5569
G1 X253.577 Y96.130 E4.5815
G1 X243.870 Y86.423 E5.1385
G1 X243.870 Y85.818 E5.1630
G1 X254.182 Y96.130 E5.7547
G1 X254.788 Y96.130 E5.7793
G1 X243.870 Y85.212 E6.4057
G1 X243.870 Y84.607 E6.4303
G1 X255.393 Y96.130 E7.0915
G1 X255.998 Y96.130 E7.1160
G1 X243.870 Y84.002 E7.8119
G1 X243.870 Y83.396 E7.8365
G1 X256.604 Y96.130 E8.5671
G1 X257.209 Y96.130 E8.5916
G1 X243.870 Y82.791 E9.3570
G1 X243.870 Y82.186 E9.3816
G1 X257.814 Y96.130 E10.1816
G1 X258.419 Y96.130 E10.2062
G1 X243.870 Y81.581 E11.0410
G1 X243.870 Y80.975 E11.0656
G1 X259.025 Y96.130 E11.9351
G1 X259.630 Y96.130 E11.9596
G1 X243.870 Y80.370 E12.8639
G1 X243.870 Y79.765 E12.8885
G1 X260.235 Y96.130 E13.8275
G1 X260.841 Y96.130 E13.8520
G1 X243.870 Y79.159 E14.8257
G1 X243.870 Y78.554 E14.8503
G1 X261.446 Y96.130 E15.8587
G1 X262.051 Y96.130 E15.8833
G1 X243.870 Y77.949 E16.9265
G1 X243.870 Y77.344 E16.9510
G1 X262.656 Y96.130 E18.0289
G1 X263.262 Y96.130 E18.0535
G1 X243.870 Y76.738 E19.1661
G1 X243.870 Y76.133 E19.1907
G1 X263.867 Y96.130 E20.3381
G1 X264.472 Y96.130 E20.3626
G1 X243.870 Y75.528 E21.5447
G1 X243.870 Y74.922 E21.5693
G1 X265.078 Y96.130 E22.7861
G1 X265.683 Y96.130 E22.8106
G1 X243.870 Y74.317 E24.0622
G1 X243.870 Y73.712 E24.0868
G1 X266.288 Y96.130 E25.3730
G1 X266.893 Y96.130 E25.3976
G1 X243.870 Y73.107 E26.7186
G1 X243.870 Y72.501 E26.7432
G1 X267.499 Y96.130 E28.0989
G1 X268.104 Y96.130 E28.1234
G1 X243.870 Y71.896 E29.5139
G1 X243.870 Y71.291 E29.5385
G1 X268.709 Y96.130 E30.9637
G1 X269.315 Y96.130 E30.9882
G1 X243.870 Y70.685 E32.4481
G1 X243.870 Y70.080 E32.4727
G1 X269.920 Y96.130 E33.9673
G1 X270.525 Y96.130 E33.9919
G1 X243.870 Y69.475 E35.5213
G1 X243.870 Y68.870 E35.5458
G1 X271.130 Y96.130 E37.1099
G1 X271.130 Y95.525 E37.1345
G1 X244.475 Y68.870 E38.6639
G1 X245.080 Y68.870 E38.6884
G1 X271.130 Y94.920 E40.1831
G1 X271.130 Y94.315 E40.2076
G1 X245.685 Y68.870 E41.6676
G1 X246.291 Y68.870 E41.6921
G1 X271.130 Y93.709 E43.1173
G1 X271.130 Y93.104 E43.1419
G1 X246.896 Y68.870 E44.5323
G1 X247.501 Y68.870 E44.5569
G1 X271.130 Y92.499 E45.9126
G1 X271.130 Y91.893 E45.9372
G1 X248.107 Y68.870 E47.2582
G1 X248.712 Y68.870 E47.2827
G1 X271.130 Y91.288 E48.5690
G1 X271.130 Y90.683 E48.5936
G1 X249.317 Y68.870 E49.8451
G1 X249.922 Y68.870 E49.8697
G1 X271.130 Y90.078 E51.0865
G1 X271.130 Y89.472 E51.1111
G1 X250.528 Y68.870 E52.2931
G1 X251.133 Y68.870 E52.3177
G1 X271.130 Y88.867 E53.4651
G1 X271.130 Y88.262 E53.4896
G1 X251.738 Y68.870 E54.6023
G1 X252.344 Y68.870 E54.6268
G1 X271.130 Y87.656 E55.7047
G1 X271.130 Y87.051 E55.7293
G1 X252.949 Y68.870 E56.7725
G1 X253.554 Y68.870 E56.7970
G1 X271.130 Y86.446 E57.8055
G1 X271.130 Y85.841 E57.8300
G1 X254.159 Y68.870 E58.8037
G1 X254.765 Y68.870 E58.8283
G1 X271.130 Y85.235 E59.7673
G1 X271.130 Y84.630 E59.7918
G1 X255.370 Y68.870 E60.6961
G1 X255.975 Y68.870 E60.7207
G1 X271.130 Y84.025 E61.5902
G1 X271.130 Y83.419 E61.6148
G1 X256.581 Y68.870 E62.4496
G1 X257.186 Y68.870 E62.4741
G1 X271.130 Y82.814 E63.2742
G1 X271.130 Y82.209 E63.2987
G1 X257.791 Y68.870 E64.0641
G1 X258.396 Y68.870 E64.0887
G1 X271.130 Y81.604 E64.8193
G1 X271.130 Y80.998 E64.8438
G1 X259.002 Y68.870 E65.5397
G1 X259.607 Y68.870 E65.5643
G1 X271.130 Y80.393 E66.2254
G1 X271.130 Y79.788 E66.2500
G1 X260.212 Y68.870 E66.8764
G1 X260.818 Y68.870 E66.9010
G1 X271.130 Y79.182 E67.4927
G1 X271.130 Y78.577 E67.5173
G1 X261.423 Y68.870 E68.0742
G1 X262.028 Y68.870 E68.0988
G1 X271.130 Y77.972 E68.6210
G1 X271.130 Y77.367 E68.6456
G1 X262.633 Y68.870 E69.1331
G1 X263.239 Y68.870 E69.1577
G1 X271.130 Y76.761 E69.6105
G1 X271.130 Y76.156 E69.6350
G1 X263.844 Y68.870 E70.0531
G1 X264.449 Y68.870 E70.0776
G1 X271.130 Y75.551 E70.4610
G1 X271.130 Y74.945 E70.4855
G1 X265.055 Y68.870 E70.8341
G1 X265.660 Y68.870 E70.8587
G1 X271.130 Y74.340 E71.1726
G1 X271.130 Y73.735 E71.1971
G1 X266.265 Y68.870 E71.4763
G1 X266.870 Y68.870 E71.5008
G1 X271.130 Y73.130 E71.7453
G1 X271.130 Y72.524 E71.7698
G1 X267.476 Y68.870 E71.9795
G1 X268.081 Y68.870 E72.0041
G1 X271.130 Y71.919 E72.1790
G1 X271.130 Y71.314 E72.2036
G1 X268.686 Y68.870 E72.3438
G1 X269.292 Y68.870 E72.3684
G1 X271.130 Y70.708 E72.4739
G1 X271.130 Y70.103 E72.4984
G1 X269.897 Y68.870 E72.5692
G1 X270.502 Y68.870 E72.5938
G1 X271.130 Y69.498 E72.6298
G1 X271.130 Y68.893 E72.6544
G1 X271.107 Y68.870 E72.6557
G92 E0.0000
G1 E-1.0000 F600
; layer 2, Z = 0.540
; feature inner perimeter
; tool H0.300 W0.400
G1 Z0.740 F450
G1 X271.500 Y96.500 F7200
G1 Z0.540 F450
G1 E0.0000 F600
G92 E0.0000
G1 X243.500 Y96.500 E1.3271 F2700
G1 X243.500 Y68.500 E2.6542
G1 X271.500 Y68.500 E3.9812
G1 X271.500 Y96.500 E5.3083
G1 X271.900 Y96.900 F7200
G92 E0.0000
G1 X243.100 Y96.900 E1.3650 F2700
G1 X243.100 Y68.100 E2.7300
G1 X271.900 Y68.100 E4.0950
G1 X271.900 Y96.900 E5.4600
; feature outer perimeter
G1 X272.300 Y97.300 F7200
G92 E0.0000
G1 X242.700 Y97.300 E1.4029 F1800
G1 X242.700 Y67.700 E2.8058
G1 X272.300 Y67.700 E4.2087
G1 X272.300 Y97.300 E5.6117
G1 X270.300 Y97.300 F1800
; feature solid layer
G1 X271.220 Y95.933 F7200
G92 E0.0000
G1 X270.933 Y96.220 E0.0192 F2880
G1 X270.367 Y96.220 E0.0461
G1 X271.220 Y95.367 E0.1032
G1 X271.220 Y94.802 E0.1300
G1 X269.802 Y96.220 E0.2251
G1 X269.236 Y96.220 E0.2519
G1 X271.220 Y94.236 E0.3849
G1 X271.220 Y93.670 E0.4117
G1 X268.670 Y96.220 E0.5826
G1 X268.105 Y96.220 E0.6094
G1 X271.220 Y93.105 E0.8183
G1 X271.220 Y92.539 E0.8451
G1 X267.539 Y96.220 E1.0918
G1 X266.973 Y96.220 E1.1186
G1 X271.220 Y91.973 E1.4033
G1 X271.220 Y91.407 E1.4301
G1 X266.407 Y96.220 E1.7527
G1 X265.842 Y96.220 E1.7795
G1 X271.220 Y90.842 E2.1400
G1 X271.220 Y90.276 E2.1668
G1 X265.276 Y96.220 E2.5652
G1 X264.710 Y96.220 E2.5920
G1 X271.220 Y89.710 E3.0283
G1 X271.220 Y89.145 E3.0551
G1 X264.145 Y96.220 E3.5294
G1 X263.579 Y96.220 E3.5562
G1 X271.220 Y88.579 E4.0683
G1 X271.220 Y88.013 E4.0951
G1 X263.013 Y96.220 E4.6452
G1 X262.448 Y96.220 E4.6720
G1 X271.220 Y87.448 E5.2600
G1 X271.220 Y86.882 E5.2868
G1 X261.882 Y96.220 E5.9127
G1 X261.316 Y96.220 E5.9395
G1 X271.220 Y86.316 E6.6034
G1 X271.220 Y85.751 E6.6302
G1 X260.751 Y96.220 E7.3319
G1 X260.185 Y96.220 E7.3587
G1 X271.220 Y85.185 E8.0984
G1 X271.220 Y84.619 E8.1252
G1 X259.619 Y96.220 E8.9028
G1 X259.054 Y96.220 E8.9296
G1 X271.220 Y84.054 E9.7451
G1 X271.220 Y83.488 E9.7719
G1 X258.488 Y96.220 E10.6253
G1 X257.922 Y96.220 E10.6521
G1 X271.220 Y82.922 E11.5434
G1 X271.220 Y82.356 E11.5702
G1 X257.356 Y96.220 E12.4995
G1 X256.791 Y96.220 E12.5263
G1 X271.220 Y81.791 E13.4934
G1 X271.220 Y81.225 E13.5202
G1 X256.225 Y96.220 E14.5253
G1 X255.659 Y96.220 E14.5521
G1 X271.220 Y80.659 E15.5951
G1 X271.220 Y80.094 E15.6219
G1 X255.094 Y96.220 E16.7028
G1 X254.528 Y96.220 E16.7296
G1 X271.220 Y79.528 E17.8485
G1 X271.220 Y78.962 E17.8753
G1 X253.962 Y96.220 E19.0320
G1 X253.397 Y96.220 E19.0588
G1 X271.220 Y78.397 E20.2535
G1 X271.220 Y77.831 E20.2803
G1 X252.831 Y96.220 E21.5129
G1 X252.265 Y96.220 E21.5397
G1 X271.220 Y77.265 E22.8102
G1 X271.220 Y76.700 E22.8370
G1 X251.700 Y96.220 E24.1454
G1 X251.134 Y96.220 E24.1722
G1 X271.220 Y76.134 E25.5185
G1 X271.220 Y75.568 E25.5453
G1 X250.568 Y96.220 E26.9296
G1 X250.003 Y96.220 E26.9564
G1 X271.220 Y75.003 E28.3785
G1 X271.220 Y74.437 E28.4053
G1 X249.437 Y96.220 E29.8654
G1 X248.871 Y96.220 E29.8922
G1 X271.220 Y73.871 E31.3902
G1 X271.220 Y73.306 E31.4170
G1 X248.306 Y96.220 E32.9529
G1 X247.740 Y96.220 E32.9797
G1 X271.220 Y72.740 E34.5535
G1 X271.220 Y72.174 E34.5804
G1 X247.174 Y96.220 E36.1921
G1 X246.608 Y96.220 E36.2189
G1 X271.220 Y71.608 E37.8686
G1 X271.220 Y71.043 E37.8954
G1 X246.043 Y96.220 E39.5829
G1 X245.477 Y96.220 E39.6097
G1 X271.220 Y70.477 E41.3352
G1 X271.220 Y69.911 E41.3620
G1 X244.911 Y96.220 E43.1254
G1 X244.346 Y96.220 E43.1523
G1 X271.220 Y69.346 E44.9536
G1 X271.220 Y68.780 E44.9804
G1 X243.780 Y96.220 E46.8196
G1 X243.780 Y95.654 E46.8464
G1 X270.654 Y68.780 E48.6478
G1 X270.089 Y68.780 E48.6746
G1 X243.780 Y95.089 E50.4380
G1 X243.780 Y94.523 E50.4648
G1 X269.523 Y68.780 E52.1903
G1 X268.957 Y68.780 E52.2171
G1 X243.780 Y93.957 E53.9047
G1 X243.780 Y93.392 E53.9315
G1 X268.392 Y68.780 E55.5811
G1 X267.826 Y68.780 E55.6079
G1 X243.780 Y92.826 E57.2197
