; G-Code generated by Simplify3D(R) Version 4.1.2
; Jan 6, 2020 at 10:46:18 PM
; Settings Summary
;   processName,Process1
;   applyToModels,CalibrationCombined
;   profileName,ShadowHawk ProMega Hemera Inland PETG (modified)
;   profileVersion,2020-01-05 16:41:12
;   baseProfile,Default
;   printMaterial,MG PETG
;   printQuality,Medium
;   printExtruders,All Extruders
;   extruderName,Main Extruder
;   extruderToolheadNumber,0
;   extruderDiameter,0.4
;   extruderAutoWidth,0
;   extruderWidth,0.4
;   extrusionMultiplier,1
;   extruderUseRetract,1
;   extruderRetractionDistance,1
;   extruderExtraRestartDistance,0
;   extruderRetractionZLift,0.5
;   extruderRetractionSpeed,600
;   extruderUseCoasting,0
;   extruderCoastingDistance,0.1
;   extruderUseWipe,1
;   extruderWipeDistance,2
;   primaryExtruder,0
;   layerHeight,0.3
;   topSolidLayers,4
;   bottomSolidLayers,4
;   perimeterOutlines,3
;   printPerimetersInsideOut,1
;   startPointOption,3
;   startPointOriginX,5000
;   startPointOriginY,5000
;   sequentialIslands,0
;   spiralVaseMode,0
;   firstLayerHeightPercentage,80
;   firstLayerWidthPercentage,100
;   firstLayerUnderspeed,0.2
;   useRaft,0
;   raftExtruder,0
;   raftTopLayers,3
;   raftBaseLayers,2
;   raftOffset,3
;   raftSeparationDistance,0.14
;   raftTopInfill,100
;   aboveRaftSpeedMultiplier,0.3
;   useSkirt,1
;   skirtExtruder,0
;   skirtLayers,1
;   skirtOutlines,1
;   skirtOffset,4
;   usePrimePillar,0
;   primePillarExtruder,0
;   primePillarWidth,12
;   primePillarLocation,7
;   primePillarSpeedMultiplier,1
;   useOozeShield,0
;   oozeShieldExtruder,999
;   oozeShieldOffset,2
;   oozeShieldOutlines,1
;   oozeShieldSidewallShape,1
;   oozeShieldSidewallAngle,30
;   oozeShieldSpeedMultiplier,1
;   infillExtruder,0
;   internalInfillPattern,Rectilinear
;   externalInfillPattern,Rectilinear
;   infillPercentage,15
;   outlineOverlapPercentage,30
;   infillExtrusionWidthPercentage,100
;   minInfillLength,3
;   infillLayerInterval,1
;   internalInfillAngles,45,-45
;   overlapInternalInfillAngles,0
;   externalInfillAngles,45,-45,0,90
;   generateSupport,0
;   supportExtruder,0
;   supportInfillPercentage,40
;   supportExtraInflation,0
;   supportBaseLayers,1
;   denseSupportExtruder,0
;   denseSupportLayers,4
;   denseSupportInfillPercentage,70
;   supportLayerInterval,1
;   supportHorizontalPartOffset,0.5
;   supportUpperSeparationLayers,1
;   supportLowerSeparationLayers,1
;   supportType,0
;   supportGridSpacing,4
;   maxOverhangAngle,60
;   supportAngles,35
;   temperatureName,Extruder 1,Heated Bed
;   temperatureNumber,0,0
;   temperatureSetpointCount,1,1
;   temperatureSetpointLayers,1,1
;   temperatureSetpointTemperatures,230,70
;   temperatureStabilizeAtStartup,1,1
;   temperatureHeatedBed,0,1
;   fanLayers,1,2
;   fanSpeeds,0,60
;   blipFanToFullPower,0
;   adjustSpeedForCooling,1
;   minSpeedLayerTime,20
;   minCoolingSpeedSlowdown,20
;   increaseFanForCooling,0
;   minFanLayerTime,45
;   maxCoolingFanSpeed,100
;   increaseFanForBridging,1
;   bridgingFanSpeed,100
;   use5D,1
;   relativeEdistances,0
;   allowEaxisZeroing,1
;   independentExtruderAxes,0
;   includeM10123,0
;   stickySupport,1
;   applyToolheadOffsets,0
;   gcodeXoffset,0
;   gcodeYoffset,0
;   gcodeZoffset,0
;   overrideMachineDefinition,1
;   machineTypeOverride,0
;   strokeXoverride,353
;   strokeYoverride,341
;   strokeZoverride,374.4
;   originOffsetXoverride,0
;   originOffsetYoverride,0
;   originOffsetZoverride,0
;   homeXdirOverride,1
;   homeYdirOverride,1
;   homeZdirOverride,1
;   flipXoverride,1
;   flipYoverride,-1
;   flipZoverride,1
;   toolheadOffsets,0,0|0,0|0,0|0,0|0,0|0,0
;   overrideFirmwareConfiguration,1
;   firmwareTypeOverride,RepRap (Marlin/Repetier/Sprinter)
;   GPXconfigOverride,r2
;   baudRateOverride,115200
;   overridePrinterModels,0
;   printerModelsOverride
;   startingGcode,M98 Pprint_startgcode.g
;   layerChangeGcode,,
;   retractionGcode,
;   toolChangeGcode,G91 ; use relative positions,G1 Z0.5 ; move the bed down by 0.5,T[new_tool],G1 Z-0.5 ; move the bed up by 0.5,G90 ; back to absolute positions
;   endingGcode,M98 Pprint_stopgcode.g
;   exportFileFormat,gcode
;   celebration,0
;   celebrationSong,Star Wars
;   postProcessing,
;   defaultSpeed,3600
;   outlineUnderspeed,0.5
;   solidInfillUnderspeed,0.8
;   supportUnderspeed,0.5
;   rapidXYspeed,7200
;   rapidZspeed,450
;   minBridgingArea,50
;   bridgingExtraInflation,0
;   bridgingExtrusionMultiplier,1.2
;   bridgingSpeedMultiplier,0.3
;   useFixedBridgingAngle,0
;   fixedBridgingAngle,135
;   applyBridgingToPerimeters,1
;   filamentDiameters,1.75|1.75|1.75|1.75|1.75|1.75
;   filamentPricesPerKg,19|46|46|46|46|46
;   filamentDensities,1.25|1.25|1.25|1.25|1.25|1.25
;   useMinPrintHeight,0
;   minPrintHeight,21.4
;   useMaxPrintHeight,0
;   maxPrintHeight,10
;   useDiaphragm,0
;   diaphragmLayerInterval,20
;   robustSlicing,1
;   mergeAllIntoSolid,0
;   onlyRetractWhenCrossingOutline,0
;   retractBetweenLayers,1
;   useRetractionMinTravel,1
;   retractionMinTravel,3
;   retractWhileWiping,0
;   onlyWipeOutlines,1
;   avoidCrossingOutline,0
;   maxMovementDetourFactor,400
;   toolChangeRetractionDistance,2
;   toolChangeExtraRestartDistance,0.75
;   toolChangeRetractionSpeed,600
;   externalThinWallType,1
;   internalThinWallType,2
;   thinWallAllowedOverlapPercentage,80
;   singleExtrusionMinLength,0.4
;   singleExtrusionMinPrintingWidthPercentage,20
;   singleExtrusionMaxPrintingWidthPercentage,200
;   singleExtrusionEndpointExtension,0.2
;   horizontalSizeCompensation,0
G90
M82
M106 S0
M140 S70
M190 S70
M104 S230 T0
M109 S230 T0
M98 Pprint_startgcode.g
; process Process1
; layer 1, Z = 0.240
G91 ; use relative positions
G1 Z0.5 ; move the bed down by 0.5
T0
G1 Z-0.5 ; move the bed up by 0.5
G90 ; back to absolute positions
G92 E0.0000
G1 E-1.0000 F600
; feature skirt
; tool H0.240 W0.400
G1 Z0.500 F450
G1 X253.687 Y177.765 F7200
G1 Z0.240 F450
G1 E0.0000 F600
G92 E0.0000
G1 X252.712 Y178.485 E0.0484 F720
G1 X251.591 Y178.892 E0.0960
G1 X250.867 Y179.020 E0.1253
G1 X230.016 Y179.020 E0.9575
G1 X230.014 Y180.113 E1.0012
G1 X229.728 Y181.178 E1.0452
G1 X229.020 Y182.405 E1.1017
G1 X228.066 Y183.278 E1.1533
G1 X226.914 Y183.816 E1.2041
G1 X226.016 Y184.015 E1.2408
G1 X205.020 Y184.019 E2.0788
G1 X205.020 Y184.867 E2.1126
G1 X204.892 Y185.591 E2.1419
G1 X204.471 Y186.750 E2.1912
G1 X203.684 Y187.775 E2.2428
G1 X202.490 Y188.611 E2.3009
G1 X201.260 Y189.000 E2.3524
G1 X190.019 Y189.016 E2.8010
G1 X190.015 Y207.609 E3.5431
G1 X189.729 Y208.677 E3.5872
G1 X189.020 Y209.905 E3.6438
G1 X188.066 Y210.778 E3.6954
G1 X186.915 Y211.315 E3.7461
G1 X186.020 Y211.514 E3.7827
G1 X185.019 Y211.516 E3.8227
G1 X185.015 Y232.609 E4.6646
G1 X184.729 Y233.677 E4.7087
G1 X183.973 Y234.986 E4.7690
G1 X182.838 Y235.939 E4.8281
G1 X181.591 Y236.392 E4.8811
G1 X180.867 Y236.520 E4.9104
G1 X180.015 Y236.520 E4.9444
G1 X179.999 Y245.318 E5.2956
G1 X179.542 Y246.643 E5.3515
G1 X178.601 Y247.847 E5.4125
G1 X177.561 Y248.571 E5.4631
G1 X176.467 Y248.920 E5.5089
G1 X175.825 Y249.020 E5.5349
G1 X172.259 Y249.020 E5.6772
G1 X171.780 Y248.965 E5.6964
G1 X170.979 Y248.778 E5.7293
G1 X170.179 Y248.402 E5.7645
G1 X169.235 Y247.687 E5.8118
G1 X168.515 Y246.712 E5.8602
G1 X168.108 Y245.591 E5.9078
G1 X167.980 Y244.867 E5.9371
G1 X167.980 Y224.020 E6.7692
G1 X167.133 Y224.020 E6.8030
G1 X166.409 Y223.892 E6.8323
G1 X165.251 Y223.471 E6.8815
G1 X164.225 Y222.684 E6.9331
G1 X163.389 Y221.490 E6.9913
G1 X163.000 Y220.259 E7.0428
G1 X162.982 Y199.020 E7.8905
G1 X162.225 Y199.020 E7.9207
G1 X161.679 Y198.948 E7.9427
G1 X160.719 Y198.691 E7.9824
G1 X159.761 Y198.138 E8.0265
G1 X158.862 Y197.239 E8.0773
G1 X158.309 Y196.281 E8.1214
G1 X158.052 Y195.321 E8.1611
G1 X157.980 Y194.775 E8.1831
G1 X157.980 Y189.020 E8.4128
G1 X152.225 Y189.020 E8.6425
G1 X151.679 Y188.948 E8.6644
G1 X150.719 Y188.691 E8.7041
G1 X149.761 Y188.138 E8.7482
G1 X148.862 Y187.239 E8.7990
G1 X148.309 Y186.281 E8.8431
G1 X148.052 Y185.321 E8.8828
G1 X147.980 Y184.775 E8.9048
G1 X147.980 Y184.018 E8.9350
G1 X126.742 Y184.000 E9.7827
G1 X125.510 Y183.611 E9.8342
G1 X124.316 Y182.775 E9.8924
G1 X123.529 Y181.750 E9.9440
G1 X123.108 Y180.591 E9.9932
G1 X122.980 Y179.867 E10.0225
G1 X122.980 Y179.018 E10.0564
G1 X101.835 Y179.000 E10.9004
G1 X100.769 Y178.714 E10.9445
G1 X99.796 Y178.152 E10.9893
G1 X99.118 Y177.531 E11.0260
G1 X98.495 Y176.642 E11.0693
G1 X98.143 Y175.792 E11.1060
G1 X98.012 Y175.049 E11.1361
G1 X97.980 Y174.683 E11.1508
G1 X97.980 Y171.225 E11.2888
G1 X98.052 Y170.679 E11.3108
G1 X98.285 Y169.809 E11.3468
G1 X98.710 Y168.993 E11.3835
G1 X99.432 Y168.131 E11.4283
G1 X100.338 Y167.497 E11.4725
G1 X101.409 Y167.108 E11.5180
G1 X102.133 Y166.980 E11.5473
G1 X110.484 Y166.980 E11.8806
G1 X110.486 Y165.887 E11.9242
G1 X110.772 Y164.822 E11.9682
G1 X111.480 Y163.595 E12.0248
G1 X112.433 Y162.722 E12.0764
G1 X113.586 Y162.184 E12.1272
G1 X114.484 Y161.985 E12.1639
G1 X135.484 Y161.981 E13.0020
G1 X135.486 Y160.887 E13.0457
G1 X135.772 Y159.822 E13.0897
G1 X136.480 Y158.595 E13.1462
G1 X137.433 Y157.722 E13.1978
G1 X138.586 Y157.184 E13.2486
G1 X139.484 Y156.985 E13.2853
G1 X157.984 Y156.981 E14.0237
G1 X158.000 Y145.739 E14.4723
G1 X158.389 Y144.509 E14.5238
G1 X159.225 Y143.316 E14.5820
G1 X160.251 Y142.529 E14.6336
G1 X161.409 Y142.108 E14.6827
G1 X162.133 Y141.980 E14.7121
G1 X162.981 Y141.980 E14.7459
G1 X162.985 Y120.928 E15.5861
G1 X163.234 Y119.928 E15.6273
G1 X163.865 Y118.742 E15.6809
G1 X164.763 Y117.849 E15.7315
G1 X165.943 Y117.230 E15.7846
G1 X166.930 Y116.986 E15.8252
G1 X167.981 Y116.984 E15.8671
G1 X167.985 Y95.891 E16.7090
G1 X168.271 Y94.823 E16.7531
G1 X169.027 Y93.514 E16.8135
G1 X170.162 Y92.561 E16.8726
G1 X171.415 Y92.105 E16.9258
G1 X172.152 Y91.978 E16.9557
G1 X176.240 Y92.003 E17.1189
G1 X177.399 Y92.352 E17.1672
G1 X178.393 Y93.000 E17.2145
G1 X179.016 Y93.627 E17.2498
G1 X179.557 Y94.466 E17.2896
G1 X179.864 Y95.248 E17.3232
G1 X179.988 Y95.952 E17.3517
G1 X180.020 Y96.317 E17.3663
G1 X180.020 Y104.484 E17.6923
G1 X181.113 Y104.486 E17.7359
G1 X182.178 Y104.772 E17.7799
G1 X183.405 Y105.480 E17.8365
G1 X184.278 Y106.433 E17.8881
G1 X184.816 Y107.586 E17.9388
G1 X185.015 Y108.484 E17.9755
G1 X185.019 Y129.484 E18.8137
G1 X186.113 Y129.486 E18.8574
G1 X187.178 Y129.772 E18.9014
G1 X188.405 Y130.480 E18.9579
G1 X189.279 Y131.434 E19.0095
G1 X189.816 Y132.586 E19.0603
G1 X190.015 Y133.484 E19.0970
G1 X190.020 Y156.980 E20.0348
G1 X213.609 Y156.985 E20.9763
G1 X214.677 Y157.271 E21.0204
G1 X215.905 Y157.980 E21.0770
G1 X216.779 Y158.934 E21.1286
G1 X217.315 Y160.085 E21.1793
G1 X217.514 Y160.980 E21.2159
G1 X217.516 Y161.981 E21.2558
G1 X238.609 Y161.985 E22.0977
G1 X239.677 Y162.271 E22.1418
G1 X240.987 Y163.027 E22.2022
G1 X241.939 Y164.162 E22.2613
G1 X242.392 Y165.409 E22.3143
G1 X242.520 Y166.133 E22.3436
G1 X242.520 Y166.985 E22.3776
G1 X251.318 Y167.001 E22.7288
G1 X252.643 Y167.458 E22.7847
G1 X253.847 Y168.399 E22.8457
G1 X254.571 Y169.439 E22.8963
G1 X254.920 Y170.533 E22.9421
G1 X255.020 Y171.175 E22.9680
G1 X255.020 Y174.741 E23.1104
G1 X254.965 Y175.220 E23.1296
G1 X254.778 Y176.021 E23.1624
G1 X254.402 Y176.821 E23.1977
G1 X253.687 Y177.765 E23.2450
G92 E0.0000
G1 E-1.0000 F600
; feature inner perimeter
G1 Z0.740 F450
G1 X249.820 Y172.180 F7200
G1 Z0.240 F450
G1 E0.0000 F600
G92 E0.0000
G1 X249.820 Y173.820 E0.0655 F540
G1 X227.456 Y173.820 E0.9580
G1 X227.034 Y173.857 E0.9750
G1 X226.582 Y173.978 E0.9936
G1 X226.158 Y174.176 E1.0123
G1 X225.775 Y174.444 E1.0310
G1 X225.444 Y174.775 E1.0496
G1 X225.176 Y175.158 E1.0683
G1 X224.978 Y175.582 E1.0870
G1 X224.857 Y176.034 E1.1057
G1 X224.820 Y176.456 E1.1226
G1 X224.816 Y178.815 E1.2167
G1 X202.456 Y178.820 E2.1092
G1 X202.034 Y178.857 E2.1261
G1 X201.582 Y178.978 E2.1448
G1 X201.158 Y179.176 E2.1634
G1 X200.775 Y179.444 E2.1821
G1 X200.444 Y179.775 E2.2008
G1 X200.176 Y180.158 E2.2195
G1 X199.978 Y180.582 E2.2381
G1 X199.857 Y181.034 E2.2568
G1 X199.820 Y181.456 E2.2737
G1 X199.820 Y183.820 E2.3681
G1 X187.456 Y183.820 E2.8615
G1 X187.034 Y183.857 E2.8784
G1 X186.582 Y183.978 E2.8971
G1 X186.158 Y184.176 E2.9158
G1 X185.775 Y184.444 E2.9345
G1 X185.444 Y184.775 E2.9531
G1 X185.176 Y185.158 E2.9718
G1 X184.978 Y185.582 E2.9905
G1 X184.857 Y186.034 E3.0091
G1 X184.820 Y186.456 E3.0261
G1 X184.815 Y206.316 E3.8187
G1 X182.456 Y206.320 E3.9129
G1 X182.034 Y206.357 E3.9298
G1 X181.582 Y206.478 E3.9485
G1 X181.158 Y206.676 E3.9671
G1 X180.775 Y206.944 E3.9858
G1 X180.444 Y207.275 E4.0045
G1 X180.176 Y207.658 E4.0232
G1 X179.978 Y208.082 E4.0418
G1 X179.857 Y208.534 E4.0605
G1 X179.820 Y208.956 E4.0774
G1 X179.815 Y231.320 E4.9700
G1 X177.456 Y231.320 E5.0641
G1 X177.034 Y231.357 E5.0811
G1 X176.582 Y231.478 E5.0997
G1 X176.158 Y231.676 E5.1184
G1 X175.775 Y231.944 E5.1371
G1 X175.444 Y232.275 E5.1558
G1 X175.176 Y232.658 E5.1744
G1 X174.978 Y233.082 E5.1931
G1 X174.866 Y233.502 E5.2104
G1 X174.820 Y233.949 E5.2284
G1 X174.820 Y243.820 E5.6224
G1 X173.180 Y243.820 E5.6878
G1 X173.180 Y221.456 E6.5804
G1 X173.143 Y221.034 E6.5973
G1 X173.022 Y220.582 E6.6160
G1 X172.824 Y220.158 E6.6347
G1 X172.556 Y219.775 E6.6533
G1 X172.225 Y219.444 E6.6720
G1 X171.842 Y219.176 E6.6907
G1 X171.418 Y218.978 E6.7093
G1 X170.966 Y218.857 E6.7280
G1 X170.544 Y218.820 E6.7449
G1 X168.180 Y218.820 E6.8393
G1 X168.180 Y196.456 E7.7319
G1 X168.143 Y196.034 E7.7488
G1 X168.022 Y195.582 E7.7675
G1 X167.824 Y195.158 E7.7861
G1 X167.556 Y194.775 E7.8048
G1 X167.225 Y194.444 E7.8235
G1 X166.842 Y194.176 E7.8421
G1 X166.418 Y193.978 E7.8608
G1 X165.966 Y193.857 E7.8795
G1 X165.544 Y193.820 E7.8964
G1 X163.180 Y193.820 E7.9907
G1 X163.180 Y186.456 E8.2846
G1 X163.143 Y186.034 E8.3016
G1 X163.022 Y185.582 E8.3202
G1 X162.824 Y185.158 E8.3389
G1 X162.556 Y184.775 E8.3576
G1 X162.225 Y184.444 E8.3763
G1 X161.842 Y184.176 E8.3949
G1 X161.418 Y183.978 E8.4136
G1 X160.966 Y183.857 E8.4323
G1 X160.544 Y183.820 E8.4492
G1 X153.180 Y183.820 E8.7431
G1 X153.180 Y181.456 E8.8374
G1 X153.143 Y181.034 E8.8544
G1 X153.022 Y180.582 E8.8730
G1 X152.824 Y180.158 E8.8917
G1 X152.556 Y179.775 E8.9104
G1 X152.225 Y179.444 E8.9290
G1 X151.842 Y179.176 E8.9477
G1 X151.418 Y178.978 E8.9664
G1 X150.966 Y178.857 E8.9851
G1 X150.544 Y178.820 E9.0020
G1 X128.180 Y178.820 E9.8946
G1 X128.180 Y176.456 E9.9889
G1 X128.143 Y176.034 E10.0058
G1 X128.022 Y175.582 E10.0245
G1 X127.824 Y175.158 E10.0432
G1 X127.556 Y174.775 E10.0618
G1 X127.225 Y174.444 E10.0805
G1 X126.842 Y174.176 E10.0992
G1 X126.418 Y173.978 E10.1179
G1 X125.966 Y173.857 E10.1365
G1 X125.544 Y173.820 E10.1535
G1 X103.180 Y173.820 E11.0460
G1 X103.180 Y172.180 E11.1115
G1 X113.044 Y172.180 E11.5052
G1 X113.433 Y172.146 E11.5208
G1 X113.911 Y172.025 E11.5405
G1 X114.342 Y171.824 E11.5594
G1 X114.725 Y171.556 E11.5781
G1 X115.056 Y171.225 E11.5968
G1 X115.324 Y170.842 E11.6154
G1 X115.522 Y170.418 E11.6341
G1 X115.643 Y169.966 E11.6528
G1 X115.680 Y169.544 E11.6697
G1 X115.684 Y167.185 E11.7639
G1 X138.044 Y167.180 E12.6563
G1 X138.466 Y167.143 E12.6732
G1 X138.918 Y167.022 E12.6919
G1 X139.342 Y166.824 E12.7106
G1 X139.725 Y166.556 E12.7292
G1 X140.056 Y166.225 E12.7479
G1 X140.324 Y165.842 E12.7666
G1 X140.522 Y165.418 E12.7852
G1 X140.643 Y164.966 E12.8039
G1 X140.680 Y164.544 E12.8208
G1 X140.684 Y162.185 E12.9150
G1 X160.544 Y162.180 E13.7076
G1 X160.966 Y162.143 E13.7246
G1 X161.418 Y162.022 E13.7432
G1 X161.842 Y161.824 E13.7619
G1 X162.225 Y161.556 E13.7806
G1 X162.556 Y161.225 E13.7992
G1 X162.824 Y160.842 E13.8179
G1 X163.022 Y160.418 E13.8366
G1 X163.143 Y159.966 E13.8553
G1 X163.180 Y159.544 E13.8722
G1 X163.180 Y147.180 E14.3656
G1 X165.544 Y147.180 E14.4600
G1 X165.966 Y147.143 E14.4769
G1 X166.418 Y147.022 E14.4956
G1 X166.842 Y146.824 E14.5143
G1 X167.225 Y146.556 E14.5329
G1 X167.556 Y146.225 E14.5516
G1 X167.824 Y145.842 E14.5703
G1 X168.022 Y145.418 E14.5889
G1 X168.143 Y144.966 E14.6076
G1 X168.180 Y144.544 E14.6245
G1 X168.185 Y122.184 E15.5170
G1 X170.544 Y122.180 E15.6112
