; G-Code generated by Simplify3D(R) Version 4.1.2
; Jan 11, 2020 at 2:28:59 PM
; Settings Summary
;   processName,Process1
;   applyToModels,CalibrationCombined
;   profileName,ShadowHawk ProMega Hemera Inland PETG (modified)
;   profileVersion,2020-01-05 16:41:12
;   baseProfile,Default
;   printMaterial,MG PETG
;   printQuality,Medium
;   printExtruders,All Extruders
;   extruderName,Main Extruder
;   extruderToolheadNumber,0
;   extruderDiameter,0.4
;   extruderAutoWidth,0
;   extruderWidth,0.4
;   extrusionMultiplier,0.95
;   extruderUseRetract,1
;   extruderRetractionDistance,1
;   extruderExtraRestartDistance,0
;   extruderRetractionZLift,0.5
;   extruderRetractionSpeed,600
;   extruderUseCoasting,0
;   extruderCoastingDistance,0.1
;   extruderUseWipe,1
;   extruderWipeDistance,2
;   primaryExtruder,0
;   layerHeight,0.3
;   topSolidLayers,4
;   bottomSolidLayers,4
;   perimeterOutlines,3
;   printPerimetersInsideOut,1
;   startPointOption,3
;   startPointOriginX,5000
;   startPointOriginY,5000
;   sequentialIslands,0
;   spiralVaseMode,0
;   firstLayerHeightPercentage,80
;   firstLayerWidthPercentage,105
;   firstLayerUnderspeed,0.2
;   useRaft,0
;   raftExtruder,0
;   raftTopLayers,3
;   raftBaseLayers,2
;   raftOffset,3
;   raftSeparationDistance,0.14
;   raftTopInfill,100
;   aboveRaftSpeedMultiplier,0.3
;   useSkirt,1
;   skirtExtruder,0
;   skirtLayers,1
;   skirtOutlines,1
;   skirtOffset,4
;   usePrimePillar,0
;   primePillarExtruder,0
;   primePillarWidth,12
;   primePillarLocation,7
;   primePillarSpeedMultiplier,1
;   useOozeShield,0
;   oozeShieldExtruder,999
;   oozeShieldOffset,2
;   oozeShieldOutlines,1
;   oozeShieldSidewallShape,1
;   oozeShieldSidewallAngle,30
;   oozeShieldSpeedMultiplier,1
;   infillExtruder,0
;   internalInfillPattern,Rectilinear
;   externalInfillPattern,Rectilinear
;   infillPercentage,15
;   outlineOverlapPercentage,30
;   infillExtrusionWidthPercentage,100
;   minInfillLength,3
;   infillLayerInterval,1
;   internalInfillAngles,45,-45
;   overlapInternalInfillAngles,0
;   externalInfillAngles,45,-45,0,90
;   generateSupport,0
;   supportExtruder,0
;   supportInfillPercentage,40
;   supportExtraInflation,0
;   supportBaseLayers,1
;   denseSupportExtruder,0
;   denseSupportLayers,4
;   denseSupportInfillPercentage,70
;   supportLayerInterval,1
;   supportHorizontalPartOffset,0.5
;   supportUpperSeparationLayers,1
;   supportLowerSeparationLayers,1
;   supportType,0
;   supportGridSpacing,4
;   maxOverhangAngle,60
;   supportAngles,35
;   temperatureName,Extruder 1,Heated Bed
;   temperatureNumber,0,0
;   temperatureSetpointCount,1,1
;   temperatureSetpointLayers,1,1
;   temperatureSetpointTemperatures,230,70
;   temperatureStabilizeAtStartup,1,1
;   temperatureHeatedBed,0,1
;   fanLayers,1,2
;   fanSpeeds,0,60
;   blipFanToFullPower,0
;   adjustSpeedForCooling,1
;   minSpeedLayerTime,20
;   minCoolingSpeedSlowdown,20
;   increaseFanForCooling,0
;   minFanLayerTime,45
;   maxCoolingFanSpeed,100
;   increaseFanForBridging,1
;   bridgingFanSpeed,100
;   use5D,1
;   relativeEdistances,0
;   allowEaxisZeroing,1
;   independentExtruderAxes,0
;   includeM10123,0
;   stickySupport,1
;   applyToolheadOffsets,0
;   gcodeXoffset,0
;   gcodeYoffset,0
;   gcodeZoffset,0
;   overrideMachineDefinition,1
;   machineTypeOverride,0
;   strokeXoverride,353
;   strokeYoverride,341
;   strokeZoverride,374.4
;   originOffsetXoverride,0
;   originOffsetYoverride,0
;   originOffsetZoverride,0
;   homeXdirOverride,1
;   homeYdirOverride,1
;   homeZdirOverride,1
;   flipXoverride,1
;   flipYoverride,-1
;   flipZoverride,1
;   toolheadOffsets,0,0|0,0|0,0|0,0|0,0|0,0
;   overrideFirmwareConfiguration,1
;   firmwareTypeOverride,RepRap (Marlin/Repetier/Sprinter)
;   GPXconfigOverride,r2
;   baudRateOverride,115200
;   overridePrinterModels,0
;   printerModelsOverride
;   startingGcode,M98 Pprint_startgcode.g
;   layerChangeGcode,,
;   retractionGcode,
;   toolChangeGcode,G91 ; use relative positions,G1 Z0.5 ; move the bed down by 0.5,T[new_tool],G1 Z-0.5 ; move the bed up by 0.5,G90 ; back to absolute positions
;   endingGcode,M98 Pprint_stopgcode.g
;   exportFileFormat,gcode
;   celebration,0
;   celebrationSong,Star Wars
;   postProcessing,
;   defaultSpeed,3600
;   outlineUnderspeed,0.5
;   solidInfillUnderspeed,0.8
;   supportUnderspeed,0.5
;   rapidXYspeed,7200
;   rapidZspeed,450
;   minBridgingArea,50
;   bridgingExtraInflation,0
;   bridgingExtrusionMultiplier,1.2
;   bridgingSpeedMultiplier,0.3
;   useFixedBridgingAngle,0
;   fixedBridgingAngle,135
;   applyBridgingToPerimeters,1
;   filamentDiameters,1.75|1.75|1.75|1.75|1.75|1.75
;   filamentPricesPerKg,19|46|46|46|46|46
;   filamentDensities,1.25|1.25|1.25|1.25|1.25|1.25
;   useMinPrintHeight,0
;   minPrintHeight,21.4
;   useMaxPrintHeight,0
;   maxPrintHeight,10
;   useDiaphragm,0
;   diaphragmLayerInterval,20
;   robustSlicing,1
;   mergeAllIntoSolid,0
;   onlyRetractWhenCrossingOutline,0
;   retractBetweenLayers,1
;   useRetractionMinTravel,1
;   retractionMinTravel,3
;   retractWhileWiping,0
;   onlyWipeOutlines,1
;   avoidCrossingOutline,0
;   maxMovementDetourFactor,400
;   toolChangeRetractionDistance,2
;   toolChangeExtraRestartDistance,0.75
;   toolChangeRetractionSpeed,600
;   externalThinWallType,1
;   internalThinWallType,2
;   thinWallAllowedOverlapPercentage,80
;   singleExtrusionMinLength,0.4
;   singleExtrusionMinPrintingWidthPercentage,20
;   singleExtrusionMaxPrintingWidthPercentage,200
;   singleExtrusionEndpointExtension,0.2
;   horizontalSizeCompensation,0
G90
M82
M106 S0
M140 S70
M190 S70
M104 S230 T0
M109 S230 T0
M98 Pprint_startgcode.g
; process Process1
; layer 1, Z = 0.240
G91 ; use relative positions
G1 Z0.5 ; move the bed down by 0.5
T0
G1 Z-0.5 ; move the bed up by 0.5
G90 ; back to absolute positions
G92 E0.0000
G1 E-1.0000 F600
; feature skirt
; tool H0.240 W0.420
G1 Z0.500 F450
G1 X253.694 Y177.772 F7200
G1 Z0.240 F450
G1 E0.0000 F600
G92 E0.0000
G1 X252.716 Y178.494 E0.0484 F720
G1 X251.594 Y178.902 E0.0959
G1 X250.868 Y179.030 E0.1253
G1 X230.026 Y179.030 E0.9550
G1 X230.024 Y180.115 E0.9982
G1 X229.737 Y181.182 E1.0422
G1 X229.028 Y182.411 E1.0987
G1 X228.072 Y183.287 E1.1503
G1 X226.917 Y183.825 E1.2011
G1 X226.017 Y184.025 E1.2378
G1 X205.030 Y184.029 E2.0733
G1 X205.030 Y184.868 E2.1067
G1 X204.902 Y185.594 E2.1360
G1 X204.480 Y186.754 E2.1852
G1 X203.691 Y187.783 E2.2368
G1 X202.495 Y188.620 E2.2949
G1 X201.262 Y189.010 E2.3464
G1 X190.029 Y189.026 E2.7936
G1 X190.025 Y207.611 E3.5335
G1 X189.738 Y208.681 E3.5776
G1 X189.028 Y209.911 E3.6342
G1 X188.072 Y210.787 E3.6858
G1 X186.918 Y211.325 E3.7365
G1 X186.022 Y211.524 E3.7730
G1 X185.029 Y211.526 E3.8125
G1 X185.025 Y232.610 E4.6520
G1 X184.738 Y233.681 E4.6961
G1 X183.981 Y234.993 E4.7564
G1 X182.843 Y235.947 E4.8155
G1 X181.594 Y236.402 E4.8684
G1 X180.868 Y236.530 E4.8978
G1 X180.025 Y236.530 E4.9313
G1 X180.009 Y245.320 E5.2813
G1 X179.551 Y246.648 E5.3372
G1 X178.608 Y247.854 E5.3982
G1 X177.566 Y248.580 E5.4487
G1 X176.469 Y248.930 E5.4946
G1 X175.826 Y249.030 E5.5205
G1 X172.258 Y249.030 E5.6625
G1 X171.778 Y248.975 E5.6817
G1 X170.975 Y248.787 E5.7146
G1 X170.174 Y248.411 E5.7498
G1 X169.228 Y247.694 E5.7971
G1 X168.506 Y246.716 E5.8455
G1 X168.098 Y245.594 E5.8930
G1 X167.970 Y244.868 E5.9223
G1 X167.970 Y224.030 E6.7520
G1 X167.132 Y224.030 E6.7853
G1 X166.406 Y223.902 E6.8147
G1 X165.246 Y223.480 E6.8638
G1 X164.218 Y222.691 E6.9154
G1 X163.380 Y221.494 E6.9736
G1 X162.990 Y220.260 E7.0251
G1 X162.972 Y199.030 E7.8703
G1 X162.224 Y199.030 E7.9001
G1 X161.677 Y198.958 E7.9221
G1 X160.715 Y198.700 E7.9617
G1 X159.755 Y198.146 E8.0059
G1 X158.854 Y197.245 E8.0566
G1 X158.300 Y196.285 E8.1007
G1 X158.042 Y195.323 E8.1404
G1 X157.970 Y194.776 E8.1623
G1 X157.970 Y189.030 E8.3911
G1 X152.224 Y189.030 E8.6199
G1 X151.677 Y188.958 E8.6418
G1 X150.715 Y188.700 E8.6815
G1 X149.755 Y188.146 E8.7256
G1 X148.854 Y187.245 E8.7763
G1 X148.300 Y186.285 E8.8205
G1 X148.042 Y185.323 E8.8601
G1 X147.970 Y184.776 E8.8821
G1 X147.970 Y184.028 E8.9119
G1 X126.740 Y184.010 E9.7571
G1 X125.506 Y183.620 E9.8086
G1 X124.309 Y182.783 E9.8668
G1 X123.520 Y181.754 E9.9184
G1 X123.098 Y180.594 E9.9675
G1 X122.970 Y179.868 E9.9969
G1 X122.970 Y179.028 E10.0303
G1 X101.834 Y179.010 E10.8718
G1 X100.765 Y178.723 E10.9159
G1 X99.790 Y178.160 E10.9607
G1 X99.110 Y177.538 E10.9974
G1 X98.486 Y176.647 E11.0407
G1 X98.133 Y175.795 E11.0774
G1 X98.002 Y175.050 E11.1075
G1 X97.970 Y174.684 E11.1222
G1 X97.970 Y171.224 E11.2599
G1 X98.042 Y170.677 E11.2819
G1 X98.276 Y169.805 E11.3178
G1 X98.702 Y168.987 E11.3545
G1 X99.426 Y168.124 E11.3994
G1 X100.334 Y167.488 E11.4435
G1 X101.406 Y167.098 E11.4890
G1 X102.132 Y166.970 E11.5183
G1 X110.474 Y166.970 E11.8504
G1 X110.476 Y165.885 E11.8936
G1 X110.763 Y164.818 E11.9376
G1 X111.472 Y163.589 E11.9941
G1 X112.428 Y162.713 E12.0457
G1 X113.583 Y162.175 E12.0964
G1 X114.483 Y161.975 E12.1331
G1 X135.474 Y161.971 E12.9688
G1 X135.476 Y160.885 E13.0121
G1 X135.763 Y159.818 E13.0561
G1 X136.472 Y158.589 E13.1126
G1 X137.428 Y157.713 E13.1642
G1 X138.583 Y157.175 E13.2149
G1 X139.483 Y156.975 E13.2516
G1 X157.974 Y156.971 E13.9878
G1 X157.990 Y145.738 E14.4350
G1 X158.380 Y144.505 E14.4865
G1 X159.218 Y143.309 E14.5446
G1 X160.246 Y142.520 E14.5962
G1 X161.406 Y142.098 E14.6453
G1 X162.132 Y141.970 E14.6747
G1 X162.971 Y141.970 E14.7081
G1 X162.975 Y120.927 E15.5458
G1 X163.225 Y119.924 E15.5870
G1 X163.857 Y118.736 E15.6405
G1 X164.757 Y117.841 E15.6911
G1 X165.939 Y117.220 E15.7443
G1 X166.928 Y116.976 E15.7848
G1 X167.971 Y116.974 E15.8263
G1 X167.975 Y95.890 E16.6657
G1 X168.262 Y94.819 E16.7098
G1 X169.019 Y93.507 E16.7702
G1 X170.157 Y92.553 E16.8293
G1 X171.413 Y92.096 E16.8825
G1 X172.151 Y91.968 E16.9123
G1 X176.242 Y91.993 E17.0752
G1 X177.403 Y92.343 E17.1235
G1 X178.399 Y92.993 E17.1708
G1 X179.024 Y93.621 E17.2061
G1 X179.566 Y94.461 E17.2459
G1 X179.874 Y95.245 E17.2794
G1 X179.998 Y95.950 E17.3079
G1 X180.030 Y96.316 E17.3226
G1 X180.030 Y104.474 E17.6474
G1 X181.115 Y104.476 E17.6905
G1 X182.182 Y104.763 E17.7345
G1 X183.411 Y105.472 E17.7910
G1 X184.287 Y106.428 E17.8426
G1 X184.825 Y107.583 E17.8934
G1 X185.025 Y108.483 E17.9301
G1 X185.029 Y129.474 E18.7658
G1 X186.115 Y129.476 E18.8090
G1 X187.182 Y129.763 E18.8530
G1 X188.411 Y130.472 E18.9095
G1 X189.287 Y131.428 E18.9611
G1 X189.825 Y132.583 E19.0119
G1 X190.025 Y133.483 E19.0485
G1 X190.030 Y156.970 E19.9836
G1 X213.610 Y156.975 E20.9225
G1 X214.681 Y157.262 E20.9666
G1 X215.911 Y157.972 E21.0231
G1 X216.787 Y158.928 E21.0747
G1 X217.325 Y160.082 E21.1254
G1 X217.524 Y160.978 E21.1620
G1 X217.526 Y161.971 E21.2015
G1 X238.610 Y161.975 E22.0409
G1 X239.681 Y162.262 E22.0850
G1 X240.993 Y163.020 E22.1454
G1 X241.947 Y164.157 E22.2045
G1 X242.402 Y165.406 E22.2574
G1 X242.530 Y166.132 E22.2867
G1 X242.530 Y166.975 E22.3203
G1 X251.320 Y166.991 E22.6702
G1 X252.648 Y167.449 E22.7262
G1 X253.854 Y168.392 E22.7871
G1 X254.580 Y169.434 E22.8377
G1 X254.930 Y170.531 E22.8835
G1 X255.030 Y171.174 E22.9095
G1 X255.030 Y174.742 E23.0515
G1 X254.975 Y175.222 E23.0707
G1 X254.787 Y176.025 E23.1035
G1 X254.411 Y176.826 E23.1388
G1 X253.694 Y177.772 E23.1860
G92 E0.0000
G1 E-1.0000 F600
; feature inner perimeter
G1 Z0.740 F450
G1 X249.770 Y172.230 F7200
G1 Z0.240 F450
G1 E0.0000 F600
G92 E0.0000
G1 X249.770 Y173.770 E0.0613 F540
G1 X227.454 Y173.770 E0.9498
G1 X227.025 Y173.808 E0.9669
G1 X226.565 Y173.931 E0.9859
G1 X226.133 Y174.132 E1.0048
G1 X225.743 Y174.406 E1.0238
G1 X225.406 Y174.743 E1.0428
G1 X225.132 Y175.133 E1.0618
G1 X224.931 Y175.565 E1.0807
G1 X224.808 Y176.025 E1.0997
G1 X224.770 Y176.453 E1.1168
G1 X224.766 Y178.765 E1.2089
G1 X202.454 Y178.770 E2.0972
G1 X202.025 Y178.808 E2.1143
G1 X201.565 Y178.931 E2.1333
G1 X201.133 Y179.132 E2.1523
G1 X200.743 Y179.406 E2.1712
G1 X200.406 Y179.743 E2.1902
G1 X200.132 Y180.133 E2.2092
G1 X199.931 Y180.565 E2.2281
G1 X199.808 Y181.025 E2.2471
G1 X199.770 Y181.454 E2.2643
G1 X199.770 Y183.770 E2.3565
G1 X187.454 Y183.770 E2.8468
G1 X187.025 Y183.808 E2.8639
G1 X186.565 Y183.931 E2.8829
G1 X186.133 Y184.132 E2.9019
G1 X185.743 Y184.406 E2.9208
G1 X185.406 Y184.743 E2.9398
G1 X185.132 Y185.133 E2.9588
G1 X184.931 Y185.565 E2.9778
G1 X184.808 Y186.025 E2.9967
G1 X184.770 Y186.454 E3.0139
G1 X184.765 Y206.266 E3.8027
G1 X182.453 Y206.270 E3.8947
G1 X182.025 Y206.308 E3.9118
G1 X181.565 Y206.431 E3.9308
G1 X181.133 Y206.632 E3.9498
G1 X180.743 Y206.906 E3.9687
G1 X180.406 Y207.243 E3.9877
G1 X180.132 Y207.633 E4.0067
G1 X179.931 Y208.065 E4.0256
G1 X179.808 Y208.525 E4.0446
G1 X179.770 Y208.954 E4.0618
G1 X179.765 Y231.270 E4.9502
G1 X177.454 Y231.270 E5.0422
G1 X177.025 Y231.308 E5.0594
G1 X176.565 Y231.431 E5.0783
G1 X176.133 Y231.632 E5.0973
G1 X175.743 Y231.906 E5.1163
G1 X175.406 Y232.243 E5.1353
G1 X175.132 Y232.633 E5.1542
G1 X174.931 Y233.065 E5.1732
G1 X174.816 Y233.493 E5.1908
G1 X174.770 Y233.947 E5.2090
G1 X174.770 Y243.770 E5.6001
G1 X173.230 Y243.770 E5.6614
G1 X173.230 Y221.454 E6.5498
G1 X173.192 Y221.025 E6.5670
G1 X173.069 Y220.565 E6.5860
G1 X172.868 Y220.133 E6.6049
G1 X172.594 Y219.743 E6.6239
G1 X172.257 Y219.406 E6.6429
G1 X171.867 Y219.132 E6.6619
G1 X171.435 Y218.931 E6.6808
G1 X170.975 Y218.808 E6.6998
G1 X170.546 Y218.770 E6.7169
G1 X168.230 Y218.770 E6.8091
G1 X168.230 Y196.454 E7.6976
G1 X168.192 Y196.025 E7.7147
G1 X168.069 Y195.565 E7.7337
G1 X167.868 Y195.133 E7.7527
G1 X167.594 Y194.743 E7.7717
G1 X167.257 Y194.406 E7.7906
G1 X166.867 Y194.132 E7.8096
G1 X166.435 Y193.931 E7.8286
G1 X165.975 Y193.808 E7.8475
G1 X165.546 Y193.770 E7.8647
G1 X163.230 Y193.770 E7.9569
G1 X163.230 Y186.454 E8.2481
G1 X163.192 Y186.025 E8.2653
G1 X163.069 Y185.565 E8.2843
G1 X162.868 Y185.133 E8.3032
G1 X162.594 Y184.743 E8.3222
G1 X162.257 Y184.406 E8.3412
G1 X161.867 Y184.132 E8.3602
G1 X161.435 Y183.931 E8.3791
G1 X160.975 Y183.808 E8.3981
G1 X160.546 Y183.770 E8.4152
G1 X153.230 Y183.770 E8.7065
G1 X153.230 Y181.454 E8.7987
G1 X153.192 Y181.025 E8.8158
G1 X153.069 Y180.565 E8.8348
G1 X152.868 Y180.133 E8.8538
G1 X152.594 Y179.743 E8.8728
G1 X152.257 Y179.406 E8.8917
G1 X151.867 Y179.132 E8.9107
G1 X151.435 Y178.931 E8.9297
G1 X150.975 Y178.808 E8.9487
G1 X150.546 Y178.770 E8.9658
G1 X128.230 Y178.770 E9.8542
G1 X128.230 Y176.454 E9.9464
G1 X128.192 Y176.025 E9.9636
G1 X128.069 Y175.565 E9.9826
G1 X127.868 Y175.133 E10.0015
G1 X127.594 Y174.743 E10.0205
G1 X127.257 Y174.406 E10.0395
G1 X126.867 Y174.132 E10.0585
G1 X126.435 Y173.931 E10.0774
G1 X125.975 Y173.808 E10.0964
G1 X125.546 Y173.770 E10.1135
G1 X103.230 Y173.770 E11.0020
G1 X103.230 Y172.230 E11.0633
G1 X113.046 Y172.230 E11.4541
G1 X113.441 Y172.195 E11.4699
G1 X113.928 Y172.072 E11.4899
G1 X114.367 Y171.868 E11.5092
G1 X114.757 Y171.594 E11.5281
G1 X115.094 Y171.257 E11.5471
G1 X115.368 Y170.867 E11.5661
G1 X115.569 Y170.435 E11.5851
G1 X115.692 Y169.975 E11.6040
G1 X115.730 Y169.547 E11.6211
G1 X115.734 Y167.235 E11.7132
G1 X138.046 Y167.230 E12.6015
G1 X138.475 Y167.192 E12.6186
G1 X138.935 Y167.069 E12.6376
G1 X139.367 Y166.868 E12.6566
G1 X139.757 Y166.594 E12.6755
G1 X140.094 Y166.257 E12.6945
G1 X140.368 Y165.867 E12.7135
G1 X140.569 Y165.435 E12.7325
G1 X140.692 Y164.975 E12.7514
G1 X140.730 Y164.547 E12.7686
G1 X140.734 Y162.235 E12.8606
G1 X160.546 Y162.230 E13.6494
G1 X160.975 Y162.192 E13.6665
G1 X161.435 Y162.069 E13.6855
G1 X161.867 Y161.868 E13.7045
G1 X162.257 Y161.594 E13.7234
G1 X162.594 Y161.257 E13.7424
G1 X162.868 Y160.867 E13.7614
G1 X163.069 Y160.435 E13.7803
G1 X163.192 Y159.975 E13.7993
G1 X163.230 Y159.546 E13.8165
G1 X163.230 Y147.230 E14.3068
G1 X165.546 Y147.230 E14.3990
G1 X165.975 Y147.192 E14.4161
G1 X166.435 Y147.069 E14.4351
G1 X166.867 Y146.868 E14.4541
G1 X167.257 Y146.594 E14.4730
G1 X167.594 Y146.257 E14.4920
G1 X167.868 Y145.867 E14.5110
G1 X168.069 Y145.435 E14.5300
G1 X168.192 Y144.975 E14.5489
G1 X168.230 Y144.546 E14.5661
G1 X168.235 Y122.234 E15.4544
G1 X170.547 Y122.230 E15.5464
