; G-Code generated by Simplify3D(R) Version 4.1.2
; Mar 28, 2020 at 12:15:31 PM
; Settings Summary
;   processName,Process 0.3mm
;   applyToModels,Cube 30x30x1.2,Cube 30x30x1.2(2),Cube 30x30x1.2(3),Cube 30x30x1.2(4),Cube 30x30x1.2(5)
;   profileName,ShadowHawk ProMega Hemera Inland PETG (modified)
;   profileVersion,2020-01-11 16:39:22
;   baseProfile,Default
;   printMaterial,MG PETG
;   printQuality,Medium
;   printExtruders,All Extruders
;   extruderName,Main Extruder
;   extruderToolheadNumber,0
;   extruderDiameter,0.4
;   extruderAutoWidth,0
;   extruderWidth,0.4
;   extrusionMultiplier,0.95
;   extruderUseRetract,1
;   extruderRetractionDistance,1
;   extruderExtraRestartDistance,0
;   extruderRetractionZLift,0.5
;   extruderRetractionSpeed,600
;   extruderUseCoasting,0
;   extruderCoastingDistance,0.1
;   extruderUseWipe,1
;   extruderWipeDistance,2
;   primaryExtruder,0
;   layerHeight,0.3
;   topSolidLayers,4
;   bottomSolidLayers,4
;   perimeterOutlines,3
;   printPerimetersInsideOut,1
;   startPointOption,3
;   startPointOriginX,5000
;   startPointOriginY,5000
;   sequentialIslands,0
;   spiralVaseMode,0
;   firstLayerHeightPercentage,150
;   firstLayerWidthPercentage,80
;   firstLayerUnderspeed,0.5
;   useRaft,0
;   raftExtruder,0
;   raftTopLayers,3
;   raftBaseLayers,2
;   raftOffset,3
;   raftSeparationDistance,0.14
;   raftTopInfill,100
;   aboveRaftSpeedMultiplier,0.3
;   useSkirt,1
;   skirtExtruder,0
;   skirtLayers,1
;   skirtOutlines,1
;   skirtOffset,4
;   usePrimePillar,0
;   primePillarExtruder,0
;   primePillarWidth,12
;   primePillarLocation,7
;   primePillarSpeedMultiplier,1
;   useOozeShield,0
;   oozeShieldExtruder,999
;   oozeShieldOffset,2
;   oozeShieldOutlines,1
;   oozeShieldSidewallShape,1
;   oozeShieldSidewallAngle,30
;   oozeShieldSpeedMultiplier,1
;   infillExtruder,0
;   internalInfillPattern,Rectilinear
;   externalInfillPattern,Rectilinear
;   infillPercentage,15
;   outlineOverlapPercentage,30
;   infillExtrusionWidthPercentage,100
;   minInfillLength,3
;   infillLayerInterval,1
;   internalInfillAngles,45,-45
;   overlapInternalInfillAngles,0
;   externalInfillAngles,45,-45,0,90
;   generateSupport,0
;   supportExtruder,0
;   supportInfillPercentage,40
;   supportExtraInflation,0.6
;   supportBaseLayers,1
;   denseSupportExtruder,0
;   denseSupportLayers,4
;   denseSupportInfillPercentage,70
;   supportLayerInterval,1
;   supportHorizontalPartOffset,0.5
;   supportUpperSeparationLayers,1
;   supportLowerSeparationLayers,1
;   supportType,0
;   supportGridSpacing,4
;   maxOverhangAngle,60
;   supportAngles,35
;   temperatureName,Extruder 1,Heated Bed
;   temperatureNumber,0,0
;   temperatureSetpointCount,1,1
;   temperatureSetpointLayers,1,1
;   temperatureSetpointTemperatures,240,70
;   temperatureStabilizeAtStartup,1,1
;   temperatureHeatedBed,0,1
;   fanLayers,1
;   fanSpeeds,0
;   blipFanToFullPower,0
;   adjustSpeedForCooling,1
;   minSpeedLayerTime,20
;   minCoolingSpeedSlowdown,20
;   increaseFanForCooling,0
;   minFanLayerTime,45
;   maxCoolingFanSpeed,100
;   increaseFanForBridging,1
;   bridgingFanSpeed,100
;   use5D,1
;   relativeEdistances,0
;   allowEaxisZeroing,1
;   independentExtruderAxes,0
;   includeM10123,0
;   stickySupport,1
;   applyToolheadOffsets,0
;   gcodeXoffset,0
;   gcodeYoffset,0
;   gcodeZoffset,0
;   overrideMachineDefinition,1
;   machineTypeOverride,0
;   strokeXoverride,353
;   strokeYoverride,341
;   strokeZoverride,374.4
;   originOffsetXoverride,0
;   originOffsetYoverride,0
;   originOffsetZoverride,0
;   homeXdirOverride,1
;   homeYdirOverride,1
;   homeZdirOverride,1
;   flipXoverride,1
;   flipYoverride,-1
;   flipZoverride,1
;   toolheadOffsets,0,0|0,0|0,0|0,0|0,0|0,0
;   overrideFirmwareConfiguration,1
;   firmwareTypeOverride,RepRap (Marlin/Repetier/Sprinter)
;   GPXconfigOverride,r2
;   baudRateOverride,115200
;   overridePrinterModels,0
;   printerModelsOverride
;   startingGcode,M98 Pprint_startgcode.g
;   layerChangeGcode,,
;   retractionGcode,
;   toolChangeGcode,G91 ; use relative positions,G1 Z0.5 ; move the bed down by 0.5,T[new_tool],G1 Z-0.5 ; move the bed up by 0.5,G90 ; back to absolute positions
;   endingGcode,M98 Pprint_stopgcode.g
;   exportFileFormat,gcode
;   celebration,0
;   celebrationSong,Star Wars
;   postProcessing,
;   defaultSpeed,3600
;   outlineUnderspeed,0.5
;   solidInfillUnderspeed,0.8
;   supportUnderspeed,0.5
;   rapidXYspeed,7200
;   rapidZspeed,450
;   minBridgingArea,50
;   bridgingExtraInflation,0
;   bridgingExtrusionMultiplier,1.2
;   bridgingSpeedMultiplier,0.3
;   useFixedBridgingAngle,0
;   fixedBridgingAngle,135
;   applyBridgingToPerimeters,1
;   filamentDiameters,1.75|1.75|1.75|1.75|1.75|1.75
;   filamentPricesPerKg,19|46|46|46|46|46
;   filamentDensities,1.25|1.25|1.25|1.25|1.25|1.25
;   useMinPrintHeight,0
;   minPrintHeight,21.4
;   useMaxPrintHeight,0
;   maxPrintHeight,10
;   useDiaphragm,0
;   diaphragmLayerInterval,20
;   robustSlicing,1
;   mergeAllIntoSolid,0
;   onlyRetractWhenCrossingOutline,0
;   retractBetweenLayers,1
;   useRetractionMinTravel,1
;   retractionMinTravel,3
;   retractWhileWiping,0
;   onlyWipeOutlines,1
;   avoidCrossingOutline,0
;   maxMovementDetourFactor,400
;   toolChangeRetractionDistance,2
;   toolChangeExtraRestartDistance,0.75
;   toolChangeRetractionSpeed,600
;   externalThinWallType,1
;   internalThinWallType,2
;   thinWallAllowedOverlapPercentage,80
;   singleExtrusionMinLength,0.4
;   singleExtrusionMinPrintingWidthPercentage,20
;   singleExtrusionMaxPrintingWidthPercentage,200
;   singleExtrusionEndpointExtension,0.2
;   horizontalSizeCompensation,0
G90
M82
M106 S0
M140 S70
M190 S70
M104 S240 T0
M109 S240 T0
M98 Pprint_startgcode.g
; process Process 0.3mm
; layer 1, Z = 0.450
G91 ; use relative positions
G1 Z0.5 ; move the bed down by 0.5
T0
G1 Z-0.5 ; move the bed up by 0.5
G90 ; back to absolute positions
G92 E0.0000
G1 E-1.0000 F600
; feature skirt
; tool H0.450 W0.320
G1 Z0.500 F450
G1 X312.723 Y80.160 F7200
G1 Z0.450 F450
G1 E0.0000 F600
G92 E0.0000
G1 X279.277 Y80.160 E1.9023 F1800
G1 X278.000 Y78.883 E2.0050
G1 X276.723 Y80.160 E2.1077
G1 X243.277 Y80.160 E4.0099
G1 X242.000 Y78.883 E4.1126
G1 X240.723 Y80.160 E4.2153
G1 X207.277 Y80.160 E6.1176
G1 X206.000 Y78.883 E6.2203
G1 X204.723 Y80.160 E6.3230
G1 X171.277 Y80.160 E8.2252
G1 X170.000 Y78.883 E8.3279
G1 X168.723 Y80.160 E8.4306
G1 X135.277 Y80.160 E10.3329
G1 X132.840 Y77.723 E10.5289
G1 X132.840 Y44.277 E12.4311
G1 X135.277 Y41.840 E12.6271
G1 X168.723 Y41.840 E14.5294
G1 X170.000 Y43.117 E14.6321
G1 X171.277 Y41.840 E14.7348
G1 X204.723 Y41.840 E16.6370
G1 X206.000 Y43.117 E16.7397
G1 X207.277 Y41.840 E16.8424
G1 X240.723 Y41.840 E18.7447
G1 X242.000 Y43.117 E18.8474
G1 X243.277 Y41.840 E18.9501
G1 X276.723 Y41.840 E20.8524
G1 X278.000 Y43.117 E20.9551
G1 X279.277 Y41.840 E21.0578
G1 X312.723 Y41.840 E22.9600
G1 X315.160 Y44.277 E23.1560
G1 X315.160 Y77.723 E25.0583
G1 X312.723 Y80.160 E25.2543
G92 E0.0000
G1 E-1.0000 F600
; feature inner perimeter
G1 Z0.950 F450
G1 X166.200 Y75.200 F7200
G1 Z0.450 F450
G1 E0.0000 F600
G92 E0.0000
G1 X137.800 Y75.200 E1.6152 F1350
G1 X137.800 Y46.800 E3.2305
G1 X166.200 Y46.800 E4.8457
G1 X166.200 Y75.200 E6.4610
G1 X166.520 Y75.520 F7200
G92 E0.0000
G1 X137.480 Y75.520 E1.6516 F1350
G1 X137.480 Y46.480 E3.3033
G1 X166.520 Y46.480 E4.9549
G1 X166.520 Y75.520 E6.6066
; feature outer perimeter
G1 X166.840 Y75.840 F7200
G92 E0.0000
G1 X137.160 Y75.840 E1.6880 F900
G1 X137.160 Y46.160 E3.3761
G1 X166.840 Y46.160 E5.0641
G1 X166.840 Y75.840 E6.7522
G92 E0.0000
G1 E-1.0000 F600
G1 X164.840 Y75.840 F900
; feature solid layer
G1 Z0.950 F450
G1 X138.415 Y74.976 F7200
G1 Z0.450 F450
G1 E0.0000 F600
G92 E0.0000
G1 X138.024 Y74.585 E0.0315 F1440
G1 X138.024 Y74.132 E0.0572
G1 X138.868 Y74.976 E0.1251
G1 X139.320 Y74.976 E0.1508
G1 X138.024 Y73.680 E0.2551
G1 X138.024 Y73.227 E0.2809
G1 X139.773 Y74.976 E0.4215
G1 X140.226 Y74.976 E0.4473
G1 X138.024 Y72.774 E0.6244
G1 X138.024 Y72.322 E0.6501
G1 X140.678 Y74.976 E0.8636
G1 X141.131 Y74.976 E0.8893
G1 X138.024 Y71.869 E1.1392
G1 X138.024 Y71.417 E1.1649
G1 X141.583 Y74.976 E1.4512
G1 X142.036 Y74.976 E1.4769
G1 X138.024 Y70.964 E1.7996
G1 X138.024 Y70.512 E1.8254
G1 X142.488 Y74.976 E2.1844
G1 X142.941 Y74.976 E2.2102
G1 X138.024 Y70.059 E2.6057
G1 X138.024 Y69.607 E2.6314
G1 X143.393 Y74.976 E3.0633
G1 X143.846 Y74.976 E3.0890
G1 X138.024 Y69.154 E3.5573
G1 X138.024 Y68.701 E3.5830
G1 X144.299 Y74.976 E4.0877
G1 X144.751 Y74.976 E4.1134
G1 X138.024 Y68.249 E4.6545
G1 X138.024 Y67.796 E4.6803
G1 X145.204 Y74.976 E5.2577
G1 X145.656 Y74.976 E5.2835
G1 X138.024 Y67.344 E5.8974
G1 X138.024 Y66.891 E5.9231
G1 X146.109 Y74.976 E6.5734
G1 X146.561 Y74.976 E6.5991
G1 X138.024 Y66.439 E7.2858
G1 X138.024 Y65.986 E7.3115
G1 X147.014 Y74.976 E8.0346
G1 X147.466 Y74.976 E8.0603
G1 X138.024 Y65.534 E8.8198
G1 X138.024 Y65.081 E8.8456
G1 X147.919 Y74.976 E9.6414
G1 X148.371 Y74.976 E9.6672
G1 X138.024 Y64.629 E10.4995
G1 X138.024 Y64.176 E10.5252
G1 X148.824 Y74.976 E11.3939
G1 X149.277 Y74.976 E11.4196
G1 X138.024 Y63.723 E12.3247
G1 X138.024 Y63.271 E12.3504
G1 X149.729 Y74.976 E13.2919
G1 X150.182 Y74.976 E13.3176
G1 X138.024 Y62.818 E14.2955
G1 X138.024 Y62.366 E14.3213
G1 X150.634 Y74.976 E15.3355
G1 X151.087 Y74.976 E15.3613
G1 X138.024 Y61.913 E16.4119
G1 X138.024 Y61.461 E16.4377
G1 X151.539 Y74.976 E17.5248
G1 X151.992 Y74.976 E17.5505
G1 X138.024 Y61.008 E18.6740
G1 X138.024 Y60.556 E18.6997
G1 X152.444 Y74.976 E19.8596
G1 X152.897 Y74.976 E19.8853
G1 X138.024 Y60.103 E21.0816
G1 X138.024 Y59.651 E21.1073
G1 X153.349 Y74.976 E22.3400
G1 X153.802 Y74.976 E22.3658
G1 X138.024 Y59.198 E23.6348
G1 X138.024 Y58.745 E23.6606
G1 X154.255 Y74.976 E24.9661
G1 X154.707 Y74.976 E24.9918
G1 X138.024 Y58.293 E26.3337
G1 X138.024 Y57.840 E26.3594
G1 X155.160 Y74.976 E27.7377
G1 X155.612 Y74.976 E27.7634
G1 X138.024 Y57.388 E29.1781
G1 X138.024 Y56.935 E29.2038
G1 X156.065 Y74.976 E30.6549
G1 X156.517 Y74.976 E30.6806
G1 X138.024 Y56.483 E32.1681
G1 X138.024 Y56.030 E32.1939
G1 X156.970 Y74.976 E33.7177
G1 X157.422 Y74.976 E33.7435
G1 X138.024 Y55.578 E35.3038
G1 X138.024 Y55.125 E35.3295
G1 X157.875 Y74.976 E36.9262
G1 X158.328 Y74.976 E36.9519
G1 X138.024 Y54.672 E38.5850
G1 X138.024 Y54.220 E38.6107
G1 X158.780 Y74.976 E40.2802
G1 X159.233 Y74.976 E40.3059
G1 X138.024 Y53.767 E42.0118
G1 X138.024 Y53.315 E42.0375
G1 X159.685 Y74.976 E43.7798
G1 X160.138 Y74.976 E43.8056
G1 X138.024 Y52.862 E45.5842
G1 X138.024 Y52.410 E45.6100
G1 X160.590 Y74.976 E47.4250
G1 X161.043 Y74.976 E47.4508
G1 X138.024 Y51.957 E49.3023
G1 X138.024 Y51.505 E49.3280
G1 X161.495 Y74.976 E51.2159
G1 X161.948 Y74.976 E51.2416
G1 X138.024 Y51.052 E53.1659
G1 X138.024 Y50.600 E53.1916
G1 X162.400 Y74.976 E55.1523
G1 X162.853 Y74.976 E55.1780
G1 X138.024 Y50.147 E57.1751
G1 X138.024 Y49.694 E57.2008
G1 X163.306 Y74.976 E59.2343
G1 X163.758 Y74.976 E59.2601
G1 X138.024 Y49.242 E61.3299
G1 X138.024 Y48.789 E61.3557
G1 X164.211 Y74.976 E63.4619
G1 X164.663 Y74.976 E63.4877
G1 X138.024 Y48.337 E65.6304
G1 X138.024 Y47.884 E65.6561
G1 X165.116 Y74.976 E67.8352
G1 X165.568 Y74.976 E67.8609
G1 X138.024 Y47.432 E70.0764
G1 X138.024 Y47.024 E70.0996
G1 X138.069 Y47.024 E70.1021
G1 X165.976 Y74.931 E72.3468
G1 X165.976 Y74.479 E72.3725
G1 X138.521 Y47.024 E74.5808
G1 X138.974 Y47.024 E74.6065
G1 X165.976 Y74.026 E76.7784
G1 X165.976 Y73.574 E76.8041
G1 X139.426 Y47.024 E78.9396
G1 X139.879 Y47.024 E78.9653
G1 X165.976 Y73.121 E81.0644
G1 X165.976 Y72.668 E81.0901
G1 X140.332 Y47.024 E83.1528
G1 X140.784 Y47.024 E83.1785
G1 X165.976 Y72.216 E85.2048
G1 X165.976 Y71.763 E85.2305
G1 X141.237 Y47.024 E87.2204
G1 X141.689 Y47.024 E87.2461
G1 X165.976 Y71.311 E89.1996
G1 X165.976 Y70.858 E89.2253
G1 X142.142 Y47.024 E91.1424
G1 X142.594 Y47.024 E91.1681
G1 X165.976 Y70.406 E93.0488
G1 X165.976 Y69.953 E93.0745
G1 X143.047 Y47.024 E94.9188
G1 X143.499 Y47.024 E94.9445
G1 X165.976 Y69.501 E96.7524
G1 X165.976 Y69.048 E96.7781
G1 X143.952 Y47.024 E98.5496
G1 X144.405 Y47.024 E98.5753
G1 X165.976 Y68.595 E100.3104
G1 X165.976 Y68.143 E100.3361
G1 X144.857 Y47.024 E102.0348
G1 X145.310 Y47.024 E102.0605
G1 X165.976 Y67.690 E103.7228
G1 X165.976 Y67.238 E103.7485
G1 X145.762 Y47.024 E105.3744
G1 X146.215 Y47.024 E105.4001
G1 X165.976 Y66.785 E106.9896
G1 X165.976 Y66.333 E107.0154
G1 X146.667 Y47.024 E108.5684
G1 X147.120 Y47.024 E108.5942
G1 X165.976 Y65.880 E110.1108
G1 X165.976 Y65.428 E110.1366
G1 X147.572 Y47.024 E111.6168
G1 X148.025 Y47.024 E111.6426
G1 X165.976 Y64.975 E113.0864
G1 X165.976 Y64.523 E113.1122
G1 X148.477 Y47.024 E114.5196
G1 X148.930 Y47.024 E114.5454
G1 X165.976 Y64.070 E115.9164
G1 X165.976 Y63.617 E115.9422
G1 X149.383 Y47.024 E117.2768
G1 X149.835 Y47.024 E117.3026
G1 X165.976 Y63.165 E118.6008
G1 X165.976 Y62.712 E118.6266
G1 X150.288 Y47.024 E119.8884
G1 X150.740 Y47.024 E119.9142
G1 X165.976 Y62.260 E121.1396
G1 X165.976 Y61.807 E121.1654
G1 X151.193 Y47.024 E122.3544
G1 X151.645 Y47.024 E122.3802
G1 X165.976 Y61.355 E123.5329
G1 X165.976 Y60.902 E123.5586
G1 X152.098 Y47.024 E124.6749
G1 X152.550 Y47.024 E124.7006
G1 X165.976 Y60.450 E125.7805
G1 X165.976 Y59.997 E125.8062
G1 X153.003 Y47.024 E126.8497
G1 X153.455 Y47.024 E126.8754
G1 X165.976 Y59.545 E127.8825
G1 X165.976 Y59.092 E127.9082
G1 X153.908 Y47.024 E128.8789
G1 X154.361 Y47.024 E128.9046
G1 X165.976 Y58.639 E129.8389
G1 X165.976 Y58.187 E129.8646
G1 X154.813 Y47.024 E130.7625
G1 X155.266 Y47.024 E130.7882
G1 X165.976 Y57.734 E131.6497
G1 X165.976 Y57.282 E131.6754
G1 X155.718 Y47.024 E132.5005
G1 X156.171 Y47.024 E132.5262
G1 X165.976 Y56.829 E133.3149
G1 X165.976 Y56.377 E133.3406
G1 X156.623 Y47.024 E134.0929
G1 X157.076 Y47.024 E134.1186
G1 X165.976 Y55.924 E134.8345
G1 X165.976 Y55.472 E134.8602
G1 X157.528 Y47.024 E135.5397
G1 X157.981 Y47.024 E135.5655
G1 X165.976 Y55.019 E136.2085
G1 X165.976 Y54.566 E136.2343
G1 X158.434 Y47.024 E136.8409
G1 X158.886 Y47.024 E136.8667
G1 X165.976 Y54.114 E137.4369
G1 X165.976 Y53.661 E137.4627
G1 X159.339 Y47.024 E137.9965
G1 X159.791 Y47.024 E138.0223
G1 X165.976 Y53.209 E138.5197
G1 X165.976 Y52.756 E138.5455
G1 X160.244 Y47.024 E139.0065
G1 X160.696 Y47.024 E139.0323
G1 X165.976 Y52.304 E139.4570
G1 X165.976 Y51.851 E139.4827
G1 X161.149 Y47.024 E139.8710
G1 X161.601 Y47.024 E139.8967
G1 X165.976 Y51.399 E140.2486
G1 X165.976 Y50.946 E140.2743
G1 X162.054 Y47.024 E140.5898
G1 X162.506 Y47.024 E140.6155
G1 X165.976 Y50.494 E140.8946
G1 X165.976 Y50.041 E140.9203
G1 X162.959 Y47.024 E141.1630
G1 X163.412 Y47.024 E141.1887
G1 X165.976 Y49.588 E141.3950
G1 X165.976 Y49.136 E141.4207
G1 X163.864 Y47.024 E141.5906
G1 X164.317 Y47.024 E141.6163
G1 X165.976 Y48.683 E141.7498
G1 X165.976 Y48.231 E141.7755
G1 X164.769 Y47.024 E141.8726
G1 X165.222 Y47.024 E141.8984
G1 X165.976 Y47.778 E141.9590
G1 X165.976 Y47.326 E141.9848
G1 X165.674 Y47.024 E142.0090
G92 E0.0000
G1 E-1.0000 F600
; feature inner perimeter
G1 Z0.950 F450
G1 X202.200 Y75.200 F7200
G1 Z0.450 F450
G1 E0.0000 F600
G92 E0.0000
G1 X173.800 Y75.200 E1.6152 F1350
G1 X173.800 Y46.800 E3.2305
G1 X202.200 Y46.800 E4.8457
G1 X202.200 Y75.200 E6.4610
G1 X202.520 Y75.520 F7200
G92 E0.0000
G1 X173.480 Y75.520 E1.6516 F1350
G1 X173.480 Y46.480 E3.3033
G1 X202.520 Y46.480 E4.9549
G1 X202.520 Y75.520 E6.6066
; feature outer perimeter
G1 X202.840 Y75.840 F7200
G92 E0.0000
G1 X173.160 Y75.840 E1.6880 F900
G1 X173.160 Y46.160 E3.3761
G1 X202.840 Y46.160 E5.0641
G1 X202.840 Y75.840 E6.7522
G92 E0.0000
G1 E-1.0000 F600
G1 X200.840 Y75.840 F900
; feature solid layer
G1 Z0.950 F450
G1 X174.024 Y74.833 F7200
G1 Z0.450 F450
G1 E0.0000 F600
G92 E0.0000
G1 X174.167 Y74.976 E0.0115 F1440
G1 X174.619 Y74.976 E0.0372
G1 X174.024 Y74.381 E0.0851
G1 X174.024 Y73.928 E0.1108
G1 X175.072 Y74.976 E0.1951
G1 X175.524 Y74.976 E0.2208
G1 X174.024 Y73.476 E0.3415
G1 X174.024 Y73.023 E0.3673
G1 X175.977 Y74.976 E0.5243
G1 X176.429 Y74.976 E0.5501
G1 X174.024 Y72.571 E0.7436
