; G-Code generated by Simplify3D(R) Version 4.1.2
; Dec 31, 2019 at 1:20:36 PM
; Settings Summary
;   processName,Profile
;   applyToModels,3DBenchy
;   profileName,ShadowHawk ProMega Hemera Inland PETG (modified)
;   profileVersion,2018-12-30 22:09:45
;   baseProfile,Default
;   printMaterial,MG PETG
;   printQuality,Medium
;   printExtruders,All Extruders
;   extruderName,Main Extruder
;   extruderToolheadNumber,0
;   extruderDiameter,0.4
;   extruderAutoWidth,0
;   extruderWidth,0.4
;   extrusionMultiplier,1
;   extruderUseRetract,1
;   extruderRetractionDistance,1
;   extruderExtraRestartDistance,0
;   extruderRetractionZLift,0.5
;   extruderRetractionSpeed,600
;   extruderUseCoasting,0
;   extruderCoastingDistance,0.1
;   extruderUseWipe,1
;   extruderWipeDistance,2
;   primaryExtruder,0
;   layerHeight,0.3
;   topSolidLayers,4
;   bottomSolidLayers,4
;   perimeterOutlines,3
;   printPerimetersInsideOut,1
;   startPointOption,3
;   startPointOriginX,5000
;   startPointOriginY,5000
;   sequentialIslands,0
;   spiralVaseMode,0
;   firstLayerHeightPercentage,80
;   firstLayerWidthPercentage,105
;   firstLayerUnderspeed,0.2
;   useRaft,0
;   raftExtruder,0
;   raftTopLayers,3
;   raftBaseLayers,2
;   raftOffset,3
;   raftSeparationDistance,0.14
;   raftTopInfill,100
;   aboveRaftSpeedMultiplier,0.3
;   useSkirt,1
;   skirtExtruder,0
;   skirtLayers,1
;   skirtOutlines,2
;   skirtOffset,4
;   usePrimePillar,0
;   primePillarExtruder,0
;   primePillarWidth,12
;   primePillarLocation,7
;   primePillarSpeedMultiplier,1
;   useOozeShield,0
;   oozeShieldExtruder,999
;   oozeShieldOffset,2
;   oozeShieldOutlines,1
;   oozeShieldSidewallShape,1
;   oozeShieldSidewallAngle,30
;   oozeShieldSpeedMultiplier,1
;   infillExtruder,0
;   internalInfillPattern,Rectilinear
;   externalInfillPattern,Rectilinear
;   infillPercentage,20
;   outlineOverlapPercentage,30
;   infillExtrusionWidthPercentage,100
;   minInfillLength,3
;   infillLayerInterval,1
;   internalInfillAngles,45,-45
;   overlapInternalInfillAngles,0
;   externalInfillAngles,45,-45,0,90
;   generateSupport,0
;   supportExtruder,0
;   supportInfillPercentage,40
;   supportExtraInflation,0
;   supportBaseLayers,1
;   denseSupportExtruder,0
;   denseSupportLayers,4
;   denseSupportInfillPercentage,70
;   supportLayerInterval,1
;   supportHorizontalPartOffset,0.5
;   supportUpperSeparationLayers,1
;   supportLowerSeparationLayers,1
;   supportType,0
;   supportGridSpacing,4
;   maxOverhangAngle,60
;   supportAngles,35
;   temperatureName,Extruder 1,Heated Bed
;   temperatureNumber,0,0
;   temperatureSetpointCount,2,1
;   temperatureSetpointLayers,1,2,1
;   temperatureSetpointTemperatures,250,270,70
;   temperatureStabilizeAtStartup,1,1
;   temperatureHeatedBed,0,1
;   fanLayers,1,2
;   fanSpeeds,0,60
;   blipFanToFullPower,0
;   adjustSpeedForCooling,1
;   minSpeedLayerTime,20
;   minCoolingSpeedSlowdown,20
;   increaseFanForCooling,0
;   minFanLayerTime,45
;   maxCoolingFanSpeed,100
;   increaseFanForBridging,1
;   bridgingFanSpeed,100
;   use5D,1
;   relativeEdistances,0
;   allowEaxisZeroing,1
;   independentExtruderAxes,0
;   includeM10123,0
;   stickySupport,1
;   applyToolheadOffsets,0
;   gcodeXoffset,0
;   gcodeYoffset,0
;   gcodeZoffset,0
;   overrideMachineDefinition,1
;   machineTypeOverride,0
;   strokeXoverride,353
;   strokeYoverride,341
;   strokeZoverride,374.4
;   originOffsetXoverride,0
;   originOffsetYoverride,0
;   originOffsetZoverride,0
;   homeXdirOverride,1
;   homeYdirOverride,1
;   homeZdirOverride,1
;   flipXoverride,1
;   flipYoverride,-1
;   flipZoverride,1
;   toolheadOffsets,0,0|0,0|0,0|0,0|0,0|0,0
;   overrideFirmwareConfiguration,1
;   firmwareTypeOverride,RepRap (Marlin/Repetier/Sprinter)
;   GPXconfigOverride,r2
;   baudRateOverride,115200
;   overridePrinterModels,0
;   printerModelsOverride
;   startingGcode,M98 Pprint_startgcode.g
;   layerChangeGcode,,
;   retractionGcode,
;   toolChangeGcode,G91 ; use relative positions,G1 Z0.5 ; move the bed down by 0.5,T[new_tool],G1 Z-0.5 ; move the bed up by 0.5,G90 ; back to absolute positions
;   endingGcode,M98 Pprint_stopgcode.g
;   exportFileFormat,gcode
;   celebration,0
;   celebrationSong,Star Wars
;   postProcessing,
;   defaultSpeed,3600
;   outlineUnderspeed,0.5
;   solidInfillUnderspeed,0.8
;   supportUnderspeed,0.5
;   rapidXYspeed,7200
;   rapidZspeed,450
;   minBridgingArea,50
;   bridgingExtraInflation,0
;   bridgingExtrusionMultiplier,1.2
;   bridgingSpeedMultiplier,0.3
;   useFixedBridgingAngle,0
;   fixedBridgingAngle,135
;   applyBridgingToPerimeters,1
;   filamentDiameters,1.75|1.75|1.75|1.75|1.75|1.75
;   filamentPricesPerKg,19|46|46|46|46|46
;   filamentDensities,1.25|1.25|1.25|1.25|1.25|1.25
;   useMinPrintHeight,0
;   minPrintHeight,21.4
;   useMaxPrintHeight,0
;   maxPrintHeight,10
;   useDiaphragm,0
;   diaphragmLayerInterval,20
;   robustSlicing,1
;   mergeAllIntoSolid,0
;   onlyRetractWhenCrossingOutline,0
;   retractBetweenLayers,1
;   useRetractionMinTravel,1
;   retractionMinTravel,3
;   retractWhileWiping,0
;   onlyWipeOutlines,1
;   avoidCrossingOutline,0
;   maxMovementDetourFactor,400
;   toolChangeRetractionDistance,2
;   toolChangeExtraRestartDistance,0.75
;   toolChangeRetractionSpeed,600
;   externalThinWallType,1
;   internalThinWallType,2
;   thinWallAllowedOverlapPercentage,80
;   singleExtrusionMinLength,0.4
;   singleExtrusionMinPrintingWidthPercentage,20
;   singleExtrusionMaxPrintingWidthPercentage,200
;   singleExtrusionEndpointExtension,0.2
;   horizontalSizeCompensation,0
G90
M82
M106 S0
M140 S70
M190 S70
M104 S250 T0
M109 S250 T0
M98 Pprint_startgcode.g
; process Profile
; layer 1, Z = 0.240
G91 ; use relative positions
G1 Z0.5 ; move the bed down by 0.5
T0
G1 Z-0.5 ; move the bed up by 0.5
G90 ; back to absolute positions
G92 E0.0000
G1 E-1.0000 F600
; feature skirt
; tool H0.240 W0.420
G1 Z0.500 F450
G1 X190.062 Y177.823 F7200
G1 Z0.240 F450
G1 E0.0000 F600
G92 E0.0000
G1 X189.957 Y177.923 E0.0061 F720
G1 X189.205 Y178.596 E0.0484
G1 X189.094 Y178.689 E0.0544
G1 X188.215 Y179.383 E0.1013
G1 X188.100 Y179.468 E0.1074
G1 X187.254 Y180.054 E0.1505
G1 X187.137 Y180.130 E0.1563
G1 X186.269 Y180.656 E0.1989
G1 X186.153 Y180.722 E0.2045
G1 X185.249 Y181.202 E0.2474
G1 X185.129 Y181.261 E0.2530
G1 X184.270 Y181.656 E0.2926
G1 X184.142 Y181.710 E0.2984
G1 X183.103 Y182.114 E0.3451
G1 X182.970 Y182.160 E0.3510
G1 X182.060 Y182.452 E0.3911
G1 X181.934 Y182.488 E0.3966
G1 X180.989 Y182.733 E0.4375
G1 X180.869 Y182.760 E0.4427
G1 X179.951 Y182.946 E0.4819
G1 X179.823 Y182.968 E0.4873
G1 X178.878 Y183.105 E0.5274
G1 X178.752 Y183.119 E0.5327
G1 X177.800 Y183.204 E0.5727
G1 X177.673 Y183.212 E0.5780
G1 X176.737 Y183.243 E0.6173
G1 X176.607 Y183.244 E0.6228
G1 X175.657 Y183.222 E0.6626
G1 X175.569 Y183.219 E0.6662
G1 X151.915 Y181.779 E1.6594
G1 X151.773 Y181.766 E1.6653
G1 X151.254 Y181.702 E1.6873
G1 X150.866 Y181.620 E1.7039
G1 X150.132 Y181.399 E1.7360
G1 X149.755 Y181.248 E1.7530
G1 X149.201 Y180.968 E1.7790
G1 X148.907 Y180.790 E1.7935
G1 X148.386 Y180.420 E1.8202
G1 X148.070 Y180.150 E1.8376
G1 X147.565 Y179.634 E1.8679
G1 X147.315 Y179.331 E1.8844
G1 X146.956 Y178.810 E1.9109
G1 X146.779 Y178.509 E1.9255
G1 X146.509 Y177.954 E1.9514
G1 X146.366 Y177.584 E1.9680
G1 X146.146 Y176.822 E2.0012
G1 X146.064 Y176.390 E2.0197
G1 X145.998 Y175.678 E2.0496
G1 X145.988 Y175.464 E2.0586
G1 X145.992 Y165.346 E2.4826
G1 X146.018 Y164.999 E2.4972
G1 X146.144 Y164.169 E2.5324
G1 X146.287 Y163.647 E2.5551
G1 X146.683 Y162.669 E2.5993
G1 X146.968 Y162.159 E2.6238
G1 X147.540 Y161.386 E2.6641
G1 X147.948 Y160.960 E2.6888
G1 X148.762 Y160.302 E2.7327
G1 X149.250 Y159.999 E2.7567
G1 X150.091 Y159.612 E2.7956
G1 X150.622 Y159.441 E2.8189
G1 X151.536 Y159.264 E2.8579
G1 X151.835 Y159.226 E2.8706
G1 X175.437 Y157.788 E3.8615
G1 X175.549 Y157.784 E3.8662
G1 X177.132 Y157.764 E3.9326
G1 X177.366 Y157.773 E3.9424
G1 X179.159 Y157.932 E4.0178
G1 X179.354 Y157.957 E4.0261
G1 X180.444 Y158.148 E4.0724
G1 X180.592 Y158.179 E4.0788
G1 X181.732 Y158.456 E4.1279
G1 X181.877 Y158.497 E4.1342
G1 X182.948 Y158.832 E4.1813
G1 X183.086 Y158.881 E4.1874
G1 X184.055 Y159.253 E4.2309
G1 X184.200 Y159.314 E4.2375
G1 X185.347 Y159.847 E4.2905
G1 X185.481 Y159.915 E4.2968
G1 X186.349 Y160.389 E4.3382
G1 X186.477 Y160.464 E4.3444
G1 X187.513 Y161.120 E4.3958
G1 X187.640 Y161.206 E4.4023
G1 X188.517 Y161.846 E4.4478
G1 X188.645 Y161.946 E4.4546
G1 X189.635 Y162.781 E4.5088
G1 X189.750 Y162.885 E4.5153
G1 X190.482 Y163.591 E4.5580
G1 X190.591 Y163.703 E4.5645
G1 X191.474 Y164.679 E4.6197
G1 X191.570 Y164.792 E4.6259
G1 X192.117 Y165.481 E4.6628
G1 X192.182 Y165.567 E4.6673
G1 X192.629 Y166.186 E4.6993
G1 X192.710 Y166.306 E4.7053
G1 X193.452 Y167.483 E4.7637
G1 X193.583 Y167.720 E4.7750
G1 X193.834 Y168.246 E4.7994
G1 X193.999 Y168.713 E4.8202
G1 X194.223 Y169.658 E4.8609
G1 X194.281 Y170.335 E4.8894
G1 X194.222 Y171.300 E4.9299
G1 X194.131 Y171.817 E4.9519
G1 X193.923 Y172.523 E4.9827
G1 X193.732 Y172.981 E5.0035
G1 X193.289 Y173.790 E5.0422
G1 X193.196 Y173.944 E5.0497
G1 X192.597 Y174.861 E5.0956
G1 X192.500 Y174.998 E5.1027
G1 X191.674 Y176.081 E5.1597
G1 X191.577 Y176.199 E5.1661
G1 X190.968 Y176.896 E5.2049
G1 X190.874 Y176.998 E5.2107
G1 X190.062 Y177.823 E5.2592
G1 X189.767 Y177.523 F7200
G92 E0.0000
G1 X189.672 Y177.614 E0.0055 F720
G1 X188.930 Y178.279 E0.0473
G1 X188.829 Y178.364 E0.0528
G1 X187.960 Y179.049 E0.0991
G1 X187.855 Y179.127 E0.1046
G1 X187.020 Y179.705 E0.1472
G1 X186.913 Y179.774 E0.1525
G1 X186.056 Y180.294 E0.1946
G1 X185.951 Y180.354 E0.1996
G1 X185.057 Y180.828 E0.2420
G1 X184.949 Y180.882 E0.2471
G1 X184.100 Y181.272 E0.2862
G1 X183.984 Y181.321 E0.2915
G1 X182.956 Y181.720 E0.3377
G1 X182.836 Y181.762 E0.3431
G1 X181.938 Y182.050 E0.3826
G1 X181.823 Y182.083 E0.3876
G1 X180.890 Y182.325 E0.4280
G1 X180.780 Y182.350 E0.4327
G1 X179.874 Y182.533 E0.4715
G1 X179.758 Y182.553 E0.4764
G1 X178.824 Y182.688 E0.5160
G1 X178.709 Y182.702 E0.5208
G1 X177.769 Y182.785 E0.5603
G1 X177.653 Y182.792 E0.5652
G1 X176.729 Y182.823 E0.6040
G1 X176.610 Y182.824 E0.6089
G1 X175.671 Y182.802 E0.6483
G1 X175.591 Y182.799 E0.6517
G1 X151.947 Y181.360 E1.6444
G1 X151.818 Y181.348 E1.6498
G1 X151.323 Y181.287 E1.6707
G1 X150.971 Y181.213 E1.6858
G1 X150.271 Y181.002 E1.7164
G1 X149.928 Y180.865 E1.7319
G1 X149.405 Y180.600 E1.7565
G1 X149.137 Y180.438 E1.7696
G1 X148.644 Y180.089 E1.7949
G1 X148.357 Y179.843 E1.8107
G1 X147.878 Y179.354 E1.8394
G1 X147.650 Y179.077 E1.8544
G1 X147.310 Y178.585 E1.8795
G1 X147.150 Y178.310 E1.8928
G1 X146.895 Y177.786 E1.9173
G1 X146.765 Y177.450 E1.9324
G1 X146.555 Y176.724 E1.9640
G1 X146.480 Y176.332 E1.9808
G1 X146.417 Y175.649 E2.0095
G1 X146.408 Y175.454 E2.0177
G1 X146.412 Y165.362 E2.4406
G1 X146.436 Y165.046 E2.4539
G1 X146.556 Y164.256 E2.4874
G1 X146.686 Y163.781 E2.5080
G1 X147.062 Y162.851 E2.5501
G1 X147.322 Y162.387 E2.5723
G1 X147.861 Y161.657 E2.6104
G1 X148.232 Y161.270 E2.6329
G1 X149.005 Y160.645 E2.6745
G1 X149.450 Y160.370 E2.6964
G1 X150.244 Y160.004 E2.7331
G1 X150.727 Y159.848 E2.7543
G1 X151.602 Y159.679 E2.7917
G1 X151.874 Y159.644 E2.8032
G1 X175.458 Y158.208 E3.7934
G1 X175.559 Y158.204 E3.7976
G1 X177.127 Y158.184 E3.8633
G1 X177.340 Y158.192 E3.8722
G1 X179.113 Y158.349 E3.9469
G1 X179.291 Y158.373 E3.9544
G1 X180.365 Y158.561 E4.0001
G1 X180.500 Y158.589 E4.0058
G1 X181.626 Y158.863 E4.0544
G1 X181.758 Y158.900 E4.0601
G1 X182.816 Y159.231 E4.1066
G1 X182.941 Y159.275 E4.1122
G1 X183.898 Y159.643 E4.1551
G1 X184.029 Y159.698 E4.1611
G1 X185.164 Y160.225 E4.2135
G1 X185.286 Y160.287 E4.2193
G1 X186.141 Y160.754 E4.2601
G1 X186.258 Y160.823 E4.2658
G1 X187.283 Y161.471 E4.3166
G1 X187.398 Y161.549 E4.3224
G1 X188.264 Y162.181 E4.3673
G1 X188.380 Y162.272 E4.3735
G1 X189.359 Y163.097 E4.4272
G1 X189.464 Y163.192 E4.4331
G1 X190.185 Y163.888 E4.4751
G1 X190.284 Y163.991 E4.4811
G1 X191.158 Y164.956 E4.5357
G1 X191.245 Y165.059 E4.5413
G1 X191.785 Y165.739 E4.5777
G1 X191.845 Y165.817 E4.5818
G1 X192.285 Y166.426 E4.6133
G1 X192.358 Y166.535 E4.6188
G1 X193.091 Y167.697 E4.6764
G1 X193.209 Y167.912 E4.6867
G1 X193.446 Y168.407 E4.7097
G1 X193.595 Y168.831 E4.7285
G1 X193.807 Y169.724 E4.7670
G1 X193.860 Y170.340 E4.7929
G1 X193.804 Y171.251 E4.8311
G1 X193.722 Y171.721 E4.8511
G1 X193.526 Y172.382 E4.8800
G1 X193.353 Y172.799 E4.8989
G1 X192.925 Y173.581 E4.9363
G1 X192.840 Y173.721 E4.9431
G1 X192.249 Y174.625 E4.9884
G1 X192.161 Y174.749 E4.9948
G1 X191.344 Y175.820 E5.0513
G1 X191.256 Y175.928 E5.0571
G1 X190.656 Y176.616 E5.0953
G1 X190.570 Y176.708 E5.1006
G1 X189.767 Y177.523 E5.1486
G92 E0.0000
G1 E-1.0000 F600
; feature inner perimeter
G1 Z0.740 F450
G1 X186.710 Y167.952 F7200
G1 Z0.240 F450
G1 E0.0000 F600
G92 E0.0000
G1 X186.610 Y167.935 E0.0043 F540
G1 X184.216 Y167.938 E0.1046
G1 X183.816 Y167.997 E0.1215
G1 X183.408 Y168.153 E0.1398
G1 X183.268 Y168.266 E0.1474
G1 X183.195 Y168.199 E0.1515
G1 X182.870 Y168.016 E0.1671
G1 X182.425 Y167.918 E0.1862
G1 X182.004 Y167.973 E0.2040
G1 X181.572 Y168.183 E0.2242
G1 X181.196 Y168.573 E0.2468
G1 X181.076 Y168.773 E0.2566
G1 X180.851 Y168.468 E0.2725
G1 X180.615 Y168.256 E0.2858
G1 X180.310 Y168.076 E0.3007
G1 X179.853 Y167.944 E0.3206
G1 X179.508 Y167.929 E0.3351
G1 X179.196 Y167.979 E0.3483
G1 X178.886 Y168.097 E0.3622
G1 X178.647 Y168.271 E0.3746
G1 X178.597 Y168.215 E0.3777
G1 X178.044 Y167.942 E0.4036
G1 X177.463 Y167.932 E0.4279
G1 X176.943 Y168.157 E0.4517
G1 X176.682 Y168.374 E0.4659
G1 X176.532 Y168.229 E0.4746
G1 X176.163 Y168.021 E0.4924
G1 X175.820 Y167.934 E0.5072
G1 X175.492 Y167.931 E0.5209
G1 X175.172 Y167.995 E0.5346
G1 X174.884 Y168.119 E0.5478
G1 X174.618 Y168.295 E0.5611
G1 X174.367 Y168.562 E0.5765
G1 X174.153 Y168.990 E0.5965
G1 X174.112 Y169.435 E0.6153
G1 X174.157 Y169.763 E0.6291
G1 X174.289 Y170.155 E0.6465
G1 X174.897 Y171.247 E0.6989
G1 X174.872 Y171.281 E0.7006
G1 X174.762 Y171.471 E0.7098
G1 X174.655 Y171.346 E0.7167
G1 X174.348 Y171.118 E0.7327
G1 X174.024 Y170.954 E0.7479
G1 X173.650 Y170.844 E0.7643
G1 X173.158 Y170.812 E0.7849
G1 X173.171 Y170.480 E0.7988
G1 X173.149 Y169.909 E0.8228
G1 X173.099 Y169.498 E0.8401
G1 X172.948 Y168.865 E0.8674
G1 X172.824 Y168.532 E0.8823
G1 X172.684 Y168.236 E0.8960
G1 X172.522 Y167.958 E0.9095
G1 X172.336 Y167.698 E0.9229
G1 X172.123 Y167.454 E0.9365
G1 X171.840 Y167.198 E0.9525
G1 X171.586 Y167.016 E0.9656
G1 X171.294 Y166.854 E0.9796
G1 X170.761 Y166.661 E1.0033
G1 X170.103 Y166.541 E1.0313
G1 X169.502 Y166.500 E1.0566
G1 X168.070 Y166.486 E1.1166
G1 X167.613 Y166.564 E1.1360
G1 X167.224 Y166.735 E1.1538
G1 X166.927 Y166.966 E1.1696
G1 X166.636 Y167.378 E1.1908
G1 X166.489 Y167.185 E1.2009
G1 X166.274 Y166.969 E1.2137
G1 X166.034 Y166.784 E1.2264
G1 X165.767 Y166.629 E1.2393
G1 X165.470 Y166.504 E1.2528
G1 X165.120 Y166.407 E1.2681
G1 X164.773 Y166.348 E1.2828
G1 X164.207 Y166.318 E1.3066
G1 X163.789 Y166.346 E1.3241
G1 X163.417 Y166.408 E1.3400
G1 X163.037 Y166.518 E1.3565
G1 X162.613 Y166.711 E1.3760
G1 X162.312 Y166.925 E1.3915
G1 X161.965 Y166.650 E1.4101
G1 X161.543 Y166.518 E1.4286
G1 X161.256 Y166.491 E1.4407
G1 X158.015 Y166.506 E1.5765
G1 X157.380 Y166.458 E1.6032
G1 X156.839 Y166.529 E1.6260
G1 X156.338 Y166.835 E1.6507
G1 X156.186 Y167.036 E1.6612
G1 X156.025 Y166.898 E1.6701
G1 X155.752 Y166.722 E1.6837
G1 X155.490 Y166.589 E1.6960
G1 X155.197 Y166.477 E1.7092
G1 X154.881 Y166.395 E1.7229
G1 X154.542 Y166.344 E1.7372
G1 X154.194 Y166.322 E1.7518
G1 X153.750 Y166.334 E1.7705
G1 X153.151 Y166.433 E1.7959
G1 X152.819 Y166.539 E1.8105
G1 X152.521 Y166.665 E1.8240
G1 X152.232 Y166.823 E1.8379
G1 X151.895 Y167.059 E1.8551
G1 X151.671 Y167.260 E1.8677
G1 X151.672 Y165.601 E1.9372
G1 X151.706 Y165.376 E1.9468
G1 X151.734 Y165.291 E1.9505
G1 X151.782 Y165.192 E1.9551
G1 X151.799 Y165.165 E1.9565
G1 X151.859 Y165.091 E1.9605
G1 X151.912 Y165.041 E1.9635
G1 X151.993 Y164.984 E1.9677
G1 X152.060 Y164.950 E1.9708
G1 X152.104 Y164.932 E1.9728
G1 X152.215 Y164.903 E1.9776
