; G-Code generated by Simplify3D(R) Version 4.1.2
; Jan 4, 2020 at 6:10:20 PM
; Settings Summary
;   processName,Profile
;   applyToModels,3DBenchy
;   profileName,ShadowHawk ProMega Hemera Inland PETG (modified)
;   profileVersion,2018-12-30 22:09:45
;   baseProfile,Default
;   printMaterial,MG PETG
;   printQuality,Medium
;   printExtruders,All Extruders
;   extruderName,Main Extruder
;   extruderToolheadNumber,0
;   extruderDiameter,0.4
;   extruderAutoWidth,0
;   extruderWidth,0.4
;   extrusionMultiplier,1
;   extruderUseRetract,1
;   extruderRetractionDistance,1
;   extruderExtraRestartDistance,0
;   extruderRetractionZLift,0.5
;   extruderRetractionSpeed,600
;   extruderUseCoasting,0
;   extruderCoastingDistance,0.1
;   extruderUseWipe,1
;   extruderWipeDistance,2
;   primaryExtruder,0
;   layerHeight,0.2
;   topSolidLayers,4
;   bottomSolidLayers,4
;   perimeterOutlines,3
;   printPerimetersInsideOut,1
;   startPointOption,3
;   startPointOriginX,5000
;   startPointOriginY,5000
;   sequentialIslands,0
;   spiralVaseMode,0
;   firstLayerHeightPercentage,80
;   firstLayerWidthPercentage,100
;   firstLayerUnderspeed,0.2
;   useRaft,0
;   raftExtruder,0
;   raftTopLayers,3
;   raftBaseLayers,2
;   raftOffset,3
;   raftSeparationDistance,0.14
;   raftTopInfill,100
;   aboveRaftSpeedMultiplier,0.3
;   useSkirt,0
;   skirtExtruder,0
;   skirtLayers,1
;   skirtOutlines,2
;   skirtOffset,4
;   usePrimePillar,0
;   primePillarExtruder,0
;   primePillarWidth,12
;   primePillarLocation,7
;   primePillarSpeedMultiplier,1
;   useOozeShield,0
;   oozeShieldExtruder,999
;   oozeShieldOffset,2
;   oozeShieldOutlines,1
;   oozeShieldSidewallShape,1
;   oozeShieldSidewallAngle,30
;   oozeShieldSpeedMultiplier,1
;   infillExtruder,0
;   internalInfillPattern,Rectilinear
;   externalInfillPattern,Rectilinear
;   infillPercentage,20
;   outlineOverlapPercentage,30
;   infillExtrusionWidthPercentage,100
;   minInfillLength,3
;   infillLayerInterval,1
;   internalInfillAngles,45,-45
;   overlapInternalInfillAngles,0
;   externalInfillAngles,45,-45,0,90
;   generateSupport,0
;   supportExtruder,0
;   supportInfillPercentage,40
;   supportExtraInflation,0
;   supportBaseLayers,1
;   denseSupportExtruder,0
;   denseSupportLayers,4
;   denseSupportInfillPercentage,70
;   supportLayerInterval,1
;   supportHorizontalPartOffset,0.5
;   supportUpperSeparationLayers,1
;   supportLowerSeparationLayers,1
;   supportType,0
;   supportGridSpacing,4
;   maxOverhangAngle,60
;   supportAngles,35
;   temperatureName,Extruder 1,Heated Bed
;   temperatureNumber,0,0
;   temperatureSetpointCount,1,1
;   temperatureSetpointLayers,1,1
;   temperatureSetpointTemperatures,230,70
;   temperatureStabilizeAtStartup,1,1
;   temperatureHeatedBed,0,1
;   fanLayers,1,2
;   fanSpeeds,0,60
;   blipFanToFullPower,0
;   adjustSpeedForCooling,1
;   minSpeedLayerTime,20
;   minCoolingSpeedSlowdown,20
;   increaseFanForCooling,1
;   minFanLayerTime,25
;   maxCoolingFanSpeed,100
;   increaseFanForBridging,1
;   bridgingFanSpeed,100
;   use5D,1
;   relativeEdistances,0
;   allowEaxisZeroing,1
;   independentExtruderAxes,0
;   includeM10123,0
;   stickySupport,1
;   applyToolheadOffsets,0
;   gcodeXoffset,0
;   gcodeYoffset,0
;   gcodeZoffset,0
;   overrideMachineDefinition,1
;   machineTypeOverride,0
;   strokeXoverride,353
;   strokeYoverride,341
;   strokeZoverride,374.4
;   originOffsetXoverride,0
;   originOffsetYoverride,0
;   originOffsetZoverride,0
;   homeXdirOverride,1
;   homeYdirOverride,1
;   homeZdirOverride,1
;   flipXoverride,1
;   flipYoverride,-1
;   flipZoverride,1
;   toolheadOffsets,0,0|0,0|0,0|0,0|0,0|0,0
;   overrideFirmwareConfiguration,1
;   firmwareTypeOverride,RepRap (Marlin/Repetier/Sprinter)
;   GPXconfigOverride,r2
;   baudRateOverride,115200
;   overridePrinterModels,0
;   printerModelsOverride
;   startingGcode,M98 Pprint_startgcode.g
;   layerChangeGcode,,
;   retractionGcode,
;   toolChangeGcode,G91 ; use relative positions,G1 Z0.5 ; move the bed down by 0.5,T[new_tool],G1 Z-0.5 ; move the bed up by 0.5,G90 ; back to absolute positions
;   endingGcode,M98 Pprint_stopgcode.g
;   exportFileFormat,gcode
;   celebration,0
;   celebrationSong,Star Wars
;   postProcessing,
;   defaultSpeed,3600
;   outlineUnderspeed,0.5
;   solidInfillUnderspeed,0.8
;   supportUnderspeed,0.5
;   rapidXYspeed,7200
;   rapidZspeed,450
;   minBridgingArea,50
;   bridgingExtraInflation,0
;   bridgingExtrusionMultiplier,1.2
;   bridgingSpeedMultiplier,0.3
;   useFixedBridgingAngle,0
;   fixedBridgingAngle,135
;   applyBridgingToPerimeters,1
;   filamentDiameters,1.75|1.75|1.75|1.75|1.75|1.75
;   filamentPricesPerKg,19|46|46|46|46|46
;   filamentDensities,1.25|1.25|1.25|1.25|1.25|1.25
;   useMinPrintHeight,0
;   minPrintHeight,21.4
;   useMaxPrintHeight,0
;   maxPrintHeight,10
;   useDiaphragm,0
;   diaphragmLayerInterval,20
;   robustSlicing,1
;   mergeAllIntoSolid,0
;   onlyRetractWhenCrossingOutline,0
;   retractBetweenLayers,1
;   useRetractionMinTravel,1
;   retractionMinTravel,3
;   retractWhileWiping,0
;   onlyWipeOutlines,1
;   avoidCrossingOutline,0
;   maxMovementDetourFactor,400
;   toolChangeRetractionDistance,2
;   toolChangeExtraRestartDistance,0.75
;   toolChangeRetractionSpeed,600
;   externalThinWallType,1
;   internalThinWallType,2
;   thinWallAllowedOverlapPercentage,80
;   singleExtrusionMinLength,0.4
;   singleExtrusionMinPrintingWidthPercentage,20
;   singleExtrusionMaxPrintingWidthPercentage,200
;   singleExtrusionEndpointExtension,0.2
;   horizontalSizeCompensation,0
G90
M82
M106 S0
M140 S70
M190 S70
M104 S230 T0
M109 S230 T0
M98 Pprint_startgcode.g
; process Profile
; layer 1, Z = 0.160
G91 ; use relative positions
G1 Z0.5 ; move the bed down by 0.5
T0
G1 Z-0.5 ; move the bed up by 0.5
G90 ; back to absolute positions
G92 E0.0000
G1 E-1.0000 F600
; feature inner perimeter
; tool H0.160 W0.400
G1 Z0.500 F450
G1 X186.791 Y168.016 F7200
G1 Z0.160 F450
G1 E0.0000 F600
G92 E0.0000
G1 X186.606 Y167.985 E0.0050 F540
G1 X184.220 Y167.988 E0.0685
G1 X183.828 Y168.046 E0.0790
G1 X183.433 Y168.197 E0.0903
G1 X183.266 Y168.332 E0.0960
G1 X183.165 Y168.239 E0.0996
G1 X182.852 Y168.064 E0.1092
G1 X182.423 Y167.969 E0.1209
G1 X182.019 Y168.021 E0.1317
G1 X181.602 Y168.224 E0.1441
G1 X181.236 Y168.603 E0.1581
G1 X181.062 Y168.893 E0.1671
G1 X181.000 Y168.754 E0.1711
G1 X180.814 Y168.502 E0.1795
G1 X180.585 Y168.296 E0.1876
G1 X180.290 Y168.122 E0.1968
G1 X179.845 Y167.994 E0.2091
G1 X179.511 Y167.980 E0.2180
G1 X179.209 Y168.028 E0.2261
G1 X178.910 Y168.141 E0.2346
G1 X178.639 Y168.338 E0.2435
G1 X178.585 Y168.277 E0.2457
G1 X178.190 Y168.055 E0.2578
G1 X177.837 Y167.977 E0.2674
G1 X177.469 Y167.995 E0.2772
G1 X177.054 Y168.148 E0.2890
G1 X176.678 Y168.440 E0.3016
G1 X176.502 Y168.269 E0.3081
G1 X176.145 Y168.068 E0.3190
G1 X175.813 Y167.984 E0.3281
G1 X175.497 Y167.981 E0.3366
G1 X175.187 Y168.043 E0.3450
G1 X174.908 Y168.163 E0.3531
G1 X174.650 Y168.334 E0.3613
G1 X174.408 Y168.591 E0.3707
G1 X174.202 Y169.004 E0.3829
G1 X174.162 Y169.434 E0.3945
G1 X174.206 Y169.751 E0.4030
G1 X174.335 Y170.134 E0.4137
G1 X174.941 Y171.225 E0.4469
G1 X174.957 Y171.249 E0.4477
G1 X174.914 Y171.309 E0.4497
G1 X174.770 Y171.556 E0.4573
G1 X174.620 Y171.383 E0.4634
G1 X174.322 Y171.161 E0.4733
G1 X174.006 Y171.000 E0.4827
G1 X173.641 Y170.893 E0.4928
G1 X173.156 Y170.862 E0.5058
G1 X173.106 Y170.870 E0.5071
G1 X173.121 Y170.480 E0.5175
G1 X173.099 Y169.913 E0.5326
G1 X173.049 Y169.507 E0.5435
G1 X172.900 Y168.880 E0.5606
G1 X172.778 Y168.551 E0.5700
G1 X172.640 Y168.260 E0.5785
G1 X172.480 Y167.985 E0.5870
G1 X172.296 Y167.729 E0.5954
G1 X172.087 Y167.489 E0.6038
G1 X171.809 Y167.237 E0.6138
G1 X171.559 Y167.059 E0.6220
G1 X171.273 Y166.899 E0.6307
G1 X170.748 Y166.709 E0.6456
G1 X170.097 Y166.591 E0.6632
G1 X169.500 Y166.550 E0.6791
G1 X168.074 Y166.536 E0.7170
G1 X167.628 Y166.612 E0.7291
G1 X167.250 Y166.778 E0.7401
G1 X166.963 Y167.000 E0.7497
G1 X166.708 Y167.364 E0.7615
G1 X166.669 Y167.504 E0.7654
G1 X166.452 Y167.218 E0.7750
G1 X166.240 Y167.007 E0.7829
G1 X165.993 Y166.816 E0.7912
G1 X165.622 Y166.615 E0.8025
G1 X165.303 Y166.502 E0.8115
G1 X164.762 Y166.396 E0.8261
G1 X164.206 Y166.368 E0.8410
G1 X163.796 Y166.395 E0.8519
G1 X163.443 Y166.453 E0.8614
G1 X163.056 Y166.564 E0.8721
G1 X162.638 Y166.754 E0.8843
G1 X162.310 Y166.987 E0.8950
G1 X161.942 Y166.695 E0.9075
G1 X161.533 Y166.567 E0.9189
G1 X161.254 Y166.541 E0.9264
G1 X158.013 Y166.556 E1.0126
G1 X157.382 Y166.508 E1.0295
G1 X156.856 Y166.577 E1.0436
G1 X156.372 Y166.873 E1.0587
G1 X156.194 Y167.108 E1.0665
G1 X155.995 Y166.938 E1.0735
G1 X155.727 Y166.765 E1.0820
G1 X155.470 Y166.634 E1.0897
G1 X155.182 Y166.525 E1.0979
G1 X154.872 Y166.444 E1.1064
G1 X154.536 Y166.394 E1.1154
G1 X154.193 Y166.372 E1.1246
G1 X153.755 Y166.384 E1.1362
G1 X153.163 Y166.482 E1.1522
G1 X152.836 Y166.586 E1.1613
G1 X152.543 Y166.710 E1.1698
G1 X152.257 Y166.866 E1.1785
G1 X151.912 Y167.109 E1.1897
G1 X151.640 Y167.356 E1.1995
G1 X151.640 Y165.612 E1.2458
G1 X151.658 Y165.468 E1.2497
G1 X151.713 Y165.279 E1.2550
G1 X151.757 Y165.190 E1.2576
G1 X151.782 Y165.150 E1.2588
G1 X151.843 Y165.076 E1.2614
G1 X151.898 Y165.024 E1.2634
G1 X151.990 Y164.960 E1.2664
G1 X152.049 Y164.929 E1.2682
G1 X152.109 Y164.905 E1.2699
G1 X152.225 Y164.874 E1.2731
G1 X152.377 Y164.856 E1.2772
G1 X175.712 Y163.441 E1.8992
G1 X176.518 Y163.416 E1.9207
G1 X177.041 Y163.424 E1.9346
G1 X177.559 Y163.452 E1.9484
G1 X178.509 Y163.554 E1.9738
G1 X179.364 Y163.704 E1.9969
G1 X180.285 Y163.929 E2.0221
G1 X181.152 Y164.201 E2.0463
G1 X181.922 Y164.498 E2.0683
G1 X182.369 Y164.694 E2.0812
G1 X182.820 Y164.914 E2.0946
G1 X183.534 Y165.303 E2.1162
G1 X184.386 Y165.843 E2.1431
G1 X185.081 Y166.350 E2.1660
G1 X185.493 Y166.684 E2.1801
G1 X185.879 Y167.023 E2.1937
G1 X186.460 Y167.585 E2.2152
G1 X186.818 Y167.965 E2.2291
G1 X186.791 Y168.016 E2.2307
G1 X187.953 Y169.498 F7200
G92 E0.0000
G1 X188.010 Y169.482 E0.0016 F540
G1 X188.286 Y169.902 E0.0150
G1 X188.534 Y170.314 E0.0277
G1 X188.568 Y170.386 E0.0299
G1 X188.582 Y170.430 E0.0311
G1 X188.590 Y170.481 E0.0325
G1 X188.591 Y170.517 E0.0334
G1 X188.586 Y170.548 E0.0342
G1 X188.566 Y170.618 E0.0362
G1 X188.533 Y170.688 E0.0382
G1 X188.381 Y170.944 E0.0462
G1 X187.900 Y171.681 E0.0696
G1 X187.633 Y172.048 E0.0817
G1 X187.338 Y171.824 E0.0915
G1 X186.890 Y171.655 E0.1043
G1 X187.425 Y170.904 E0.1288
G1 X187.708 Y170.471 E0.1426
G1 X187.867 Y170.111 E0.1530
G1 X187.948 Y169.761 E0.1626
G1 X187.953 Y169.498 E0.1696
G92 E0.0000
G1 E-1.0000 F600
G1 Z0.660 F450
G1 X183.791 Y170.877 F7200
G1 Z0.160 F450
G1 E0.0000 F600
G92 E0.0000
G1 X183.243 Y171.632 E0.0248 F540
G1 X183.191 Y171.710 E0.0273
G1 X183.128 Y171.678 E0.0292
G1 X183.221 Y171.417 E0.0366
G1 X183.427 Y170.792 E0.0541
G1 X183.452 Y170.734 E0.0558
G1 X183.610 Y170.832 E0.0607
G1 X183.791 Y170.877 E0.0657
G1 X182.635 Y173.053 F7200
G92 E0.0000
G1 X182.702 Y173.065 E0.0018 F540
G1 X182.701 Y173.206 E0.0056
G1 X182.759 Y173.512 E0.0138
G1 X182.864 Y173.794 E0.0219
G1 X183.058 Y174.105 E0.0316
G1 X183.398 Y174.407 E0.0437
G1 X183.800 Y174.565 E0.0552
G1 X184.123 Y174.605 E0.0639
G1 X184.749 Y174.574 E0.0805
G1 X185.077 Y174.575 E0.0893
G1 X185.096 Y174.629 E0.0908
G1 X184.784 Y174.875 E0.1014
G1 X184.108 Y175.344 E0.1232
G1 X183.410 Y175.768 E0.1450
G1 X182.678 Y176.157 E0.1670
G1 X181.997 Y176.471 E0.1870
G1 X181.145 Y176.802 E0.2113
G1 X180.422 Y177.034 E0.2315
G1 X179.664 Y177.230 E0.2523
G1 X178.922 Y177.381 E0.2725
G1 X178.162 Y177.491 E0.2929
G1 X177.398 Y177.559 E0.3133
G1 X176.645 Y177.584 E0.3334
G1 X175.859 Y177.567 E0.3543
G1 X152.363 Y176.143 E0.9806
G1 X152.242 Y176.128 E0.9839
G1 X152.060 Y176.073 E0.9889
G1 X151.972 Y176.028 E0.9916
G1 X151.901 Y175.977 E0.9939
G1 X151.812 Y175.885 E0.9973
G1 X151.749 Y175.796 E1.0002
G1 X151.714 Y175.722 E1.0024
G1 X151.660 Y175.537 E1.0075
G1 X151.637 Y175.291 E1.0141
G1 X151.638 Y173.580 E1.0596
G1 X151.939 Y173.842 E1.0702
G1 X152.196 Y174.025 E1.0786
G1 X152.472 Y174.185 E1.0871
G1 X152.769 Y174.318 E1.0958
G1 X153.078 Y174.422 E1.1045
G1 X153.439 Y174.504 E1.1143
G1 X153.782 Y174.545 E1.1235
G1 X154.154 Y174.557 E1.1334
G1 X154.755 Y174.507 E1.1494
G1 X155.085 Y174.434 E1.1584
G1 X155.500 Y174.286 E1.1702
G1 X155.875 Y174.078 E1.1816
G1 X156.132 Y173.882 E1.1902
G1 X156.418 Y173.584 E1.2012
G1 X156.595 Y173.331 E1.2094
G1 X156.731 Y173.073 E1.2171
G1 X156.888 Y172.643 E1.2293
G1 X156.825 Y172.094 E1.2440
G1 X156.595 Y171.651 E1.2573
G1 X156.271 Y171.347 E1.2691
G1 X155.964 Y171.173 E1.2785
G1 X155.553 Y171.050 E1.2899
G1 X155.106 Y171.040 E1.3018
G1 X154.686 Y171.153 E1.3134
G1 X154.359 Y171.350 E1.3236
G1 X154.182 Y171.547 E1.3306
G1 X154.166 Y171.552 E1.3311
G1 X154.059 Y171.562 E1.3339
G1 X154.023 Y171.560 E1.3349
G1 X153.923 Y171.539 E1.3376
G1 X153.848 Y171.508 E1.3397
G1 X153.790 Y171.472 E1.3416
G1 X153.762 Y171.445 E1.3426
G1 X153.722 Y171.389 E1.3444
G1 X153.663 Y171.261 E1.3482
G1 X153.633 Y171.159 E1.3510
G1 X153.588 Y170.915 E1.3576
G1 X153.569 Y170.705 E1.3632
G1 X153.567 Y170.292 E1.3742
G1 X153.595 Y169.965 E1.3829
G1 X153.620 Y169.821 E1.3868
G1 X153.653 Y169.701 E1.3901
G1 X153.688 Y169.608 E1.3928
G1 X153.715 Y169.553 E1.3944
G1 X153.770 Y169.474 E1.3970
G1 X153.782 Y169.461 E1.3974
G1 X153.810 Y169.439 E1.3984
G1 X153.848 Y169.416 E1.3996
G1 X153.881 Y169.402 E1.4005
G1 X153.972 Y169.377 E1.4030
G1 X154.030 Y169.372 E1.4046
G1 X154.470 Y169.637 E1.4182
G1 X154.721 Y169.761 E1.4257
G1 X155.098 Y169.881 E1.4362
G1 X155.551 Y169.905 E1.4483
G1 X156.001 Y169.767 E1.4608
G1 X156.299 Y169.565 E1.4704
G1 X156.520 Y169.332 E1.4790
G1 X156.539 Y169.303 E1.4799
G1 X156.859 Y169.484 E1.4896
G1 X157.383 Y169.551 E1.5037
G1 X157.790 Y169.504 E1.5146
G1 X157.782 Y169.623 E1.5178
G1 X157.799 Y172.407 E1.5918
G1 X157.753 Y173.170 E1.6122
G1 X157.913 Y173.725 E1.6275
G1 X158.259 Y174.105 E1.6412
G1 X158.567 Y174.278 E1.6506
G1 X158.880 Y174.380 E1.6594
G1 X159.333 Y174.420 E1.6715
G1 X159.844 Y174.303 E1.6854
G1 X160.168 Y174.103 E1.6956
G1 X160.399 Y173.868 E1.7043
G1 X160.562 Y173.608 E1.7125
G1 X160.672 Y173.325 E1.7206
G1 X160.744 Y172.925 E1.7314
G1 X160.726 Y172.017 E1.7556
G1 X160.726 Y169.506 E1.8224
G1 X160.853 Y169.511 E1.8257
G1 X161.350 Y169.477 E1.8390
G1 X161.732 Y169.389 E1.8494
G1 X162.099 Y169.195 E1.8605
G1 X162.144 Y169.253 E1.8624
G1 X162.393 Y169.478 E1.8713
G1 X162.534 Y169.548 E1.8755
G1 X162.487 Y169.643 E1.8784
G1 X162.388 Y170.038 E1.8892
G1 X162.382 Y170.357 E1.8977
G1 X162.433 Y170.657 E1.9058
G1 X162.563 Y170.967 E1.9147
G1 X162.784 Y171.243 E1.9241
G1 X162.399 Y171.387 E1.9351
G1 X162.116 Y171.610 E1.9447
G1 X161.890 Y171.891 E1.9543
G1 X161.724 Y172.323 E1.9666
G1 X161.697 Y172.790 E1.9790
G1 X161.791 Y173.226 E1.9909
G1 X161.976 Y173.607 E2.0022
G1 X162.270 Y173.947 E2.0141
G1 X162.609 Y174.187 E2.0252
G1 X162.885 Y174.322 E2.0334
G1 X163.262 Y174.447 E2.0439
G1 X163.738 Y174.535 E2.0568
G1 X164.371 Y174.556 E2.0737
G1 X164.713 Y174.531 E2.0828
G1 X165.011 Y174.479 E2.0908
G1 X165.296 Y174.402 E2.0987
G1 X165.594 Y174.285 E2.1072
G1 X165.968 Y174.073 E2.1186
G1 X166.221 Y173.881 E2.1271
G1 X166.444 Y173.666 E2.1353
G1 X166.640 Y173.428 E2.1435
G1 X166.691 Y173.350 E2.1460
G1 X166.719 Y173.454 E2.1489
G1 X166.839 Y173.731 E2.1569
G1 X167.101 Y174.080 E2.1685
G1 X167.524 Y174.342 E2.1818
G1 X167.975 Y174.425 E2.1940
G1 X168.560 Y174.376 E2.2096
G1 X169.366 Y174.384 E2.2310
G1 X169.947 Y174.354 E2.2465
G1 X170.444 Y174.283 E2.2599
G1 X170.876 Y174.170 E2.2717
G1 X171.181 Y174.048 E2.2805
G1 X171.532 Y173.851 E2.2912
G1 X171.639 Y174.034 E2.2969
G1 X171.905 Y174.335 E2.3076
G1 X172.275 Y174.608 E2.3198
G1 X172.618 Y174.760 E2.3297
G1 X172.959 Y174.844 E2.3391
G1 X173.311 Y174.868 E2.3485
G1 X173.662 Y174.830 E2.3579
G1 X174.025 Y174.723 E2.3680
G1 X174.451 Y174.485 E2.3809
G1 X174.672 Y174.287 E2.3888
G1 X174.846 Y174.406 E2.3944
G1 X175.170 Y174.543 E2.4038
G1 X175.702 Y174.595 E2.4180
G1 X176.098 Y174.468 E2.4291
G1 X176.374 Y174.299 E2.4377
