; G-Code generated by Simplify3D(R) Version 4.1.2
; Jan 2, 2020 at 3:52:54 PM
; Settings Summary
;   processName,Left Base
;   applyToModels,ShadowMega SmartTemperatureTower_PETG_220-260
;   profileName,ShadowHawk ProMega Hemera Inland PETG (modified)
;   profileVersion,2019-12-30 11:54:49
;   baseProfile,Default
;   printMaterial,MG PETG
;   printQuality,Medium
;   printExtruders,All Extruders
;   extruderName,Main Extruder
;   extruderToolheadNumber,0
;   extruderDiameter,0.4
;   extruderAutoWidth,0
;   extruderWidth,0.4
;   extrusionMultiplier,1
;   extruderUseRetract,1
;   extruderRetractionDistance,1
;   extruderExtraRestartDistance,0
;   extruderRetractionZLift,0.5
;   extruderRetractionSpeed,600
;   extruderUseCoasting,0
;   extruderCoastingDistance,0.1
;   extruderUseWipe,1
;   extruderWipeDistance,2
;   primaryExtruder,0
;   layerHeight,0.3
;   topSolidLayers,4
;   bottomSolidLayers,4
;   perimeterOutlines,3
;   printPerimetersInsideOut,1
;   startPointOption,3
;   startPointOriginX,5000
;   startPointOriginY,5000
;   sequentialIslands,0
;   spiralVaseMode,0
;   firstLayerHeightPercentage,80
;   firstLayerWidthPercentage,105
;   firstLayerUnderspeed,0.2
;   useRaft,0
;   raftExtruder,0
;   raftTopLayers,3
;   raftBaseLayers,2
;   raftOffset,3
;   raftSeparationDistance,0.14
;   raftTopInfill,100
;   aboveRaftSpeedMultiplier,0.3
;   useSkirt,1
;   skirtExtruder,0
;   skirtLayers,1
;   skirtOutlines,2
;   skirtOffset,4
;   usePrimePillar,0
;   primePillarExtruder,0
;   primePillarWidth,12
;   primePillarLocation,7
;   primePillarSpeedMultiplier,1
;   useOozeShield,0
;   oozeShieldExtruder,999
;   oozeShieldOffset,2
;   oozeShieldOutlines,1
;   oozeShieldSidewallShape,1
;   oozeShieldSidewallAngle,30
;   oozeShieldSpeedMultiplier,1
;   infillExtruder,0
;   internalInfillPattern,Rectilinear
;   externalInfillPattern,Rectilinear
;   infillPercentage,10
;   outlineOverlapPercentage,30
;   infillExtrusionWidthPercentage,100
;   minInfillLength,3
;   infillLayerInterval,1
;   internalInfillAngles,45,-45
;   overlapInternalInfillAngles,0
;   externalInfillAngles,45,-45,0,90
;   generateSupport,0
;   supportExtruder,0
;   supportInfillPercentage,40
;   supportExtraInflation,0
;   supportBaseLayers,1
;   denseSupportExtruder,0
;   denseSupportLayers,4
;   denseSupportInfillPercentage,70
;   supportLayerInterval,1
;   supportHorizontalPartOffset,0.5
;   supportUpperSeparationLayers,1
;   supportLowerSeparationLayers,1
;   supportType,0
;   supportGridSpacing,4
;   maxOverhangAngle,60
;   supportAngles,35
;   temperatureName,Extruder 1,Heated Bed
;   temperatureNumber,0,0
;   temperatureSetpointCount,1,1
;   temperatureSetpointLayers,1,1
;   temperatureSetpointTemperatures,250,70
;   temperatureStabilizeAtStartup,1,1
;   temperatureHeatedBed,0,1
;   fanLayers,1,3
;   fanSpeeds,0,60
;   blipFanToFullPower,0
;   adjustSpeedForCooling,1
;   minSpeedLayerTime,20
;   minCoolingSpeedSlowdown,20
;   increaseFanForCooling,0
;   minFanLayerTime,45
;   maxCoolingFanSpeed,100
;   increaseFanForBridging,1
;   bridgingFanSpeed,100
;   use5D,1
;   relativeEdistances,0
;   allowEaxisZeroing,1
;   independentExtruderAxes,0
;   includeM10123,0
;   stickySupport,1
;   applyToolheadOffsets,0
;   gcodeXoffset,0
;   gcodeYoffset,0
;   gcodeZoffset,0
;   overrideMachineDefinition,1
;   machineTypeOverride,0
;   strokeXoverride,353
;   strokeYoverride,341
;   strokeZoverride,374.4
;   originOffsetXoverride,0
;   originOffsetYoverride,0
;   originOffsetZoverride,0
;   homeXdirOverride,1
;   homeYdirOverride,1
;   homeZdirOverride,1
;   flipXoverride,1
;   flipYoverride,-1
;   flipZoverride,1
;   toolheadOffsets,0,0|0,0|0,0|0,0|0,0|0,0
;   overrideFirmwareConfiguration,1
;   firmwareTypeOverride,RepRap (Marlin/Repetier/Sprinter)
;   GPXconfigOverride,r2
;   baudRateOverride,115200
;   overridePrinterModels,0
;   printerModelsOverride
;   startingGcode,M98 Pprint_startgcode.g
;   layerChangeGcode,,
;   retractionGcode,
;   toolChangeGcode,G91 ; use relative positions,G1 Z0.5 ; move the bed down by 0.5,T[new_tool],G1 Z-0.5 ; move the bed up by 0.5,G90 ; back to absolute positions
;   endingGcode,M98 Pprint_stopgcode.g
;   exportFileFormat,gcode
;   celebration,0
;   celebrationSong,Star Wars
;   postProcessing,
;   defaultSpeed,3600
;   outlineUnderspeed,0.5
;   solidInfillUnderspeed,0.8
;   supportUnderspeed,0.5
;   rapidXYspeed,7200
;   rapidZspeed,450
;   minBridgingArea,50
;   bridgingExtraInflation,0
;   bridgingExtrusionMultiplier,1.2
;   bridgingSpeedMultiplier,0.3
;   useFixedBridgingAngle,0
;   fixedBridgingAngle,135
;   applyBridgingToPerimeters,1
;   filamentDiameters,1.75|1.75|1.75|1.75|1.75|1.75
;   filamentPricesPerKg,19|46|46|46|46|46
;   filamentDensities,1.25|1.25|1.25|1.25|1.25|1.25
;   useMinPrintHeight,0
;   minPrintHeight,21.4
;   useMaxPrintHeight,1
;   maxPrintHeight,1.4
;   useDiaphragm,0
;   diaphragmLayerInterval,20
;   robustSlicing,1
;   mergeAllIntoSolid,0
;   onlyRetractWhenCrossingOutline,0
;   retractBetweenLayers,1
;   useRetractionMinTravel,1
;   retractionMinTravel,3
;   retractWhileWiping,0
;   onlyWipeOutlines,1
;   avoidCrossingOutline,0
;   maxMovementDetourFactor,400
;   toolChangeRetractionDistance,2
;   toolChangeExtraRestartDistance,0.75
;   toolChangeRetractionSpeed,600
;   externalThinWallType,1
;   internalThinWallType,2
;   thinWallAllowedOverlapPercentage,80
;   singleExtrusionMinLength,0.4
;   singleExtrusionMinPrintingWidthPercentage,20
;   singleExtrusionMaxPrintingWidthPercentage,200
;   singleExtrusionEndpointExtension,0.2
;   horizontalSizeCompensation,0
G90
M82
M106 S0
M140 S70
M190 S70
M104 S250 T0
M109 S250 T0
M98 Pprint_startgcode.g
; process Left Base
; layer 1, Z = 0.240
G91 ; use relative positions
G1 Z0.5 ; move the bed down by 0.5
T0
G1 Z-0.5 ; move the bed up by 0.5
G90 ; back to absolute positions
G92 E0.0000
G1 E-1.0000 F600
; feature skirt
; tool H0.240 W0.420
G1 Z0.500 F450
G1 X205.204 Y190.582 F7200
G1 Z0.240 F450
G1 E0.0000 F600
G92 E0.0000
G1 X204.598 Y191.060 E0.0324 F720
G1 X203.846 Y191.472 E0.0683
G1 X203.343 Y191.675 E0.0910
G1 X202.609 Y191.876 E0.1229
G1 X202.108 Y191.956 E0.1442
G1 X201.048 Y192.007 E0.1887
G1 X200.630 Y191.989 E0.2062
G1 X199.552 Y191.845 E0.2518
G1 X199.289 Y191.795 E0.2630
G1 X198.258 Y191.534 E0.3075
G1 X198.090 Y191.485 E0.3149
G1 X197.512 Y191.291 E0.3404
G1 X197.354 Y191.232 E0.3475
G1 X196.356 Y190.814 E0.3928
G1 X196.139 Y190.710 E0.4029
G1 X195.177 Y190.184 E0.4489
G1 X194.955 Y190.046 E0.4598
G1 X194.096 Y189.441 E0.5039
G1 X193.894 Y189.281 E0.5147
G1 X193.305 Y188.760 E0.5476
G1 X193.154 Y188.614 E0.5564
G1 X192.633 Y188.062 E0.5882
G1 X192.468 Y187.867 E0.5989
G1 X191.928 Y187.150 E0.6366
G1 X191.804 Y186.970 E0.6457
G1 X191.537 Y186.537 E0.6670
G1 X191.455 Y186.391 E0.6741
G1 X191.092 Y185.693 E0.7070
G1 X191.013 Y185.524 E0.7148
G1 X190.722 Y184.834 E0.7462
G1 X190.668 Y184.694 E0.7525
G1 X190.236 Y183.451 E0.8077
G1 X190.073 Y183.049 E0.8258
G1 X189.942 Y182.796 E0.8378
G1 X189.820 Y182.610 E0.8471
G1 X189.679 Y182.439 E0.8564
G1 X189.645 Y182.407 E0.8584
G1 X189.619 Y182.385 E0.8598
G1 X189.438 Y182.266 E0.8688
G1 X189.167 Y182.136 E0.8815
G1 X188.666 Y181.963 E0.9037
G1 X187.873 Y181.771 E0.9379
G1 X186.745 Y181.581 E0.9858
G1 X185.256 Y181.413 E1.0486
G1 X183.749 Y181.302 E1.1119
G1 X181.554 Y181.202 E1.2040
G1 X178.969 Y181.144 E1.3124
G1 X175.992 Y181.130 E1.4371
G1 X173.134 Y181.160 E1.5569
G1 X171.065 Y181.220 E1.6436
G1 X169.278 Y181.306 E1.7186
G1 X167.479 Y181.447 E1.7942
G1 X166.044 Y181.620 E1.8548
G1 X165.155 Y181.774 E1.8926
G1 X164.349 Y181.971 E1.9274
G1 X163.852 Y182.143 E1.9494
G1 X163.579 Y182.275 E1.9622
G1 X163.429 Y182.373 E1.9696
G1 X163.370 Y182.424 E1.9729
G1 X163.168 Y182.660 E1.9859
G1 X163.068 Y182.811 E1.9935
G1 X162.925 Y183.089 E2.0066
G1 X162.854 Y183.257 E2.0143
G1 X162.337 Y184.730 E2.0797
G1 X162.272 Y184.895 E2.0871
G1 X161.828 Y185.905 E2.1334
G1 X161.709 Y186.139 E2.1444
G1 X161.273 Y186.888 E2.1807
G1 X161.153 Y187.074 E2.1900
G1 X160.844 Y187.504 E2.2121
G1 X160.730 Y187.650 E2.2199
G1 X160.141 Y188.345 E2.2581
G1 X159.955 Y188.540 E2.2694
G1 X159.370 Y189.086 E2.3029
G1 X159.186 Y189.241 E2.3130
G1 X158.346 Y189.876 E2.3571
G1 X158.086 Y190.046 E2.3702
G1 X156.924 Y190.701 E2.4261
G1 X156.686 Y190.817 E2.4371
G1 X155.650 Y191.254 E2.4843
G1 X155.435 Y191.332 E2.4938
G1 X154.381 Y191.658 E2.5401
G1 X154.148 Y191.717 E2.5502
G1 X153.083 Y191.929 E2.5957
G1 X152.754 Y191.970 E2.6096
G1 X151.731 Y192.024 E2.6525
G1 X151.370 Y192.015 E2.6676
G1 X150.722 Y191.948 E2.6949
G1 X150.349 Y191.878 E2.7109
G1 X149.676 Y191.694 E2.7401
G1 X149.173 Y191.491 E2.7628
G1 X148.484 Y191.113 E2.7958
G1 X147.978 Y190.739 E2.8221
G1 X147.328 Y190.106 E2.8601
G1 X146.810 Y189.350 E2.8986
G1 X146.333 Y188.233 E2.9495
G1 X146.149 Y187.164 E2.9949
G1 X146.228 Y185.922 E3.0471
G1 X146.412 Y185.150 E3.0803
G1 X146.867 Y184.087 E3.1288
G1 X147.068 Y183.715 E3.1465
G1 X147.746 Y182.697 E3.1978
G1 X147.851 Y182.551 E3.2053
G1 X149.270 Y180.741 E3.3017
G1 X149.691 Y180.160 E3.3317
G1 X149.884 Y179.856 E3.3468
G1 X149.956 Y179.723 E3.3531
G1 X150.006 Y179.591 E3.3591
G1 X149.746 Y177.808 E3.4346
G1 X149.730 Y177.671 E3.4404
G1 X149.665 Y176.913 E3.4722
G1 X149.657 Y176.716 E3.4805
G1 X149.657 Y175.869 E3.5160
G1 X149.677 Y175.564 E3.5288
G1 X149.844 Y174.308 E3.5819
G1 X149.933 Y173.911 E3.5990
G1 X150.348 Y172.604 E3.6565
G1 X150.497 Y172.244 E3.6728
G1 X151.157 Y170.962 E3.7332
G1 X151.331 Y170.676 E3.7472
G1 X151.446 Y170.516 E3.7555
G1 X151.331 Y170.355 E3.7638
G1 X151.160 Y170.075 E3.7775
G1 X150.497 Y168.799 E3.8378
G1 X150.347 Y168.438 E3.8541
G1 X149.927 Y167.127 E3.9118
G1 X149.837 Y166.725 E3.9291
G1 X149.666 Y165.439 E3.9835
G1 X149.647 Y165.084 E3.9984
G1 X149.673 Y163.876 E4.0490
G1 X149.697 Y163.593 E4.0609
G1 X149.996 Y161.536 E4.1480
G1 X150.004 Y161.426 E4.1527
G1 X149.999 Y161.413 E4.1533
G1 X149.642 Y160.821 E4.1822
G1 X149.259 Y160.291 E4.2096
G1 X147.851 Y158.501 E4.3051
G1 X147.764 Y158.383 E4.3112
G1 X147.234 Y157.613 E4.3504
G1 X147.125 Y157.437 E4.3590
G1 X146.854 Y156.957 E4.3821
G1 X146.742 Y156.732 E4.3927
G1 X146.483 Y156.126 E4.4203
G1 X146.333 Y155.631 E4.4420
G1 X146.134 Y154.548 E4.4881
G1 X146.173 Y153.525 E4.5310
G1 X146.541 Y152.133 E4.5914
G1 X147.230 Y150.994 E4.6471
G1 X148.279 Y150.033 E4.7068
G1 X149.120 Y149.539 E4.7476
G1 X150.181 Y149.185 E4.7945
G1 X150.749 Y149.072 E4.8188
G1 X151.643 Y149.007 E4.8563
G1 X151.991 Y149.008 E4.8709
G1 X152.797 Y149.071 E4.9048
G1 X153.020 Y149.100 E4.9142
G1 X153.813 Y149.240 E4.9480
G1 X154.010 Y149.284 E4.9564
G1 X154.818 Y149.501 E4.9915
G1 X155.004 Y149.559 E4.9997
G1 X155.969 Y149.908 E5.0427
G1 X156.127 Y149.971 E5.0498
G1 X156.723 Y150.238 E5.0772
G1 X156.890 Y150.320 E5.0850
G1 X157.827 Y150.833 E5.1297
G1 X158.047 Y150.970 E5.1406
G1 X158.919 Y151.582 E5.1852
G1 X159.148 Y151.766 E5.1975
G1 X159.880 Y152.433 E5.2391
G1 X160.036 Y152.590 E5.2483
G1 X160.413 Y153.005 E5.2718
G1 X160.546 Y153.166 E5.2805
G1 X161.086 Y153.882 E5.3182
G1 X161.233 Y154.101 E5.3292
G1 X161.684 Y154.867 E5.3665
G1 X161.806 Y155.104 E5.3776
G1 X162.252 Y156.110 E5.4238
G1 X162.315 Y156.268 E5.4309
G1 X162.896 Y157.889 E5.5031
G1 X163.016 Y158.140 E5.5147
G1 X163.140 Y158.345 E5.5247
G1 X163.226 Y158.456 E5.5306
G1 X163.462 Y158.688 E5.5445
G1 X163.559 Y158.749 E5.5493
G1 X163.714 Y158.827 E5.5566
G1 X163.931 Y158.916 E5.5664
G1 X164.566 Y159.111 E5.5942
G1 X165.508 Y159.314 E5.6346
G1 X166.003 Y159.395 E5.6556
G1 X167.754 Y159.597 E5.7295
G1 X169.249 Y159.707 E5.7923
G1 X171.852 Y159.819 E5.9015
G1 X174.989 Y159.872 E6.0330
G1 X178.010 Y159.870 E6.1596
G1 X180.297 Y159.835 E6.2555
G1 X182.692 Y159.752 E6.3559
G1 X184.356 Y159.655 E6.4257
G1 X186.299 Y159.471 E6.5075
G1 X187.342 Y159.322 E6.5517
G1 X188.148 Y159.163 E6.5861
G1 X188.847 Y158.971 E6.6165
G1 X189.263 Y158.808 E6.6352
G1 X189.485 Y158.690 E6.6458
G1 X189.601 Y158.606 E6.6517
G1 X189.697 Y158.515 E6.6573
G1 X189.804 Y158.386 E6.6643
G1 X189.929 Y158.194 E6.6739
G1 X190.063 Y157.936 E6.6861
G1 X190.221 Y157.544 E6.7038
G1 X190.651 Y156.301 E6.7589
G1 X190.703 Y156.166 E6.7650
G1 X190.992 Y155.473 E6.7965
G1 X191.071 Y155.304 E6.8043
G1 X191.467 Y154.535 E6.8405
G1 X191.638 Y154.255 E6.8543
G1 X192.392 Y153.193 E6.9089
G1 X192.595 Y152.946 E6.9223
G1 X193.150 Y152.358 E6.9561
G1 X193.328 Y152.188 E6.9665
G1 X194.071 Y151.552 E7.0074
G1 X194.238 Y151.422 E7.0163
G1 X194.718 Y151.081 E7.0410
G1 X194.868 Y150.984 E7.0485
G1 X195.569 Y150.564 E7.0827
G1 X195.757 Y150.463 E7.0917
G1 X196.734 Y149.994 E7.1371
G1 X196.939 Y149.907 E7.1464
G1 X197.979 Y149.526 E7.1928
G1 X198.201 Y149.457 E7.2026
G1 X199.266 Y149.184 E7.2487
G1 X199.542 Y149.131 E7.2604
G1 X200.620 Y148.992 E7.3060
G1 X201.021 Y148.974 E7.3228
G1 X202.077 Y149.021 E7.3671
G1 X202.588 Y149.101 E7.3888
G1 X203.327 Y149.304 E7.4209
G1 X203.830 Y149.507 E7.4436
G1 X204.636 Y149.949 E7.4821
G1 X205.325 Y150.522 E7.5197
G1 X206.014 Y151.369 E7.5655
G1 X206.423 Y152.118 E7.6012
G1 X206.710 Y152.996 E7.6400
G1 X206.826 Y153.720 E7.6707
G1 X206.826 Y154.559 E7.7058
G1 X206.759 Y155.111 E7.7291
G1 X206.584 Y155.828 E7.7601
G1 X206.433 Y156.257 E7.7791
G1 X206.079 Y157.015 E7.8142
G1 X205.905 Y157.324 E7.8290
G1 X205.245 Y158.311 E7.8788
G1 X205.144 Y158.451 E7.8860
G1 X203.729 Y160.259 E7.9823
G1 X203.309 Y160.839 E8.0123
G1 X203.120 Y161.138 E8.0271
G1 X202.988 Y161.386 E8.0388
G1 X202.996 Y161.489 E8.0432
G1 X203.256 Y163.171 E8.1145
G1 X203.275 Y163.337 E8.1215
G1 X203.338 Y164.102 E8.1537
G1 X203.346 Y164.291 E8.1616
G1 X203.346 Y165.130 E8.1968
G1 X203.326 Y165.428 E8.2093
G1 X203.167 Y166.655 E8.2611
G1 X203.096 Y166.998 E8.2758
G1 X202.833 Y167.909 E8.3156
G1 X202.746 Y168.158 E8.3266
G1 X202.385 Y169.027 E8.3660
G1 X202.274 Y169.257 E8.3767
G1 X201.792 Y170.129 E8.4185
G1 X201.649 Y170.356 E8.4297
G1 X201.553 Y170.490 E8.4366
G1 X201.670 Y170.653 E8.4450
G1 X201.842 Y170.935 E8.4589
G1 X202.470 Y172.148 E8.5162
G1 X202.569 Y172.367 E8.5262
G1 X202.777 Y172.896 E8.5500
G1 X202.848 Y173.108 E8.5594
G1 X203.099 Y173.992 E8.5979
G1 X203.167 Y174.314 E8.6117
G1 X203.332 Y175.537 E8.6634
G1 X203.353 Y175.847 E8.6765
G1 X203.353 Y176.690 E8.7118
G1 X203.345 Y176.878 E8.7196
G1 X203.283 Y177.642 E8.7518
G1 X203.264 Y177.803 E8.7586
G1 X203.008 Y179.488 E8.8300
G1 X203.000 Y179.591 E8.8343
G1 X203.017 Y179.626 E8.8359
G1 X203.354 Y180.184 E8.8633
G1 X203.740 Y180.718 E8.8909
G1 X205.147 Y182.512 E8.9864
G1 X205.229 Y182.623 E8.9922
G1 X205.778 Y183.417 E9.0327
G1 X205.921 Y183.651 E9.0442
G1 X206.305 Y184.378 E9.0786
G1 X206.475 Y184.789 E9.0973
G1 X206.749 Y185.691 E9.1368
G1 X206.849 Y186.396 E9.1666
G1 X206.837 Y187.344 E9.2063
G1 X206.694 Y188.119 E9.2393
G1 X206.344 Y189.071 E9.2819
G1 X205.882 Y189.835 E9.3193
G1 X205.204 Y190.582 E9.3615
G1 X204.366 Y190.708 F7200
G92 E0.0000
G1 X203.666 Y191.091 E0.0334 F720
G1 X203.209 Y191.276 E0.0541
G1 X202.520 Y191.465 E0.0840
G1 X202.065 Y191.537 E0.1034
G1 X201.047 Y191.586 E0.1461
G1 X200.667 Y191.570 E0.1620
G1 X199.619 Y191.431 E0.2063
G1 X199.380 Y191.385 E0.2165
G1 X198.369 Y191.129 E0.2602
G1 X198.216 Y191.084 E0.2669
G1 X197.653 Y190.895 E0.2918
G1 X197.509 Y190.841 E0.2982
G1 X196.529 Y190.431 E0.3427
G1 X196.331 Y190.336 E0.3519
G1 X195.389 Y189.821 E0.3969
G1 X195.187 Y189.695 E0.4069
G1 X194.347 Y189.104 E0.4500
G1 X194.164 Y188.959 E0.4597
G1 X193.590 Y188.452 E0.4918
G1 X193.453 Y188.319 E0.4998
G1 X192.946 Y187.782 E0.5308
G1 X192.797 Y187.605 E0.5405
G1 X192.269 Y186.905 E0.5772
G1 X192.157 Y186.741 E0.5855
G1 X191.899 Y186.323 E0.6061
G1 X191.824 Y186.190 E0.6125
G1 X191.468 Y185.507 E0.6448
G1 X191.396 Y185.354 E0.6519
G1 X191.111 Y184.677 E0.6827
G1 X191.062 Y184.550 E0.6884
G1 X190.630 Y183.303 E0.7437
G1 X190.455 Y182.873 E0.7631
G1 X190.305 Y182.583 E0.7768
G1 X190.159 Y182.360 E0.7880
G1 X189.988 Y182.155 E0.7992
G1 X189.927 Y182.095 E0.8028
G1 X189.869 Y182.047 E0.8059
G1 X189.645 Y181.900 E0.8172
G1 X189.327 Y181.747 E0.8319
G1 X188.784 Y181.560 E0.8560
