; G-Code generated by Simplify3D(R) Version 4.1.2
; May 17, 2020 at 11:57:25 AM
; Settings Summary
;   processName,Process 0.3mm(1)
;   applyToModels,X Gantry Alignment
;   profileName,ShadowMega Hemera Inland PETG (modified)
;   profileVersion,2020-04-29 12:24:52
;   baseProfile,Default
;   printMaterial,MG PETG
;   printQuality,Medium
;   printExtruders,All Extruders
;   extruderName,Main Extruder
;   extruderToolheadNumber,0
;   extruderDiameter,0.4
;   extruderAutoWidth,0
;   extruderWidth,0.4
;   extrusionMultiplier,0.95
;   extruderUseRetract,1
;   extruderRetractionDistance,1
;   extruderExtraRestartDistance,0
;   extruderRetractionZLift,0.5
;   extruderRetractionSpeed,600
;   extruderUseCoasting,0
;   extruderCoastingDistance,0.1
;   extruderUseWipe,1
;   extruderWipeDistance,2
;   primaryExtruder,0
;   layerHeight,0.3
;   topSolidLayers,4
;   bottomSolidLayers,4
;   perimeterOutlines,3
;   printPerimetersInsideOut,1
;   startPointOption,3
;   startPointOriginX,5000
;   startPointOriginY,5000
;   sequentialIslands,0
;   spiralVaseMode,0
;   firstLayerHeightPercentage,80
;   firstLayerWidthPercentage,107
;   firstLayerUnderspeed,0.2
;   useRaft,0
;   raftExtruder,0
;   raftTopLayers,3
;   raftBaseLayers,2
;   raftOffset,3
;   raftSeparationDistance,0.14
;   raftTopInfill,100
;   aboveRaftSpeedMultiplier,0.3
;   useSkirt,1
;   skirtExtruder,0
;   skirtLayers,1
;   skirtOutlines,1
;   skirtOffset,4
;   usePrimePillar,0
;   primePillarExtruder,0
;   primePillarWidth,12
;   primePillarLocation,7
;   primePillarSpeedMultiplier,1
;   useOozeShield,0
;   oozeShieldExtruder,999
;   oozeShieldOffset,2
;   oozeShieldOutlines,1
;   oozeShieldSidewallShape,1
;   oozeShieldSidewallAngle,30
;   oozeShieldSpeedMultiplier,1
;   infillExtruder,0
;   internalInfillPattern,Rectilinear
;   externalInfillPattern,Rectilinear
;   infillPercentage,15
;   outlineOverlapPercentage,30
;   infillExtrusionWidthPercentage,100
;   minInfillLength,3
;   infillLayerInterval,1
;   internalInfillAngles,45,-45
;   overlapInternalInfillAngles,0
;   externalInfillAngles,45,-45,0,90
;   generateSupport,0
;   supportExtruder,0
;   supportInfillPercentage,20
;   supportExtraInflation,0.6
;   supportBaseLayers,1
;   denseSupportExtruder,0
;   denseSupportLayers,4
;   denseSupportInfillPercentage,70
;   supportLayerInterval,1
;   supportHorizontalPartOffset,0.5
;   supportUpperSeparationLayers,1
;   supportLowerSeparationLayers,1
;   supportType,0
;   supportGridSpacing,4
;   maxOverhangAngle,60
;   supportAngles,35
;   temperatureName,Extruder 1,Heated Bed
;   temperatureNumber,0,0
;   temperatureSetpointCount,1,1
;   temperatureSetpointLayers,1,1
;   temperatureSetpointTemperatures,240,70
;   temperatureStabilizeAtStartup,1,1
;   temperatureHeatedBed,0,1
;   fanLayers,1,3
;   fanSpeeds,0,40
;   blipFanToFullPower,1
;   adjustSpeedForCooling,1
;   minSpeedLayerTime,20
;   minCoolingSpeedSlowdown,20
;   increaseFanForCooling,1
;   minFanLayerTime,45
;   maxCoolingFanSpeed,100
;   increaseFanForBridging,1
;   bridgingFanSpeed,100
;   use5D,1
;   relativeEdistances,0
;   allowEaxisZeroing,1
;   independentExtruderAxes,0
;   includeM10123,0
;   stickySupport,1
;   applyToolheadOffsets,0
;   gcodeXoffset,0
;   gcodeYoffset,0
;   gcodeZoffset,0
;   overrideMachineDefinition,1
;   machineTypeOverride,0
;   strokeXoverride,353
;   strokeYoverride,341
;   strokeZoverride,374.4
;   originOffsetXoverride,0
;   originOffsetYoverride,0
;   originOffsetZoverride,0
;   homeXdirOverride,1
;   homeYdirOverride,1
;   homeZdirOverride,1
;   flipXoverride,1
;   flipYoverride,-1
;   flipZoverride,1
;   toolheadOffsets,0,0|0,0|0,0|0,0|0,0|0,0
;   overrideFirmwareConfiguration,1
;   firmwareTypeOverride,RepRap (Marlin/Repetier/Sprinter)
;   GPXconfigOverride,r2
;   baudRateOverride,115200
;   overridePrinterModels,0
;   printerModelsOverride
;   startingGcode,M98 Pprint_startgcode.g
;   layerChangeGcode,,
;   retractionGcode,
;   toolChangeGcode,G91 ; use relative positions,G1 Z0.5 ; move the bed down by 0.5,T[new_tool],G1 Z-0.5 ; move the bed up by 0.5,G90 ; back to absolute positions
;   endingGcode,M98 Pprint_stopgcode.g
;   exportFileFormat,gcode
;   celebration,0
;   celebrationSong,Star Wars
;   postProcessing,
;   defaultSpeed,3600
;   outlineUnderspeed,0.5
;   solidInfillUnderspeed,0.8
;   supportUnderspeed,0.5
;   rapidXYspeed,7200
;   rapidZspeed,450
;   minBridgingArea,20
;   bridgingExtraInflation,0
;   bridgingExtrusionMultiplier,1.2
;   bridgingSpeedMultiplier,0.8
;   useFixedBridgingAngle,0
;   fixedBridgingAngle,135
;   applyBridgingToPerimeters,1
;   filamentDiameters,1.75|1.75|1.75|1.75|1.75|1.75
;   filamentPricesPerKg,19|46|46|46|46|46
;   filamentDensities,1.25|1.25|1.25|1.25|1.25|1.25
;   useMinPrintHeight,0
;   minPrintHeight,21.4
;   useMaxPrintHeight,0
;   maxPrintHeight,10
;   useDiaphragm,0
;   diaphragmLayerInterval,20
;   robustSlicing,1
;   mergeAllIntoSolid,0
;   onlyRetractWhenCrossingOutline,0
;   retractBetweenLayers,1
;   useRetractionMinTravel,1
;   retractionMinTravel,3
;   retractWhileWiping,0
;   onlyWipeOutlines,1
;   avoidCrossingOutline,0
;   maxMovementDetourFactor,400
;   toolChangeRetractionDistance,2
;   toolChangeExtraRestartDistance,0.75
;   toolChangeRetractionSpeed,600
;   externalThinWallType,1
;   internalThinWallType,2
;   thinWallAllowedOverlapPercentage,80
;   singleExtrusionMinLength,0.4
;   singleExtrusionMinPrintingWidthPercentage,20
;   singleExtrusionMaxPrintingWidthPercentage,200
;   singleExtrusionEndpointExtension,0.2
;   horizontalSizeCompensation,0
G90
M82
M106 S0
M140 S70
M190 S70
M104 S240 T0
M109 S240 T0
M98 Pprint_startgcode.g
; process Process 0.3mm(1)
; layer 1, Z = 0.240
G91 ; use relative positions
G1 Z0.5 ; move the bed down by 0.5
T0
G1 Z-0.5 ; move the bed up by 0.5
G90 ; back to absolute positions
G92 E0.0000
G1 E-1.0000 F600
; feature skirt
; tool H0.240 W0.428
G1 Z0.500 F450
G1 X303.305 Y198.774 F7200
G1 Z0.240 F450
G1 E0.0000 F600
G92 E0.0000
G1 X150.695 Y198.774 E6.1915 F720
G1 X148.226 Y196.305 E6.3332
G1 X148.226 Y43.694 E12.5247
G1 X150.695 Y41.226 E12.6663
G1 X303.305 Y41.226 E18.8579
G1 X305.774 Y43.694 E18.9995
G1 X305.774 Y196.305 E25.1910
G1 X303.305 Y198.774 E25.3327
G92 E0.0000
G1 E-1.0000 F600
; feature inner perimeter
G1 Z0.740 F450
G1 X300.490 Y193.490 F7200
G1 Z0.240 F450
G1 E0.0000 F600
G92 E0.0000
G1 X153.510 Y193.490 E5.9631 F540
G1 X153.510 Y46.510 E11.9262
G1 X300.490 Y46.510 E17.8892
G1 X300.490 Y193.490 E23.8523
G1 X300.918 Y193.918 F7200
G92 E0.0000
G1 X153.082 Y193.918 E5.9978 F540
G1 X153.082 Y46.082 E11.9956
G1 X300.918 Y46.082 E17.9934
G1 X300.918 Y193.918 E23.9912
; feature outer perimeter
G1 X301.346 Y194.346 F7200
G92 E0.0000
G1 X152.654 Y194.346 E6.0325 F360
G1 X152.654 Y45.654 E12.0651
G1 X301.346 Y45.654 E18.0976
G1 X301.346 Y194.346 E24.1302
G92 E0.0000
G1 E-1.0000 F600
G1 X299.346 Y194.346 F360
; feature inner perimeter
G1 Z0.740 F450
G1 X288.830 Y181.830 F7200
G1 Z0.240 F450
G1 E0.0000 F600
G92 E0.0000
G1 X288.830 Y58.170 E5.0170 F540
G1 X165.170 Y58.170 E10.0339
G1 X165.170 Y181.830 E15.0509
G1 X218.923 Y181.830 E17.2317
G1 X218.832 Y180.095 E17.3022
G1 X218.860 Y179.321 E17.3336
G1 X218.960 Y178.556 E17.3649
G1 X219.132 Y177.804 E17.3962
G1 X219.374 Y177.072 E17.4275
G1 X219.684 Y176.366 E17.4588
G1 X220.060 Y175.692 E17.4901
G1 X220.497 Y175.057 E17.5214
G1 X221.003 Y174.454 E17.5533
G1 X221.109 Y174.343 E17.5595
G1 X221.686 Y173.798 E17.5917
G1 X222.295 Y173.324 E17.6230
G1 X222.945 Y172.910 E17.6543
G1 X223.635 Y172.557 E17.6857
G1 X224.187 Y172.334 E17.7099
G1 X224.339 Y172.277 E17.7165
G1 X225.089 Y172.058 E17.7482
G1 X225.846 Y171.913 E17.7795
G1 X226.614 Y171.840 E17.8108
G1 X227.386 Y171.840 E17.8421
G1 X228.154 Y171.913 E17.8734
G1 X228.911 Y172.058 E17.9046
G1 X229.652 Y172.274 E17.9359
G1 X230.368 Y172.559 E17.9672
G1 X231.055 Y172.910 E17.9985
G1 X231.700 Y173.321 E18.0296
G1 X232.462 Y173.929 E18.0691
G1 X233.007 Y174.466 E18.1001
G1 X233.503 Y175.057 E18.1314
G1 X233.940 Y175.692 E18.1627
G1 X234.316 Y176.366 E18.1940
G1 X234.626 Y177.072 E18.2253
G1 X234.868 Y177.804 E18.2566
G1 X235.040 Y178.556 E18.2879
G1 X235.140 Y179.321 E18.3192
G1 X235.168 Y180.095 E18.3506
G1 X235.077 Y181.830 E18.4211
G1 X288.830 Y181.830 E20.6019
G1 X288.402 Y181.402 F7200
G92 E0.0000
G1 X288.402 Y58.598 E4.9822 F540
G1 X165.598 Y58.598 E9.9645
G1 X165.598 Y181.402 E14.9467
G1 X218.472 Y181.402 E17.0919
G1 X218.403 Y180.099 E17.1448
G1 X218.433 Y179.285 E17.1778
G1 X218.538 Y178.480 E17.2108
G1 X218.719 Y177.689 E17.2437
G1 X218.974 Y176.918 E17.2766
G1 X219.301 Y176.175 E17.3096
G1 X219.696 Y175.466 E17.3425
G1 X220.156 Y174.798 E17.3754
G1 X220.684 Y174.168 E17.4088
G1 X220.807 Y174.040 E17.4160
G1 X221.407 Y173.473 E17.4495
G1 X222.048 Y172.974 E17.4824
G1 X222.732 Y172.538 E17.5153
G1 X223.457 Y172.168 E17.5483
G1 X224.032 Y171.935 E17.5735
G1 X224.203 Y171.870 E17.5809
G1 X224.989 Y171.642 E17.6141
G1 X225.786 Y171.489 E17.6471
G1 X226.594 Y171.412 E17.6800
G1 X227.406 Y171.412 E17.7129
G1 X228.214 Y171.489 E17.7459
G1 X229.011 Y171.642 E17.7788
G1 X229.791 Y171.869 E17.8118
G1 X230.545 Y172.168 E17.8447
G1 X231.268 Y172.538 E17.8776
G1 X231.949 Y172.972 E17.9104
G1 X232.747 Y173.608 E17.9518
G1 X233.322 Y174.175 E17.9845
G1 X233.844 Y174.798 E18.0175
G1 X234.304 Y175.466 E18.0504
G1 X234.699 Y176.175 E18.0834
G1 X235.026 Y176.918 E18.1163
G1 X235.281 Y177.689 E18.1492
G1 X235.462 Y178.480 E18.1822
G1 X235.567 Y179.285 E18.2151
G1 X235.597 Y180.099 E18.2481
G1 X235.528 Y181.402 E18.3011
G1 X288.402 Y181.402 E20.4462
; feature outer perimeter
G1 X287.974 Y180.974 F7200
G92 E0.0000
G1 X287.974 Y59.026 E4.9475 F360
G1 X166.026 Y59.026 E9.8950
G1 X166.026 Y180.974 E14.8426
G1 X218.021 Y180.974 E16.9520
G1 X217.975 Y180.102 E16.9874
G1 X218.006 Y179.250 E17.0220
G1 X218.116 Y178.405 E17.0566
G1 X218.306 Y177.574 E17.0912
G1 X218.574 Y176.765 E17.1258
G1 X218.917 Y175.984 E17.1604
G1 X219.332 Y175.240 E17.1949
G1 X219.815 Y174.538 E17.2295
G1 X220.365 Y173.883 E17.2642
G1 X220.505 Y173.736 E17.2724
G1 X221.128 Y173.148 E17.3072
G1 X221.800 Y172.624 E17.3418
G1 X222.519 Y172.166 E17.3763
G1 X223.279 Y171.778 E17.4110
G1 X223.876 Y171.536 E17.4371
G1 X224.068 Y171.464 E17.4454
G1 X224.888 Y171.225 E17.4801
G1 X225.725 Y171.065 E17.5147
G1 X226.574 Y170.984 E17.5492
G1 X227.426 Y170.984 E17.5838
G1 X228.275 Y171.065 E17.6184
G1 X229.112 Y171.225 E17.6530
G1 X229.930 Y171.464 E17.6876
G1 X230.722 Y171.778 E17.7221
G1 X231.481 Y172.166 E17.7567
G1 X232.199 Y172.624 E17.7912
G1 X233.031 Y173.287 E17.8344
G1 X233.637 Y173.885 E17.8690
G1 X234.185 Y174.538 E17.9035
G1 X234.668 Y175.240 E17.9381
G1 X235.083 Y175.984 E17.9727
G1 X235.426 Y176.765 E18.0073
G1 X235.694 Y177.574 E18.0419
G1 X235.884 Y178.405 E18.0764
G1 X235.994 Y179.250 E18.1110
G1 X236.025 Y180.102 E18.1456
G1 X235.979 Y180.974 E18.1810
G1 X287.974 Y180.974 E20.2905
G92 E0.0000
G1 E-1.0000 F600
G1 X287.974 Y178.974 F360
; feature solid layer
G1 Z0.740 F450
G1 X233.382 Y175.410 F7200
G1 Z0.240 F450
G1 E0.0000 F600
G92 E0.0000
G1 X231.582 Y173.610 E0.1032 F576
G1 X231.526 Y173.565 E0.1062
G1 X230.906 Y173.170 E0.1360
G1 X230.245 Y172.832 E0.1661
G1 X230.169 Y172.802 E0.1694
G1 X234.189 Y176.822 E0.4001
G1 X234.346 Y177.180 E0.4160
G1 X234.546 Y177.785 E0.4418
G1 X229.222 Y172.461 E0.7473
G1 X228.841 Y172.350 E0.7634
G1 X228.427 Y172.270 E0.7805
G1 X234.739 Y178.583 E1.1427
G1 X234.745 Y178.609 E1.1438
G1 X234.833 Y179.282 E1.1713
G1 X227.724 Y172.173 E1.5792
G1 X227.372 Y172.140 E1.5936
G1 X227.086 Y172.140 E1.6052
G1 X234.862 Y179.916 E2.0513
G1 X234.868 Y180.093 E2.0585
G1 X234.847 Y180.506 E2.0753
G1 X226.493 Y172.153 E2.5546
G1 X225.940 Y172.205 E2.5771
G1 X234.816 Y181.081 E3.0864
G1 X234.786 Y181.656 E3.1098
G1 X225.428 Y172.298 E3.6467
G1 X225.159 Y172.350 E3.6578
G1 X224.939 Y172.414 E3.6671
G1 X245.715 Y193.190 E4.8592
G1 X246.320 Y193.190 E4.8837
G1 X235.259 Y182.130 E5.5184
G1 X235.865 Y182.130 E5.5429
G1 X246.925 Y193.190 E6.1775
G1 X247.531 Y193.190 E6.2021
G1 X236.470 Y182.130 E6.8367
G1 X237.075 Y182.130 E6.8613
G1 X248.136 Y193.190 E7.4959
G1 X248.741 Y193.190 E7.5205
G1 X237.681 Y182.130 E8.1551
G1 X238.286 Y182.130 E8.1796
G1 X249.347 Y193.190 E8.8142
G1 X249.952 Y193.190 E8.8388
G1 X238.891 Y182.130 E9.4734
G1 X239.496 Y182.130 E9.4980
G1 X250.557 Y193.190 E10.1326
G1 X251.162 Y193.190 E10.1572
G1 X240.102 Y182.130 E10.7918
G1 X240.707 Y182.130 E10.8163
G1 X251.768 Y193.190 E11.4510
G1 X252.373 Y193.190 E11.4755
G1 X241.312 Y182.130 E12.1101
G1 X241.917 Y182.130 E12.1347
G1 X252.978 Y193.190 E12.7693
G1 X253.584 Y193.190 E12.7939
G1 X242.523 Y182.130 E13.4285
G1 X243.128 Y182.130 E13.4530
G1 X254.189 Y193.190 E14.0877
G1 X254.794 Y193.190 E14.1122
G1 X243.733 Y182.130 E14.7468
G1 X244.339 Y182.130 E14.7714
G1 X255.399 Y193.190 E15.4060
G1 X256.005 Y193.190 E15.4306
G1 X244.944 Y182.130 E16.0652
G1 X245.549 Y182.130 E16.0898
G1 X256.610 Y193.190 E16.7244
G1 X257.215 Y193.190 E16.7489
G1 X246.154 Y182.130 E17.3836
G1 X246.760 Y182.130 E17.4081
G1 X257.821 Y193.190 E18.0427
G1 X258.426 Y193.190 E18.0673
G1 X247.365 Y182.130 E18.7019
G1 X247.970 Y182.130 E18.7265
G1 X259.031 Y193.190 E19.3611
G1 X259.636 Y193.190 E19.3856
G1 X248.576 Y182.130 E20.0203
G1 X249.181 Y182.130 E20.0448
G1 X260.242 Y193.190 E20.6794
G1 X260.847 Y193.190 E20.7040
G1 X249.786 Y182.130 E21.3386
G1 X250.391 Y182.130 E21.3632
G1 X261.452 Y193.190 E21.9978
G1 X262.058 Y193.190 E22.0224
G1 X250.997 Y182.130 E22.6570
G1 X251.602 Y182.130 E22.6815
G1 X262.663 Y193.190 E23.3161
G1 X263.268 Y193.190 E23.3407
G1 X252.207 Y182.130 E23.9753
G1 X252.813 Y182.130 E23.9999
G1 X263.873 Y193.190 E24.6345
G1 X264.479 Y193.190 E24.6591
G1 X253.418 Y182.130 E25.2937
G1 X254.023 Y182.130 E25.3182
G1 X265.084 Y193.190 E25.9529
G1 X265.689 Y193.190 E25.9774
G1 X254.628 Y182.130 E26.6120
G1 X255.234 Y182.130 E26.6366
G1 X266.295 Y193.190 E27.2712
G1 X266.900 Y193.190 E27.2958
G1 X255.839 Y182.130 E27.9304
G1 X256.444 Y182.130 E27.9549
G1 X267.505 Y193.190 E28.5896
G1 X268.110 Y193.190 E28.6141
G1 X257.050 Y182.130 E29.2487
G1 X257.655 Y182.130 E29.2733
G1 X268.716 Y193.190 E29.9079
G1 X269.321 Y193.190 E29.9325
G1 X258.260 Y182.130 E30.5671
G1 X258.865 Y182.130 E30.5917
G1 X269.926 Y193.190 E31.2263
G1 X270.532 Y193.190 E31.2508
G1 X259.471 Y182.130 E31.8855
G1 X260.076 Y182.130 E31.9100
G1 X271.137 Y193.190 E32.5446
G1 X271.742 Y193.190 E32.5692
G1 X260.681 Y182.130 E33.2038
G1 X261.287 Y182.130 E33.2284
G1 X272.347 Y193.190 E33.8630
G1 X272.953 Y193.190 E33.8875
G1 X261.892 Y182.130 E34.5222
G1 X262.497 Y182.130 E34.5467
G1 X273.558 Y193.190 E35.1813
G1 X274.163 Y193.190 E35.2059
G1 X263.102 Y182.130 E35.8405
G1 X263.708 Y182.130 E35.8651
G1 X274.768 Y193.190 E36.4997
G1 X275.374 Y193.190 E36.5242
G1 X264.313 Y182.130 E37.1589
G1 X264.918 Y182.130 E37.1834
G1 X275.979 Y193.190 E37.8180
G1 X276.584 Y193.190 E37.8426
G1 X265.524 Y182.130 E38.4772
G1 X266.129 Y182.130 E38.5018
G1 X277.190 Y193.190 E39.1364
G1 X277.795 Y193.190 E39.1610
G1 X266.734 Y182.130 E39.7956
G1 X267.339 Y182.130 E39.8201
G1 X278.400 Y193.190 E40.4548
G1 X279.005 Y193.190 E40.4793
G1 X267.945 Y182.130 E41.1139
G1 X268.550 Y182.130 E41.1385
G1 X279.611 Y193.190 E41.7731
G1 X280.216 Y193.190 E41.7977
G1 X269.155 Y182.130 E42.4323
G1 X269.761 Y182.130 E42.4568
G1 X280.821 Y193.190 E43.0915
G1 X281.427 Y193.190 E43.1160
G1 X270.366 Y182.130 E43.7506
G1 X270.971 Y182.130 E43.7752
G1 X282.032 Y193.190 E44.4098
G1 X282.637 Y193.190 E44.4344
G1 X271.576 Y182.130 E45.0690
G1 X272.182 Y182.130 E45.0936
G1 X283.242 Y193.190 E45.7282
G1 X283.848 Y193.190 E45.7527
G1 X272.787 Y182.130 E46.3873
G1 X273.392 Y182.130 E46.4119
G1 X284.453 Y193.190 E47.0465
G1 X285.058 Y193.190 E47.0711
G1 X273.998 Y182.130 E47.7057
G1 X274.603 Y182.130 E47.7303
G1 X285.664 Y193.190 E48.3649
G1 X286.269 Y193.190 E48.3894
G1 X275.208 Y182.130 E49.0241
G1 X275.813 Y182.130 E49.0486
G1 X286.874 Y193.190 E49.6832
G1 X287.479 Y193.190 E49.7078
G1 X276.419 Y182.130 E50.3424
