; G-Code generated by Simplify3D(R) Version 4.1.2
; Apr 5, 2020 at 1:18:20 AM
; Settings Summary
;   processName,Process 0.3mm(1)
;   applyToModels,X Gantry Alignment
;   profileName,ShadowHawk ProMega Hemera Inland PETG (modified)
;   profileVersion,2020-04-01 00:08:43
;   baseProfile,Default
;   printMaterial,MG PETG
;   printQuality,Medium
;   printExtruders,All Extruders
;   extruderName,Main Extruder
;   extruderToolheadNumber,0
;   extruderDiameter,0.4
;   extruderAutoWidth,0
;   extruderWidth,0.4
;   extrusionMultiplier,0.95
;   extruderUseRetract,1
;   extruderRetractionDistance,1
;   extruderExtraRestartDistance,0
;   extruderRetractionZLift,0.5
;   extruderRetractionSpeed,600
;   extruderUseCoasting,0
;   extruderCoastingDistance,0.1
;   extruderUseWipe,1
;   extruderWipeDistance,2
;   primaryExtruder,0
;   layerHeight,0.3
;   topSolidLayers,4
;   bottomSolidLayers,4
;   perimeterOutlines,3
;   printPerimetersInsideOut,1
;   startPointOption,3
;   startPointOriginX,5000
;   startPointOriginY,5000
;   sequentialIslands,0
;   spiralVaseMode,0
;   firstLayerHeightPercentage,150
;   firstLayerWidthPercentage,80
;   firstLayerUnderspeed,0.5
;   useRaft,0
;   raftExtruder,0
;   raftTopLayers,3
;   raftBaseLayers,2
;   raftOffset,3
;   raftSeparationDistance,0.14
;   raftTopInfill,100
;   aboveRaftSpeedMultiplier,0.3
;   useSkirt,1
;   skirtExtruder,0
;   skirtLayers,1
;   skirtOutlines,1
;   skirtOffset,4
;   usePrimePillar,0
;   primePillarExtruder,0
;   primePillarWidth,12
;   primePillarLocation,7
;   primePillarSpeedMultiplier,1
;   useOozeShield,0
;   oozeShieldExtruder,999
;   oozeShieldOffset,2
;   oozeShieldOutlines,1
;   oozeShieldSidewallShape,1
;   oozeShieldSidewallAngle,30
;   oozeShieldSpeedMultiplier,1
;   infillExtruder,0
;   internalInfillPattern,Rectilinear
;   externalInfillPattern,Rectilinear
;   infillPercentage,15
;   outlineOverlapPercentage,30
;   infillExtrusionWidthPercentage,100
;   minInfillLength,3
;   infillLayerInterval,1
;   internalInfillAngles,45,-45
;   overlapInternalInfillAngles,0
;   externalInfillAngles,45,-45,0,90
;   generateSupport,0
;   supportExtruder,0
;   supportInfillPercentage,20
;   supportExtraInflation,0.6
;   supportBaseLayers,0
;   denseSupportExtruder,0
;   denseSupportLayers,4
;   denseSupportInfillPercentage,70
;   supportLayerInterval,1
;   supportHorizontalPartOffset,0.5
;   supportUpperSeparationLayers,1
;   supportLowerSeparationLayers,1
;   supportType,0
;   supportGridSpacing,4
;   maxOverhangAngle,60
;   supportAngles,35
;   temperatureName,Extruder 1,Heated Bed
;   temperatureNumber,0,0
;   temperatureSetpointCount,1,1
;   temperatureSetpointLayers,1,1
;   temperatureSetpointTemperatures,240,70
;   temperatureStabilizeAtStartup,1,1
;   temperatureHeatedBed,0,1
;   fanLayers,1,4
;   fanSpeeds,0,80
;   blipFanToFullPower,0
;   adjustSpeedForCooling,1
;   minSpeedLayerTime,20
;   minCoolingSpeedSlowdown,20
;   increaseFanForCooling,1
;   minFanLayerTime,45
;   maxCoolingFanSpeed,100
;   increaseFanForBridging,1
;   bridgingFanSpeed,100
;   use5D,1
;   relativeEdistances,0
;   allowEaxisZeroing,1
;   independentExtruderAxes,0
;   includeM10123,0
;   stickySupport,1
;   applyToolheadOffsets,0
;   gcodeXoffset,0
;   gcodeYoffset,0
;   gcodeZoffset,0
;   overrideMachineDefinition,1
;   machineTypeOverride,0
;   strokeXoverride,353
;   strokeYoverride,341
;   strokeZoverride,374.4
;   originOffsetXoverride,0
;   originOffsetYoverride,0
;   originOffsetZoverride,0
;   homeXdirOverride,1
;   homeYdirOverride,1
;   homeZdirOverride,1
;   flipXoverride,1
;   flipYoverride,-1
;   flipZoverride,1
;   toolheadOffsets,0,0|0,0|0,0|0,0|0,0|0,0
;   overrideFirmwareConfiguration,1
;   firmwareTypeOverride,RepRap (Marlin/Repetier/Sprinter)
;   GPXconfigOverride,r2
;   baudRateOverride,115200
;   overridePrinterModels,0
;   printerModelsOverride
;   startingGcode,M98 Pprint_startgcode.g
;   layerChangeGcode,,
;   retractionGcode,
;   toolChangeGcode,G91 ; use relative positions,G1 Z0.5 ; move the bed down by 0.5,T[new_tool],G1 Z-0.5 ; move the bed up by 0.5,G90 ; back to absolute positions
;   endingGcode,M98 Pprint_stopgcode.g
;   exportFileFormat,gcode
;   celebration,0
;   celebrationSong,Star Wars
;   postProcessing,
;   defaultSpeed,3600
;   outlineUnderspeed,0.5
;   solidInfillUnderspeed,0.8
;   supportUnderspeed,0.5
;   rapidXYspeed,7200
;   rapidZspeed,450
;   minBridgingArea,50
;   bridgingExtraInflation,0
;   bridgingExtrusionMultiplier,1.2
;   bridgingSpeedMultiplier,0.5
;   useFixedBridgingAngle,0
;   fixedBridgingAngle,135
;   applyBridgingToPerimeters,1
;   filamentDiameters,1.75|1.75|1.75|1.75|1.75|1.75
;   filamentPricesPerKg,19|46|46|46|46|46
;   filamentDensities,1.25|1.25|1.25|1.25|1.25|1.25
;   useMinPrintHeight,0
;   minPrintHeight,21.4
;   useMaxPrintHeight,0
;   maxPrintHeight,10
;   useDiaphragm,0
;   diaphragmLayerInterval,20
;   robustSlicing,1
;   mergeAllIntoSolid,0
;   onlyRetractWhenCrossingOutline,0
;   retractBetweenLayers,1
;   useRetractionMinTravel,1
;   retractionMinTravel,3
;   retractWhileWiping,0
;   onlyWipeOutlines,1
;   avoidCrossingOutline,0
;   maxMovementDetourFactor,400
;   toolChangeRetractionDistance,2
;   toolChangeExtraRestartDistance,0.75
;   toolChangeRetractionSpeed,600
;   externalThinWallType,1
;   internalThinWallType,2
;   thinWallAllowedOverlapPercentage,80
;   singleExtrusionMinLength,0.4
;   singleExtrusionMinPrintingWidthPercentage,20
;   singleExtrusionMaxPrintingWidthPercentage,200
;   singleExtrusionEndpointExtension,0.2
;   horizontalSizeCompensation,0
G90
M82
M106 S0
M140 S70
M190 S70
M104 S240 T0
M109 S240 T0
M98 Pprint_startgcode.g
; process Process 0.3mm(1)
; layer 1, Z = 0.450
G91 ; use relative positions
G1 Z0.5 ; move the bed down by 0.5
T0
G1 Z-0.5 ; move the bed up by 0.5
G90 ; back to absolute positions
G92 E0.0000
G1 E-1.0000 F600
; feature skirt
; tool H0.450 W0.320
G1 Z0.500 F450
G1 X303.336 Y198.772 F7200
G1 Z0.450 F450
G1 E0.0000 F600
G92 E0.0000
G1 X150.664 Y198.772 E8.6832 F1800
G1 X148.227 Y196.336 E8.8792
G1 X148.227 Y43.664 E17.5623
G1 X150.664 Y41.227 E17.7583
G1 X303.336 Y41.227 E26.4415
G1 X305.772 Y43.664 E26.6375
G1 X305.772 Y196.336 E35.3206
G1 X303.336 Y198.772 E35.5166
G92 E0.0000
G1 E-1.0000 F600
; feature inner perimeter
G1 Z0.950 F450
G1 X300.812 Y193.812 F7200
G1 Z0.450 F450
G1 E0.0000 F600
G92 E0.0000
G1 X153.187 Y193.812 E8.3961 F1350
G1 X153.187 Y46.188 E16.7923
G1 X300.812 Y46.188 E25.1884
G1 X300.812 Y193.812 E33.5846
G1 X301.132 Y194.132 F7200
G92 E0.0000
G1 X152.867 Y194.132 E8.4325 F1350
G1 X152.867 Y45.867 E16.8651
G1 X301.132 Y45.867 E25.2976
G1 X301.132 Y194.132 E33.7302
; feature outer perimeter
G1 X301.452 Y194.452 F7200
G92 E0.0000
G1 X152.547 Y194.452 E8.4689 F900
G1 X152.547 Y45.547 E16.9379
G1 X301.452 Y45.547 E25.4068
G1 X301.452 Y194.452 E33.8758
G92 E0.0000
G1 E-1.0000 F600
G1 X299.452 Y194.452 F900
; feature inner perimeter
G1 Z0.950 F450
G1 X288.350 Y181.350 F7200
G1 Z0.450 F450
G1 E0.0000 F600
G92 E0.0000
G1 X288.350 Y58.650 E6.9785 F1350
G1 X165.650 Y58.650 E13.9571
G1 X165.650 Y181.350 E20.9356
G1 X218.396 Y181.350 E23.9355
G1 X218.351 Y180.077 E24.0080
G1 X218.382 Y179.265 E24.0542
G1 X218.488 Y178.467 E24.1000
G1 X218.667 Y177.682 E24.1458
G1 X218.919 Y176.918 E24.1915
G1 X219.241 Y176.180 E24.2373
G1 X219.629 Y175.475 E24.2831
G1 X220.082 Y174.810 E24.3288
G1 X220.600 Y174.183 E24.3751
G1 X220.848 Y173.924 E24.3955
G1 X221.165 Y173.618 E24.4205
G1 X221.434 Y173.383 E24.4409
G1 X222.082 Y172.888 E24.4872
G1 X222.764 Y172.461 E24.5330
G1 X223.487 Y172.097 E24.5790
G1 X223.888 Y171.935 E24.6036
G1 X224.227 Y171.808 E24.6242
G1 X225.005 Y171.584 E24.6703
G1 X225.796 Y171.435 E24.7161
G1 X226.598 Y171.360 E24.7619
G1 X227.402 Y171.360 E24.8076
G1 X228.204 Y171.435 E24.8534
G1 X228.995 Y171.584 E24.8992
G1 X229.768 Y171.806 E24.9449
G1 X230.517 Y172.099 E24.9907
G1 X231.236 Y172.461 E25.0365
G1 X231.918 Y172.888 E25.0822
G1 X232.566 Y173.383 E25.1286
G1 X232.830 Y173.613 E25.1485
G1 X233.405 Y174.190 E25.1949
G1 X233.918 Y174.810 E25.2406
G1 X234.371 Y175.475 E25.2864
G1 X234.759 Y176.180 E25.3322
G1 X235.081 Y176.918 E25.3779
G1 X235.333 Y177.682 E25.4237
G1 X235.512 Y178.467 E25.4695
G1 X235.618 Y179.265 E25.5152
G1 X235.649 Y180.077 E25.5615
G1 X235.604 Y181.350 E25.6339
G1 X288.350 Y181.350 E28.6338
G1 X288.030 Y181.030 F7200
G92 E0.0000
G1 X288.030 Y58.970 E6.9421 F1350
G1 X165.970 Y58.970 E13.8843
G1 X165.970 Y181.030 E20.8264
G1 X218.064 Y181.030 E23.7893
G1 X218.031 Y180.076 E23.8436
G1 X218.063 Y179.237 E23.8913
G1 X218.173 Y178.410 E23.9388
G1 X218.359 Y177.596 E23.9862
G1 X218.620 Y176.804 E24.0337
G1 X218.953 Y176.038 E24.0812
G1 X219.356 Y175.308 E24.1287
G1 X219.826 Y174.618 E24.1761
G1 X220.361 Y173.971 E24.2239
G1 X220.621 Y173.698 E24.2453
G1 X220.948 Y173.382 E24.2712
G1 X221.231 Y173.135 E24.2925
G1 X221.899 Y172.625 E24.3404
G1 X222.606 Y172.182 E24.3878
G1 X223.355 Y171.806 E24.4354
G1 X223.772 Y171.637 E24.4610
G1 X224.126 Y171.504 E24.4826
G1 X224.931 Y171.273 E24.5302
G1 X225.752 Y171.118 E24.5777
G1 X226.583 Y171.040 E24.6252
G1 X227.417 Y171.040 E24.6726
G1 X228.248 Y171.118 E24.7201
G1 X229.069 Y171.273 E24.7676
G1 X229.871 Y171.503 E24.8150
G1 X230.648 Y171.807 E24.8625
G1 X231.394 Y172.182 E24.9100
G1 X232.101 Y172.625 E24.9574
G1 X232.769 Y173.135 E25.0053
G1 X233.049 Y173.380 E25.0264
G1 X233.642 Y173.975 E25.0742
G1 X234.174 Y174.618 E25.1216
G1 X234.644 Y175.308 E25.1691
G1 X235.047 Y176.038 E25.2166
G1 X235.380 Y176.804 E25.2640
G1 X235.641 Y177.596 E25.3115
G1 X235.827 Y178.410 E25.3590
G1 X235.937 Y179.237 E25.4065
G1 X235.969 Y180.076 E25.4542
G1 X235.936 Y181.030 E25.5085
G1 X288.030 Y181.030 E28.4713
; feature outer perimeter
G1 X287.710 Y180.710 F7200
G92 E0.0000
G1 X287.710 Y59.290 E6.9057 F900
G1 X166.290 Y59.290 E13.8115
G1 X166.290 Y180.710 E20.7172
G1 X217.733 Y180.710 E23.6430
G1 X217.711 Y180.076 E23.6791
G1 X217.744 Y179.210 E23.7284
G1 X217.857 Y178.353 E23.7776
G1 X218.050 Y177.511 E23.8267
G1 X218.320 Y176.689 E23.8759
G1 X218.666 Y175.897 E23.9251
G1 X219.084 Y175.140 E23.9742
G1 X219.570 Y174.425 E24.0234
G1 X220.122 Y173.758 E24.0727
G1 X220.394 Y173.473 E24.0951
G1 X220.731 Y173.147 E24.1218
G1 X221.028 Y172.887 E24.1442
G1 X221.717 Y172.361 E24.1935
G1 X222.449 Y171.903 E24.2426
G1 X223.223 Y171.514 E24.2918
G1 X223.655 Y171.339 E24.3184
G1 X224.026 Y171.200 E24.3409
G1 X224.858 Y170.961 E24.3901
G1 X225.707 Y170.801 E24.4393
G1 X226.568 Y170.720 E24.4885
G1 X227.432 Y170.720 E24.5376
G1 X228.293 Y170.801 E24.5868
G1 X229.142 Y170.961 E24.6360
G1 X229.973 Y171.199 E24.6851
G1 X230.778 Y171.514 E24.7343
G1 X231.551 Y171.903 E24.7834
G1 X232.283 Y172.361 E24.8326
G1 X232.972 Y172.887 E24.8819
G1 X233.268 Y173.146 E24.9042
G1 X233.879 Y173.759 E24.9535
G1 X234.430 Y174.425 E25.0027
G1 X234.916 Y175.140 E25.0518
G1 X235.334 Y175.897 E25.1010
G1 X235.680 Y176.689 E25.1502
G1 X235.950 Y177.511 E25.1993
G1 X236.143 Y178.353 E25.2485
G1 X236.256 Y179.210 E25.2977
G1 X236.289 Y180.076 E25.3469
G1 X236.267 Y180.710 E25.3830
G1 X287.710 Y180.710 E28.3088
G92 E0.0000
G1 E-1.0000 F600
G1 X287.710 Y178.710 F900
; feature solid layer
G1 Z0.950 F450
G1 X234.191 Y175.614 F7200
G1 Z0.450 F450
G1 E0.0000 F600
G92 E0.0000
G1 X231.414 Y172.836 E0.2234 F1440
G1 X231.126 Y172.656 E0.2427
G1 X230.432 Y172.307 E0.2869
G1 X234.678 Y176.553 E0.6284
G1 X234.872 Y176.998 E0.6560
G1 X234.971 Y177.298 E0.6740
G1 X229.689 Y172.017 E1.0988
G1 X229.054 Y171.834 E1.1363
G1 X235.163 Y177.943 E1.6277
G1 X235.291 Y178.507 E1.6606
G1 X235.294 Y178.527 E1.6617
G1 X228.483 Y171.716 E2.2096
G1 X228.173 Y171.657 E2.2275
G1 X227.951 Y171.637 E2.2402
G1 X235.363 Y179.049 E2.8364
G1 X235.394 Y179.284 E2.8498
G1 X235.404 Y179.542 E2.8646
G1 X227.452 Y171.590 E3.5042
G1 X227.392 Y171.584 E3.5076
G1 X226.994 Y171.584 E3.5303
G1 X235.422 Y180.013 E4.2082
G1 X235.425 Y180.077 E4.2118
G1 X235.411 Y180.455 E4.2333
G1 X226.547 Y171.590 E4.9463
G1 X226.133 Y171.629 E4.9700
G1 X235.396 Y180.892 E5.7150
G1 X235.381 Y181.329 E5.7399
G1 X225.728 Y171.676 E6.5163
G1 X225.347 Y171.748 E6.5384
G1 X247.188 Y193.588 E8.2951
G1 X247.640 Y193.588 E8.3208
G1 X235.626 Y181.574 E9.2872
G1 X236.078 Y181.574 E9.3129
G1 X248.093 Y193.588 E10.2793
G1 X248.545 Y193.588 E10.3050
G1 X236.531 Y181.574 E11.2714
G1 X236.983 Y181.574 E11.2971
G1 X248.998 Y193.588 E12.2635
G1 X249.451 Y193.588 E12.2892
G1 X237.436 Y181.574 E13.2556
G1 X237.889 Y181.574 E13.2813
G1 X249.903 Y193.588 E14.2477
G1 X250.356 Y193.588 E14.2734
G1 X238.341 Y181.574 E15.2398
G1 X238.794 Y181.574 E15.2655
G1 X250.808 Y193.588 E16.2319
G1 X251.261 Y193.588 E16.2576
G1 X239.246 Y181.574 E17.2240
G1 X239.699 Y181.574 E17.2498
G1 X251.713 Y193.588 E18.2161
G1 X252.166 Y193.588 E18.2419
G1 X240.151 Y181.574 E19.2082
G1 X240.604 Y181.574 E19.2340
G1 X252.618 Y193.588 E20.2003
G1 X253.071 Y193.588 E20.2261
G1 X241.056 Y181.574 E21.1924
G1 X241.509 Y181.574 E21.2182
G1 X253.523 Y193.588 E22.1845
G1 X253.976 Y193.588 E22.2103
G1 X241.962 Y181.574 E23.1766
G1 X242.414 Y181.574 E23.2024
G1 X254.429 Y193.588 E24.1687
G1 X254.881 Y193.588 E24.1945
G1 X242.867 Y181.574 E25.1608
G1 X243.319 Y181.574 E25.1866
G1 X255.334 Y193.588 E26.1529
G1 X255.786 Y193.588 E26.1787
G1 X243.772 Y181.574 E27.1450
G1 X244.224 Y181.574 E27.1708
G1 X256.239 Y193.588 E28.1371
G1 X256.691 Y193.588 E28.1629
G1 X244.677 Y181.574 E29.1292
G1 X245.129 Y181.574 E29.1550
G1 X257.144 Y193.588 E30.1213
G1 X257.596 Y193.588 E30.1471
G1 X245.582 Y181.574 E31.1134
G1 X246.034 Y181.574 E31.1392
G1 X258.049 Y193.588 E32.1056
G1 X258.502 Y193.588 E32.1313
G1 X246.487 Y181.574 E33.0977
G1 X246.940 Y181.574 E33.1234
G1 X258.954 Y193.588 E34.0898
G1 X259.407 Y193.588 E34.1155
G1 X247.392 Y181.574 E35.0819
G1 X247.845 Y181.574 E35.1076
G1 X259.859 Y193.588 E36.0740
G1 X260.312 Y193.588 E36.0997
G1 X248.297 Y181.574 E37.0661
G1 X248.750 Y181.574 E37.0918
G1 X260.764 Y193.588 E38.0582
G1 X261.217 Y193.588 E38.0839
G1 X249.202 Y181.574 E39.0503
G1 X249.655 Y181.574 E39.0760
G1 X261.669 Y193.588 E40.0424
G1 X262.122 Y193.588 E40.0681
G1 X250.107 Y181.574 E41.0345
G1 X250.560 Y181.574 E41.0602
G1 X262.574 Y193.588 E42.0266
G1 X263.027 Y193.588 E42.0523
G1 X251.012 Y181.574 E43.0187
G1 X251.465 Y181.574 E43.0444
G1 X263.480 Y193.588 E44.0108
G1 X263.932 Y193.588 E44.0365
G1 X251.918 Y181.574 E45.0029
G1 X252.370 Y181.574 E45.0286
G1 X264.385 Y193.588 E45.9950
G1 X264.837 Y193.588 E46.0207
G1 X252.823 Y181.574 E46.9871
G1 X253.275 Y181.574 E47.0128
G1 X265.290 Y193.588 E47.9792
G1 X265.742 Y193.588 E48.0049
G1 X253.728 Y181.574 E48.9713
G1 X254.180 Y181.574 E48.9970
G1 X266.195 Y193.588 E49.9634
G1 X266.647 Y193.588 E49.9891
G1 X254.633 Y181.574 E50.9555
G1 X255.085 Y181.574 E50.9812
G1 X267.100 Y193.588 E51.9476
G1 X267.552 Y193.588 E51.9733
G1 X255.538 Y181.574 E52.9397
G1 X255.991 Y181.574 E52.9654
G1 X268.005 Y193.588 E53.9318
G1 X268.458 Y193.588 E53.9575
G1 X256.443 Y181.574 E54.9239
G1 X256.896 Y181.574 E54.9496
G1 X268.910 Y193.588 E55.9160
G1 X269.363 Y193.588 E55.9417
G1 X257.348 Y181.574 E56.9081
G1 X257.801 Y181.574 E56.9339
G1 X269.815 Y193.588 E57.9002
G1 X270.268 Y193.588 E57.9260
G1 X258.253 Y181.574 E58.8923
G1 X258.706 Y181.574 E58.9181
G1 X270.720 Y193.588 E59.8844
G1 X271.173 Y193.588 E59.9102
G1 X259.158 Y181.574 E60.8765
G1 X259.611 Y181.574 E60.9023
G1 X271.625 Y193.588 E61.8686
G1 X272.078 Y193.588 E61.8944
G1 X260.063 Y181.574 E62.8607
G1 X260.516 Y181.574 E62.8865
G1 X272.531 Y193.588 E63.8528
G1 X272.983 Y193.588 E63.8786
G1 X260.969 Y181.574 E64.8449
G1 X261.421 Y181.574 E64.8707
G1 X273.436 Y193.588 E65.8370
G1 X273.888 Y193.588 E65.8628
G1 X261.874 Y181.574 E66.8291
G1 X262.326 Y181.574 E66.8549
G1 X274.341 Y193.588 E67.8212
G1 X274.793 Y193.588 E67.8470
G1 X262.779 Y181.574 E68.8133
G1 X263.231 Y181.574 E68.8391
G1 X275.246 Y193.588 E69.8054
G1 X275.698 Y193.588 E69.8312
G1 X263.684 Y181.574 E70.7975
G1 X264.136 Y181.574 E70.8233
G1 X276.151 Y193.588 E71.7896
G1 X276.603 Y193.588 E71.8154
